webgpu/resources/luts/CELLULOID_01_FU_LOW.cube
TITLE "CELLULOÏDE PRO 3DLUT"
LUT_3D_SIZE 5
# Copyright: (C) 2018 CELLULOÏD
# https://celluloid.pro
0.0264897 0.0398718 0.052842
0.203952 0.0513161 0.0347753
0.590738 0.0171359 0.0174105
0.711543 0.0175631 0.0215152
0.728237 0.0201419 0.0221866
0.00543221 0.130922 0.0584878
0.145357 0.145693 0.0438697
0.631388 0.157061 0.0111696
0.76408 0.129198 0.014023
0.775174 0.103792 0.0178683
0 0.360555 0.0133059
0.017731 0.391989 0.0116121
0.670344 0.556313 0.00817884
0.946212 0.553643 0.0110323
0.962478 0.528756 0.0129702
0.00221256 0.481636 0.016022
0.0235447 0.509239 0.0155795
0.439521 0.730266 0.0156405
0.982284 0.84976 0.0174411
1 0.83856 0.0189822
0.0109255 0.53579 0.0218967
0.0311742 0.54403 0.0211032
0.219455 0.709438 0.0204471
0.960861 0.9028 0.0230869
1 0.903532 0.0252537
0.00767529 0.026978 0.212192
0.203601 0.0292668 0.216739
0.617426 0.0159152 0.201282
0.737514 0.0153964 0.180652
0.749828 0.0174868 0.150347
0.00363165 0.145083 0.199344
0.117708 0.156176 0.187182
0.622324 0.121233 0.133196
0.757733 0.065095 0.100847
0.790204 0.0431983 0.0752575
0 0.39028 0.14464
0.0156863 0.405051 0.113237
0.656184 0.556023 0.0268559
0.95317 0.55375 0.0287327
0.970184 0.527123 0.0307469
0.00294499 0.494942 0.0958724
0.0231937 0.512123 0.0567025
0.406287 0.724071 0.0328374
0.982467 0.851133 0.0346532
1 0.83711 0.0360113
0.00994888 0.542123 0.0956283
0.0296788 0.545769 0.0733349
0.175036 0.699825 0.0370184
0.95169 0.900999 0.0393835
1 0.903441 0.0420996
0.00531014 0.0477607 0.463294
0.175235 0.04094 0.499641
0.647623 0.0240177 0.541329
0.762997 0.0208743 0.526665
0.781109 0.023209 0.50811
0.00427253 0.0806744 0.493858
0.0414588 0.14461 0.531182
0.640253 0.082887 0.560174
0.800565 0.0431067 0.529335
0.819303 0.0407874 0.503609
0 0.446952 0.583795
0.0126192 0.462455 0.580987
0.577264 0.589532 0.60647
0.924956 0.558465 0.566247
0.947478 0.531411 0.531624
0.00198367 0.584604 0.548959
0.0210117 0.59762 0.524712
0.147555 0.759518 0.500084
0.958297 0.879454 0.435004
1 0.86363 0.369985
0.00810254 0.622385 0.510338
0.0262455 0.622599 0.489845
0.0574502 0.747738 0.475685
0.889769 0.916671 0.40325
1 0.918608 0.290929
0.00509651 0.0593423 0.581079
0.155566 0.0666056 0.634226
0.654597 0.0294194 0.697856
0.762509 0.0259556 0.663783
0.791241 0.0271 0.664866
0.00239567 0.137316 0.644144
0.01944 0.19382 0.696452
0.634546 0.203784 0.787686
0.794858 0.149752 0.731411
0.814572 0.0906386 0.708156
0 0.44007 0.761059
0.0142824 0.45272 0.778546
0.48333 0.57203 0.868727
0.903517 0.539406 0.88127
0.936568 0.515831 0.871061
0.00314336 0.608408 0.800626
0.0193332 0.625208 0.808637
0.042237 0.783108 0.86714
0.912779 0.919753 0.915969
0.999573 0.914717 0.901564
0.00793469 0.666285 0.811673
0.0236667 0.66862 0.808637
0.043534 0.780865 0.842542
0.824994 0.968353 0.887053
0.999619 0.986236 0.868086
0.00572213 0.0628672 0.60238
0.137987 0.0667277 0.650111
0.625193 0.0344701 0.696437
0.760449 0.0297856 0.694072
0.792081 0.0289464 0.696132
0.00389105 0.119738 0.658625
0.0189364 0.186297 0.712291
0.603876 0.205478 0.790112
0.795254 0.169757 0.771481
0.82565 0.159854 0.76733
0 0.434089 0.782849
0.0163882 0.44596 0.799588
0.446479 0.567407 0.893645
0.892744 0.548898 0.921218
0.935363 0.533318 0.916747
0.00328069 0.614282 0.841581
0.0200351 0.628199 0.85301
0.0415351 0.776013 0.919097
0.890578 0.9149 0.988357
0.995819 0.910826 0.990692
0.0087892 0.672587 0.863355
0.024094 0.675349 0.865278
0.0425727 0.778225 0.909941
0.790219 0.969665 0.986816
0.994247 0.99559 0.993851
