webgpu/resources/luts/CELLULOID_01_FU_LOW.cube
TITLE "CELLULOÏDE PRO 3DLUT"
LUT_3D_SIZE 33
# Copyright: (C) 2018 CELLULOÏD
# https://celluloid.pro
0.0264897 0.0398718 0.052842
0.0320134 0.0406653 0.0529183
0.042771 0.0418097 0.052903
0.0573129 0.0436713 0.0525368
0.0741588 0.0459449 0.0518959
0.0961471 0.0483558 0.0506752
0.127749 0.050782 0.0482185
0.163775 0.0523079 0.0435035
0.203952 0.0513161 0.0347753
0.254124 0.0476692 0.0232853
0.311604 0.0416571 0.0197147
0.366476 0.0291752 0.0179599
0.41857 0.0194247 0.016434
0.470527 0.0188144 0.0158083
0.517601 0.0184176 0.0163424
0.556008 0.0177768 0.0170748
0.590738 0.0171359 0.0174105
0.620645 0.0165408 0.0180362
0.645853 0.0162814 0.0186923
0.66685 0.0162966 0.0192569
0.684596 0.0163729 0.0198825
0.697963 0.0165408 0.0204013
0.705318 0.0168917 0.0209049
0.709422 0.0171817 0.0213321
0.711543 0.0175631 0.0215152
0.713848 0.0179751 0.0217899
0.716228 0.0184329 0.0220645
0.718364 0.0189364 0.0220645
0.720241 0.0193637 0.0220493
0.722179 0.0198825 0.0220188
0.724178 0.0201724 0.022034
0.726085 0.0201572 0.0221256
0.728237 0.0201419 0.0221866
0.0252995 0.0439307 0.0526741
0.0305486 0.0445563 0.0526436
0.0403143 0.045655 0.0526284
0.0547036 0.047425 0.0521401
0.0717021 0.0497749 0.0515602
0.0929885 0.0523995 0.0504005
0.124315 0.055024 0.0479133
0.161257 0.0569009 0.0430762
0.202441 0.0569314 0.0342107
0.252171 0.0541848 0.0229953
0.310414 0.049073 0.0192874
0.367193 0.0388952 0.0176699
0.419883 0.027863 0.0163424
0.470588 0.0213779 0.0157168
0.518318 0.0202029 0.0162509
0.557473 0.0194858 0.0169985
0.591913 0.0187991 0.0173342
0.622095 0.0182345 0.0179599
0.647196 0.0180667 0.0186007
0.668101 0.0180514 0.0191806
0.685802 0.0181277 0.0198062
0.699168 0.0182956 0.0203403
0.706371 0.0186007 0.0208286
0.710079 0.0189517 0.0212711
0.712169 0.0193332 0.0214694
0.714397 0.0197299 0.0217441
0.716686 0.0202029 0.0220188
0.718654 0.0206912 0.0220188
0.720409 0.0211795 0.0220035
0.722286 0.0216678 0.021973
0.724193 0.021973 0.0219272
0.726131 0.0219577 0.0218662
0.728283 0.0219425 0.0218051
0.022446 0.049546 0.0526284
0.0282444 0.049958 0.0525826
0.0370031 0.0507668 0.052369
0.0502174 0.0521553 0.0519875
0.0681163 0.0545663 0.0514687
0.0881514 0.0573892 0.0504311
0.116838 0.0603952 0.0483101
0.154162 0.0628214 0.0437171
0.194797 0.0640269 0.0350652
0.243458 0.063447 0.0234684
0.302281 0.0610208 0.0192264
0.362493 0.0552377 0.0174716
0.417151 0.0437171 0.0164034
0.467567 0.0294652 0.0156863
0.515785 0.0225528 0.0160525
0.557626 0.0212863 0.0166018
0.593759 0.0205539 0.0171969
0.624704 0.0200198 0.0178531
0.65066 0.0198672 0.0184787
0.672221 0.019852 0.0189517
0.690364 0.0198978 0.019501
0.703883 0.0200198 0.020264
0.710903 0.0202945 0.020737
0.715389 0.0206149 0.0209964
0.717983 0.0210117 0.0212863
0.720226 0.0214542 0.0215457
0.722408 0.021912 0.0217899
0.724254 0.0223697 0.0220035
0.725963 0.022858 0.0219883
0.727825 0.0233616 0.021973
0.729549 0.0236973 0.0219577
0.73135 0.0236973 0.0218814
0.733349 0.0236515 0.0218357
0.016144 0.0573892 0.0528572
0.0230106 0.0577249 0.0528115
0.0326696 0.0584115 0.052781
0.0449989 0.0595865 0.0523537
0.0638132 0.0613565 0.0518654
0.0841993 0.0637522 0.0508431
0.110323 0.0666972 0.0490272
0.147372 0.0693065 0.0448005
0.188266 0.0712902 0.0366217
0.236088 0.0720378 0.0248264
0.294194 0.0710918 0.0191501
0.356558 0.0677806 0.017258
0.413993 0.0602884 0.0159762
0.466056 0.0463264 0.0155032
0.51516 0.0313268 0.0157015
0.558511 0.0251621 0.0164034
0.595804 0.0230564 0.0170901
0.627726 0.0220951 0.0177615
0.654795 0.0217594 0.0184024
0.67718 0.0216983 0.0188602
0.695415 0.0216831 0.019379
0.7093 0.0217441 0.0201877
0.716472 0.0219883 0.0204623
0.721859 0.0223239 0.0208438
0.724758 0.0227359 0.0212406
0.72697 0.0231937 0.0215
0.729076 0.023682 0.0217441
0.731044 0.0241398 0.0220188
0.732967 0.0246281 0.0220035
0.734966 0.0251469 0.0220035
0.736828 0.0254368 0.0219883
0.73875 0.0254368 0.0219272
0.740673 0.0254063 0.0218967
0.0089723 0.0678416 0.0541695
0.0153353 0.0681315 0.0539254
0.0238193 0.0687114 0.053666
0.0360723 0.0698253 0.0531167
0.0568399 0.0712596 0.0523842
0.0792859 0.0733654 0.0516518
0.104067 0.0761425 0.049958
0.139956 0.0791333 0.0460212
0.18172 0.0811475 0.0386816
0.229053 0.0826886 0.0260777
0.286336 0.0830396 0.0189975
0.34992 0.0814832 0.016907
0.410697 0.0773022 0.0153506
0.464622 0.0682689 0.0149996
0.515038 0.0529641 0.0154879
0.559304 0.0384985 0.016144
0.598978 0.0309148 0.0167391
0.631785 0.0266575 0.0174563
0.659403 0.0242618 0.018143
0.682597 0.0235599 0.0186923
0.701198 0.0234836 0.0192721
0.715251 0.0236973 0.0199588
0.723125 0.0240177 0.0203403
0.729122 0.0243229 0.0207828
0.732754 0.0246586 0.0211185
0.735149 0.0250553 0.0213779
0.737362 0.0254978 0.0216526
0.739284 0.0259709 0.0217746
0.7411 0.0264439 0.0218357
0.742916 0.0269474 0.0220188
0.744747 0.0272221 0.0220493
0.746624 0.0272221 0.0220188
0.748455 0.0271916 0.0219883
0.00708019 0.079057 0.0558938
0.00976577 0.0791028 0.0555886
0.014313 0.0792248 0.0551003
0.0245365 0.0803845 0.0546426
0.0457008 0.0823835 0.0538033
0.0728466 0.0847791 0.0529793
0.097734 0.0875563 0.0514076
0.132067 0.0911269 0.0475624
0.175586 0.0938888 0.0398413
0.22298 0.0968032 0.0265507
0.279454 0.0989242 0.0183871
0.343877 0.0988174 0.0161898
0.407767 0.0970626 0.0143435
0.464912 0.0921492 0.013901
0.517052 0.0824445 0.0144656
0.562676 0.0683299 0.0153658
0.602564 0.0541085 0.0162051
0.635264 0.0428779 0.0169223
0.663462 0.0339971 0.0175631
0.688319 0.0296483 0.0184024
0.708217 0.028397 0.0191501
0.723125 0.0292363 0.0195926
0.732174 0.0303655 0.0202029
0.738506 0.0306401 0.0205692
0.742672 0.0301213 0.0208743
0.744839 0.0292668 0.0211948
0.746563 0.0285344 0.0215
0.74818 0.0281376 0.0216678
0.749889 0.0284428 0.0217288
0.751659 0.0289464 0.0218814
0.753307 0.0291447 0.0219272
0.755108 0.0291142 0.0218967
0.756863 0.0290837 0.0218814
0.00663767 0.0922103 0.0572366
0.00849927 0.0921035 0.0570993
0.0112459 0.0917067 0.0566567
0.0167849 0.0923018 0.0562142
0.0321965 0.0942702 0.0554971
0.0631723 0.097322 0.0544747
0.0911727 0.10045 0.0528878
0.124056 0.103685 0.0493935
0.16849 0.106874 0.0418708
0.217273 0.110765 0.0293736
0.27306 0.114611 0.0175174
0.338125 0.117372 0.0151217
0.405371 0.117968 0.0130922
0.466682 0.116213 0.0123751
0.520714 0.110933 0.0128481
0.568734 0.102312 0.0138399
0.609277 0.0927901 0.0146487
0.642435 0.0815442 0.0155337
0.671168 0.0687266 0.0165713
0.696178 0.0592355 0.0176089
0.716258 0.0550546 0.0183871
0.732204 0.0548867 0.0188144
0.745159 0.055787 0.0197604
0.752682 0.0551919 0.0202487
0.757336 0.0525673 0.0206607
0.758618 0.047776 0.0210422
0.759075 0.0427558 0.0213474
0.759411 0.0386358 0.0215152
0.760586 0.0373693 0.0215
0.762051 0.0368505 0.0216373
0.763455 0.0359655 0.0216831
0.764981 0.0350958 0.0216678
0.766567 0.034699 0.0216831
0.00610361 0.110262 0.0582895
0.00791943 0.110109 0.0582132
0.00987259 0.109209 0.0578775
0.0131228 0.109285 0.0571908
0.0221561 0.110384 0.05626
0.0467231 0.112917 0.0547951
0.0803693 0.116777 0.0537728
0.11342 0.120531 0.051133
0.159457 0.122972 0.0428931
0.210483 0.126421 0.0302281
0.266575 0.131212 0.0167086
0.332067 0.136416 0.0138705
0.402182 0.139513 0.0117494
0.468421 0.139925 0.0109865
0.52575 0.137377 0.0113222
0.576608 0.131533 0.0121462
0.619745 0.123919 0.0128634
0.654002 0.116258 0.0136721
0.681193 0.109041 0.0143587
0.702998 0.102525 0.0149844
0.72108 0.0974441 0.0156405
0.737926 0.0945144 0.0163424
0.75552 0.0939345 0.0174868
0.764767 0.0943008 0.0181888
0.770123 0.0944686 0.0185397
0.772549 0.0922255 0.019028
0.772808 0.0882124 0.0195621
0.773083 0.0838178 0.0198367
0.773571 0.0784924 0.0201419
0.773739 0.0729229 0.0205844
0.774014 0.0672007 0.0208438
0.774487 0.0623941 0.0209659
0.775769 0.0602579 0.0210422
0.00543221 0.130922 0.0584878
0.00724804 0.130846 0.0584115
0.00914015 0.129946 0.0580911
0.0111696 0.129809 0.057496
0.0154574 0.130419 0.0567025
0.0293126 0.132433 0.0553292
0.0606394 0.136889 0.0539559
0.0989548 0.14229 0.0513924
0.145357 0.145693 0.0438697
0.202945 0.14818 0.0283207
0.261204 0.154009 0.0159304
0.326619 0.160403 0.0124514
0.399054 0.164935 0.0103304
0.469184 0.167315 0.00962844
0.5308 0.16672 0.00979629
0.585107 0.163043 0.010544
0.631388 0.157061 0.0111696
0.66833 0.15021 0.0119478
0.696468 0.142962 0.0126345
0.718379 0.136416 0.0131075
0.735195 0.131579 0.0134737
0.746181 0.128634 0.0136873
0.752132 0.127596 0.0135805
0.758389 0.12813 0.0136721
0.76408 0.129198 0.014023
0.76791 0.128588 0.0146792
0.768688 0.125414 0.0154269
0.769619 0.121904 0.0159762
0.771115 0.118044 0.0165103
0.772213 0.113985 0.0169833
0.7729 0.109667 0.0172885
0.773831 0.105669 0.0175937
0.775174 0.103792 0.0178683
0.00471504 0.153124 0.0590524
0.0065156 0.153216 0.0589914
0.00839246 0.152316 0.0587778
0.0102846 0.152193 0.0582589
0.0124666 0.152987 0.0574044
0.0176699 0.154818 0.0560159
0.0370336 0.158709 0.0529793
0.0774395 0.16672 0.050309
0.12874 0.172885 0.0424964
0.189883 0.176898 0.0280156
0.254307 0.182422 0.01561
0.321782 0.190051 0.0115206
0.395911 0.196399 0.00915541
0.470359 0.200549 0.00857557
0.536294 0.201846 0.00886549
0.593545 0.199817 0.00918593
0.643122 0.195392 0.00947585
0.683223 0.190066 0.0099794
0.713863 0.184802 0.0104829
0.737469 0.179751 0.0109102
0.755535 0.175647 0.0111849
0.767285 0.172808 0.0114137
0.773999 0.172183 0.011368
0.780026 0.172183 0.0114595
0.785519 0.172549 0.0116121
0.789395 0.171344 0.0118105
0.789425 0.166278 0.0121309
0.789349 0.161257 0.0124361
0.789258 0.157168 0.0126802
0.789487 0.153002 0.0128786
0.789731 0.148974 0.013077
0.790265 0.145602 0.0132296
0.791333 0.14406 0.0133059
0.00387579 0.177737 0.0586252
0.00567636 0.178088 0.0586404
0.00755322 0.177264 0.0587015
0.00941482 0.177203 0.0584115
0.0113069 0.178119 0.057496
0.0137179 0.180179 0.0560922
0.0210269 0.183734 0.0527047
0.0476081 0.190936 0.0476234
0.103807 0.201038 0.0388037
0.172778 0.208423 0.0237736
0.243885 0.215381 0.0155337
0.315312 0.223423 0.0115053
0.391196 0.231556 0.0084535
0.469612 0.237751 0.00819409
0.541299 0.241352 0.00852979
0.602457 0.241917 0.00860609
0.6551 0.239521 0.00859083
0.698543 0.23595 0.00862135
0.73196 0.2318 0.00869764
0.757107 0.227268 0.00888075
0.776501 0.223133 0.0091249
0.790036 0.220798 0.00946059
0.797894 0.220188 0.00935378
0.804471 0.219989 0.00943008
0.810147 0.220005 0.00959792
0.814282 0.219089 0.00973526
0.815473 0.215351 0.0099031
0.815518 0.210819 0.0101167
0.81561 0.206638 0.0102998
0.815717 0.202213 0.0104829
0.815641 0.197894 0.0106661
0.815824 0.194095 0.0108492
0.816953 0.192508 0.0109255
0.0028687 0.206058 0.0565347
0.004654 0.206592 0.0565805
0.00654612 0.205615 0.0568551
0.00842298 0.205386 0.0568399
0.0102846 0.206378 0.0560616
0.0123903 0.208545 0.0546578
0.0158389 0.212085 0.0512398
0.0254673 0.217823 0.0436255
0.0689708 0.229297 0.032105
0.146242 0.240635 0.0197452
0.2271 0.250721 0.0181125
0.304677 0.26009 0.0128023
0.38439 0.269276 0.00874342
0.466056 0.277623 0.0080415
0.543496 0.283635 0.00822461
0.609552 0.286198 0.00805676
0.665919 0.285649 0.00779736
0.712901 0.28304 0.00766003
0.749401 0.279911 0.00769055
0.776791 0.27602 0.0077821
0.797879 0.272267 0.00781262
0.81294 0.270329 0.00793469
0.822126 0.269642 0.00791943
0.82945 0.269291 0.0080415
0.835355 0.269566 0.00819409
0.839841 0.269734 0.00828565
0.8421 0.267475 0.00843824
0.842252 0.262791 0.00862135
0.842206 0.25803 0.00881971
0.842344 0.253132 0.00898756
0.842115 0.248234 0.00917067
0.842329 0.244099 0.009308
0.843183 0.242359 0.00941482
0.00161746 0.237705 0.0529793
0.00340276 0.238163 0.0529793
0.00531014 0.236896 0.0533455
0.00715648 0.236667 0.0534371
0.00903334 0.237232 0.0527199
0.0111086 0.239658 0.0509194
0.0140383 0.243442 0.0471046
0.0188602 0.249165 0.0373083
0.0386969 0.259434 0.0224155
0.105776 0.274846 0.0153048
0.201877 0.289021 0.0166018
0.289036 0.301976 0.0141909
0.372961 0.31162 0.010193
0.45919 0.321309 0.00764477
0.542275 0.32958 0.00787366
0.61387 0.334371 0.00743114
0.673869 0.335332 0.00706493
0.725231 0.333745 0.00695811
0.765499 0.331182 0.00714122
0.795468 0.32781 0.00714122
0.818418 0.324163 0.00698863
0.835233 0.321813 0.00691234
0.845548 0.320226 0.00688182
0.853422 0.31957 0.00691234
0.859525 0.319768 0.00700389
0.864393 0.320607 0.00703441
0.867872 0.320211 0.00715648
0.868376 0.316091 0.00746166
0.868452 0.311406 0.00781262
0.868467 0.306294 0.0081178
0.868376 0.301366 0.00854505
0.868086 0.297215 0.00886549
0.868772 0.295445 0.00894179
0.00047303 0.270237 0.0483711
0.00198367 0.270649 0.0483711
0.00389105 0.269062 0.0488594
0.00573739 0.269108 0.0489357
0.00758373 0.269932 0.0483253
0.00973526 0.272557 0.0456245
0.0125124 0.277058 0.0396735
0.0158846 0.283711 0.0288396
0.0237736 0.293889 0.0169985
0.061387 0.30927 0.0141146
0.159121 0.328511 0.0131228
0.265644 0.344762 0.0145876
0.356466 0.35906 0.0111696
0.44741 0.370214 0.00769055
0.53608 0.380133 0.00733959
0.614542 0.387259 0.007187
0.678843 0.390219 0.00672923
0.734142 0.389715 0.00663767
0.778531 0.38764 0.00672923
0.811978 0.384283 0.00665293
0.8374 0.380163 0.00650034
0.855879 0.376959 0.00643931
0.867735 0.374975 0.00643931
0.876387 0.373724 0.00656138
0.88275 0.373495 0.00663767
0.8878 0.37409 0.00683604
0.8916 0.374029 0.00706493
0.892958 0.371252 0.00755322
0.893141 0.366445 0.00808728
0.893126 0.361349 0.00865187
0.892821 0.356451 0.009308
0.892546 0.352392 0.00982681
0.893324 0.350668 0.0099031
7.62951e-05 0.301701 0.0417792
0.00151064 0.30193 0.0416724
0.00306706 0.300298 0.042359
0.00489815 0.30074 0.0421302
0.00675975 0.301778 0.0410468
0.00907912 0.304814 0.0366217
0.0119326 0.310063 0.0285954
0.0151675 0.317937 0.0198672
0.0191653 0.328969 0.0147097
0.0326696 0.343771 0.0130007
0.0992599 0.364111 0.0112764
0.23151 0.386267 0.0124971
0.334096 0.406363 0.0100557
0.429755 0.420981 0.00907912
0.524285 0.432715 0.00747692
0.609384 0.442237 0.00700389
0.680293 0.447791 0.00671397
0.739925 0.449439 0.00666819
0.788937 0.448386 0.00662242
0.826246 0.445243 0.00654612
0.854414 0.440894 0.00650034
0.874464 0.436988 0.00660716
0.888151 0.434104 0.00680552
0.89778 0.432135 0.00709544
0.904509 0.431174 0.00741588
0.90988 0.431266 0.00788891
0.914031 0.431693 0.00834669
0.916152 0.429923 0.00889601
0.916457 0.424704 0.00947585
0.916213 0.419242 0.0100099
0.915938 0.413886 0.010605
0.915816 0.409216 0.0109865
0.916671 0.407355 0.0110628
0 0.331395 0.0278935
0.00141909 0.331838 0.0273747
0.00285344 0.330297 0.0287633
0.0043183 0.330587 0.0294347
0.00616464 0.332174 0.0290074
0.00869764 0.335546 0.0243839
0.0114748 0.341299 0.0180209
0.0146181 0.34992 0.0142519
0.0182803 0.361563 0.0128328
0.0245212 0.376486 0.011902
0.059968 0.395453 0.0106203
0.184253 0.422827 0.00962844
0.303548 0.447623 0.0116274
0.407507 0.469139 0.00863661
0.507744 0.484031 0.00788891
0.599527 0.496193 0.00758373
0.677836 0.504677 0.00741588
0.742321 0.508385 0.00727855
0.796277 0.509102 0.00723278
0.838315 0.507103 0.00733959
0.869322 0.503532 0.00758373
0.891295 0.499245 0.00794995
0.907469 0.496086 0.00836194
0.918425 0.494057 0.00880446
0.925612 0.492576 0.00926223
0.931243 0.492012 0.00976577
0.935561 0.492058 0.010193
0.93843 0.490669 0.010605
0.938842 0.485451 0.0109407
0.938872 0.479561 0.0112459
0.93872 0.473518 0.0116426
0.938888 0.468467 0.0118715
0.939757 0.466423 0.0119173
0 0.360555 0.0133059
0.00134279 0.361089 0.0137026
0.00276188 0.359411 0.015259
0.00421149 0.359319 0.016495
0.00584421 0.361257 0.0170901
0.00843824 0.364736 0.0153658
0.0111391 0.370977 0.0131075
0.0142061 0.379873 0.0121614
0.017731 0.391989 0.0116121
0.0222629 0.40737 0.0109712
0.0414282 0.426719 0.00979629
0.125078 0.45333 0.00868238
0.26009 0.482475 0.0106203
0.378759 0.509926 0.00898756
0.485206 0.530541 0.00823987
0.584039 0.544778 0.00810254
0.670344 0.556313 0.00817884
0.741314 0.563378 0.00846876
0.800015 0.566354 0.00856031
0.847044 0.566827 0.00883497
0.882002 0.564477 0.00921645
0.906828 0.560265 0.00965896
0.924743 0.556634 0.010132
0.937606 0.55491 0.010605
0.946212 0.553643 0.0110323
0.952255 0.552804 0.0113527
0.956741 0.552773 0.0117189
0.960098 0.551797 0.0120394
0.961364 0.54757 0.0122377
0.961364 0.541833 0.0125429
0.961547 0.53608 0.0127718
0.961563 0.530846 0.0129702
0.962478 0.528756 0.0129702
0 0.388312 0.0120089
0.00134279 0.3888 0.0120699
0.00268559 0.387213 0.012253
0.0041352 0.386648 0.0123598
0.00590524 0.389151 0.0122988
0.00839246 0.393011 0.0121004
0.0111238 0.399283 0.0117647
0.0140993 0.408423 0.0113832
0.0175479 0.42063 0.0109102
0.0218357 0.436271 0.0103761
0.0308232 0.455573 0.00962844
0.0752422 0.480201 0.00943008
0.201999 0.512489 0.00962844
0.339971 0.54374 0.0106355
0.454032 0.570123 0.00920119
0.561669 0.589395 0.00860609
0.656245 0.603067 0.0090486
0.734859 0.61294 0.00959792
0.799588 0.618799 0.0100099
0.851728 0.620935 0.0102235
0.891249 0.620066 0.0104372
0.919661 0.616892 0.0107271
0.94023 0.61355 0.0112001
0.954681 0.611414 0.0115816
0.964172 0.61001 0.0119783
0.970184 0.608774 0.0124056
0.97406 0.607858 0.0127565
0.977218 0.607019 0.0131228
0.979416 0.604395 0.0133669
0.980606 0.599603 0.0135805
0.981414 0.594553 0.0138552
0.982162 0.590234 0.014023
0.983429 0.588373 0.0140078
0 0.411795 0.0116121
0.00134279 0.412253 0.0116426
0.00268559 0.411002 0.0117494
0.00410468 0.410483 0.0117952
0.00587472 0.413016 0.0117189
0.00859083 0.417319 0.0115358
0.011429 0.423987 0.0112612
0.0144656 0.433295 0.0108949
0.0179751 0.445594 0.0105135
0.0221866 0.461494 0.010193
0.0274662 0.481041 0.0101015
0.0480964 0.504692 0.0101472
0.1364 0.535851 0.00987259
0.295094 0.571084 0.0116579
0.420493 0.60351 0.0099031
0.533349 0.628534 0.00996414
0.6374 0.64596 0.0100862
0.72369 0.658274 0.0106813
0.794339 0.666484 0.0111696
0.852216 0.670787 0.0115511
0.89691 0.671778 0.011841
0.929412 0.670024 0.0121309
0.952285 0.666484 0.0123751
0.967498 0.663584 0.0126192
0.975723 0.660853 0.0129244
0.980163 0.658381 0.0132601
0.982788 0.656748 0.0136568
0.985245 0.655528 0.0140383
0.987732 0.653452 0.0142672
0.989914 0.649531 0.0145418
0.992035 0.645289 0.0147707
0.993912 0.64155 0.0149233
0.995605 0.639963 0.0148928
0 0.43061 0.011368
0.00134279 0.431113 0.0114137
0.00268559 0.430381 0.0114748
0.00411994 0.430121 0.0115053
0.00610361 0.432074 0.01149
0.0090486 0.436774 0.01149
0.0121462 0.443488 0.0115206
0.0152895 0.45304 0.0112764
0.0187381 0.465339 0.011017
0.0228733 0.481086 0.0109102
0.0277104 0.50103 0.0108492
0.0397345 0.525002 0.0107881
0.0978256 0.555154 0.0103914
0.243076 0.591653 0.0120546
0.378775 0.62829 0.0115816
0.500694 0.658625 0.0112154
0.612085 0.681315 0.0112459
0.707988 0.697017 0.0115358
0.785077 0.707866 0.0120546
0.848508 0.714687 0.0125429
0.898329 0.717952 0.0129244
0.935653 0.718181 0.0132296
0.960647 0.715633 0.0134585
0.974334 0.711711 0.0136568
0.979934 0.70779 0.0139315
0.982727 0.70454 0.0142214
0.985092 0.701839 0.0145571
0.987442 0.699962 0.0148623
0.989685 0.697841 0.0151522
0.992096 0.69456 0.0153964
0.994507 0.690608 0.0156405
0.996567 0.687175 0.0157473
0.998291 0.685634 0.0157168
0 0.446036 0.0112459
0.00134279 0.44654 0.0112612
0.00273136 0.446174 0.011368
0.00425727 0.445975 0.0117647
0.00721752 0.44712 0.0122835
0.0102693 0.45214 0.0125734
0.0132601 0.459098 0.0124819
0.0163882 0.46833 0.0122072
0.019791 0.480537 0.0119631
0.0237888 0.495995 0.0117647
0.0283207 0.515618 0.0116579
0.0356756 0.539376 0.0114748
0.070573 0.568231 0.0111543
0.185916 0.604227 0.0119936
0.330694 0.642466 0.0132753
0.46389 0.678172 0.0119326
0.581704 0.705791 0.0125582
0.685954 0.726604 0.0124056
0.771038 0.740719 0.0127871
0.840589 0.75024 0.0132753
0.896208 0.756176 0.0137179
0.93785 0.758648 0.0140841
0.964416 0.757397 0.0144045
0.976501 0.753231 0.0146639
0.980789 0.749004 0.0149081
0.983368 0.746014 0.0151522
0.985748 0.743221 0.0154116
0.988144 0.741253 0.0156863
0.990463 0.739498 0.0159457
0.992889 0.73695 0.0161593
0.995331 0.733486 0.0164187
0.997391 0.73019 0.0165103
0.99913 0.728679 0.0164797
0 0.458885 0.0119326
0.00137331 0.45948 0.0122377
0.00291447 0.459358 0.0127718
0.00584421 0.459297 0.0132753
0.00875868 0.460075 0.0137179
0.0116274 0.4645 0.0136568
0.014435 0.471382 0.0133974
0.0174563 0.480308 0.0131228
0.0207675 0.491966 0.0128634
0.0246586 0.506691 0.0126497
0.02916 0.52546 0.0124971
0.0353094 0.548699 0.012253
0.0547494 0.575982 0.0121004
0.133242 0.609445 0.0123293
0.284306 0.648341 0.0139315
0.423377 0.688563 0.0129702
0.54815 0.720943 0.0131838
0.660334 0.746319 0.0137636
0.752926 0.764477 0.0135195
0.828016 0.776608 0.0138552
0.889525 0.784649 0.0142977
0.936248 0.789548 0.0147707
0.965576 0.790097 0.0151522
0.977417 0.786831 0.0154269
0.981338 0.782834 0.0157015
0.983963 0.779873 0.0158694
0.986374 0.777584 0.0161288
0.988739 0.775784 0.0164187
0.991196 0.774334 0.0166018
0.993622 0.772549 0.0168612
0.996033 0.769848 0.0170748
0.998032 0.767178 0.0171817
0.999771 0.765911 0.0171817
4.57771e-05 0.469108 0.0136568
0.00196841 0.469718 0.0139315
0.00463874 0.469718 0.0143282
0.0074464 0.469871 0.014725
0.0101015 0.470436 0.0148623
0.0127108 0.473884 0.0146181
0.0153964 0.480522 0.0143282
0.0183566 0.489357 0.0140078
0.0215763 0.500633 0.0137484
0.0254673 0.514488 0.01355
0.030045 0.531884 0.0133669
0.0357214 0.554147 0.0130617
0.048249 0.58053 0.0127718
0.104021 0.612146 0.0127108
0.241169 0.650492 0.0145724
0.379797 0.692576 0.0146792
0.512093 0.729061 0.0137484
0.631251 0.757992 0.0142824
0.731792 0.780484 0.0148623
0.812985 0.796033 0.0144198
0.879545 0.806302 0.0147707
0.930892 0.813001 0.015259
0.964508 0.815702 0.0156863
0.977905 0.813794 0.0159915
0.981811 0.810208 0.0162814
0.984573 0.807568 0.0165255
0.986999 0.805859 0.0167849
0.989456 0.80415 0.0170748
0.991989 0.802853 0.0172122
0.994339 0.801663 0.0174563
0.996796 0.799664 0.0176699
0.998657 0.797406 0.0177615
1 0.796414 0.0177768
0.00111391 0.473808 0.0150759
0.00337224 0.474388 0.0152895
0.0059205 0.474586 0.0155795
0.00854505 0.474723 0.0158236
0.0110475 0.475151 0.0158236
0.013611 0.477409 0.01561
0.0163577 0.483894 0.0153048
0.0193179 0.492912 0.0149844
0.0225376 0.503853 0.0146944
0.0264744 0.517174 0.0145113
0.0309148 0.533669 0.014313
0.036347 0.554406 0.0140536
0.0445258 0.579675 0.0137331
0.0796521 0.609537 0.0132906
0.190387 0.646998 0.0146029
0.333227 0.690623 0.0157778
0.475151 0.731075 0.0145266
0.601724 0.763546 0.0148318
0.708553 0.789364 0.0153811
0.795514 0.808835 0.0159915
0.866377 0.82211 0.0153964
0.922271 0.830625 0.015671
0.959686 0.834989 0.0161593
0.976898 0.834928 0.0165103
0.982055 0.832334 0.0168612
0.985199 0.829847 0.0171359
0.987625 0.827817 0.0174258
0.990127 0.825971 0.0175937
0.992645 0.824781 0.0178836
0.995071 0.823789 0.0180819
0.997314 0.822324 0.0183261
0.998657 0.820615 0.0184024
1 0.819852 0.0184176
0.00221256 0.481636 0.016022
0.00447089 0.482124 0.0162051
0.00700389 0.482185 0.0164492
0.00959792 0.482155 0.0167086
0.0121004 0.48217 0.0166934
0.0146639 0.483421 0.0164492
0.0174258 0.489235 0.016144
0.0203861 0.49839 0.0158541
0.0235447 0.509239 0.0155795
0.0274662 0.522026 0.0153506
0.0320897 0.53753 0.0152438
0.0371557 0.557015 0.0149691
0.0439765 0.580804 0.0147707
0.0655375 0.608728 0.014374
0.147021 0.643763 0.0150607
0.295628 0.687083 0.016495
0.439521 0.730266 0.0156405
0.570108 0.766186 0.0155947
0.68304 0.79469 0.0159609
0.775265 0.816754 0.0165103
0.850263 0.833158 0.0171359
0.91078 0.843946 0.0164187
0.954376 0.850172 0.0166171
0.975814 0.851514 0.0171054
0.982284 0.84976 0.0174411
0.985779 0.847532 0.0177005
0.98822 0.845533 0.0180362
0.990906 0.843809 0.0182498
0.993332 0.842527 0.0184482
0.995819 0.841596 0.0186923
0.997314 0.840436 0.0188602
0.998657 0.83917 0.0189517
1 0.83856 0.0189822
0.00343328 0.490288 0.016907
0.0056611 0.4907 0.0170596
0.00819409 0.490608 0.0172732
0.0108186 0.49041 0.0174716
0.0132448 0.490242 0.0174716
0.0157931 0.49099 0.0172427
0.0185092 0.495384 0.0169833
0.0214847 0.504204 0.0167086
0.0246891 0.515251 0.0164187
0.0285801 0.527825 0.0162203
0.0331121 0.542351 0.0161746
0.0382849 0.560357 0.0159915
0.0445411 0.582559 0.0156863
0.0581979 0.608911 0.0152285
0.118563 0.641077 0.0155489
0.259449 0.682063 0.0172427
