webgpu/resources/luts/CELLULOID_01_FU_LOW.cube
TITLE "CELLULOÏDE PRO 3DLUT"
LUT_3D_SIZE 9
# Copyright: (C) 2018 CELLULOÏD
# https://celluloid.pro
0.0264897 0.0398718 0.052842
0.0741588 0.0459449 0.0518959
0.203952 0.0513161 0.0347753
0.41857 0.0194247 0.016434
0.590738 0.0171359 0.0174105
0.684596 0.0163729 0.0198825
0.711543 0.0175631 0.0215152
0.720241 0.0193637 0.0220493
0.728237 0.0201419 0.0221866
0.0089723 0.0678416 0.0541695
0.0568399 0.0712596 0.0523842
0.18172 0.0811475 0.0386816
0.410697 0.0773022 0.0153506
0.598978 0.0309148 0.0167391
0.701198 0.0234836 0.0192721
0.732754 0.0246586 0.0211185
0.7411 0.0264439 0.0218357
0.748455 0.0271916 0.0219883
0.00543221 0.130922 0.0584878
0.0154574 0.130419 0.0567025
0.145357 0.145693 0.0438697
0.399054 0.164935 0.0103304
0.631388 0.157061 0.0111696
0.735195 0.131579 0.0134737
0.76408 0.129198 0.014023
0.771115 0.118044 0.0165103
0.775174 0.103792 0.0178683
0.00161746 0.237705 0.0529793
0.00903334 0.237232 0.0527199
0.0386969 0.259434 0.0224155
0.372961 0.31162 0.010193
0.673869 0.335332 0.00706493
0.818418 0.324163 0.00698863
0.859525 0.319768 0.00700389
0.868452 0.311406 0.00781262
0.868772 0.295445 0.00894179
0 0.360555 0.0133059
0.00584421 0.361257 0.0170901
0.017731 0.391989 0.0116121
0.26009 0.482475 0.0106203
0.670344 0.556313 0.00817884
0.882002 0.564477 0.00921645
0.946212 0.553643 0.0110323
0.961364 0.54757 0.0122377
0.962478 0.528756 0.0129702
0 0.446036 0.0112459
0.00721752 0.44712 0.0122835
0.019791 0.480537 0.0119631
0.070573 0.568231 0.0111543
0.581704 0.705791 0.0125582
0.896208 0.756176 0.0137179
0.980789 0.749004 0.0149081
0.990463 0.739498 0.0159457
0.99913 0.728679 0.0164797
0.00221256 0.481636 0.016022
0.0121004 0.48217 0.0166934
0.0235447 0.509239 0.0155795
0.0439765 0.580804 0.0147707
0.439521 0.730266 0.0156405
0.850263 0.833158 0.0171359
0.982284 0.84976 0.0174411
0.993332 0.842527 0.0184482
1 0.83856 0.0189822
0.00715648 0.519356 0.0191806
0.0166018 0.519142 0.0195163
0.0280461 0.53666 0.0187686
0.0473182 0.595499 0.0181125
0.315831 0.71873 0.0197452
0.775464 0.846052 0.019791
0.979507 0.890547 0.0224613
0.994629 0.885588 0.0208743
1 0.883589 0.0213626
0.0109255 0.53579 0.0218967
0.0199283 0.53611 0.0216678
0.0311742 0.54403 0.0211032
0.0502632 0.604059 0.0203098
0.219455 0.709438 0.0204471
0.710338 0.842451 0.0204318
0.960861 0.9028 0.0230869
0.994629 0.90544 0.0245518
1 0.903532 0.0252537
0.0168307 0.0416266 0.100084
0.0699321 0.0459602 0.0975967
0.203494 0.0491035 0.0894484
0.419669 0.0170443 0.0626841
0.595621 0.0166323 0.045655
0.691188 0.0162661 0.0353399
0.718532 0.01738 0.0317082
0.727291 0.0191806 0.0321508
0.735271 0.0198978 0.0322576
0.00682078 0.0701915 0.0927749
0.047837 0.0726177 0.0895247
0.181216 0.0819104 0.0799878
0.405768 0.0578927 0.0398413
0.604303 0.0256504 0.0301366
0.709606 0.022858 0.0296178
0.740764 0.0241703 0.0310826
0.748455 0.0261082 0.031754
0.755154 0.0269474 0.0319371
0.00463874 0.136141 0.0906233
0.0138399 0.134844 0.0864271
0.143175 0.149065 0.0769513
0.397116 0.161395 0.0246281
0.632029 0.150072 0.0217136
0.735409 0.121111 0.0234073
0.763195 0.121019 0.0277104
0.773709 0.108263 0.0295872
0.780255 0.0947433 0.0302739
0.00114443 0.24509 0.0778363
0.00854505 0.243229 0.0755627
0.0302892 0.259892 0.0528725
0.368154 0.311025 0.0187076
0.672602 0.33344 0.0156863
0.81883 0.321431 0.0162203
0.859617 0.317037 0.0163729
0.868101 0.30837 0.0173342
0.86772 0.292897 0.0189212
0 0.365576 0.0428321
0.00563058 0.364721 0.0408484
0.0169223 0.390448 0.018967
0.246052 0.477882 0.0187839
0.662791 0.551339 0.0168307
0.878721 0.558755 0.0175021
0.943999 0.546715 0.0191501
0.959335 0.540398 0.020798
0.960296 0.521477 0.0217594
0 0.447425 0.0199741
0.00747692 0.447822 0.0211643
0.01944 0.47808 0.0200809
0.0604715 0.561852 0.0193332
0.56997 0.699992 0.0210727
0.891081 0.752331 0.0221866
0.981125 0.744793 0.0231174
0.99118 0.735149 0.0238956
0.999649 0.724163 0.0242771
0.00276188 0.482078 0.0245212
0.0119631 0.482261 0.0246738
0.0232395 0.507103 0.0234531
0.0419318 0.576226 0.022858
0.42591 0.725109 0.0240635
0.843015 0.830304 0.0254826
0.982406 0.84863 0.0257267
0.993729 0.840909 0.0266117
1 0.836912 0.0270695
0.00753796 0.519203 0.0279698
0.0163577 0.518669 0.027863
0.0274205 0.534051 0.0268406
0.0456245 0.591669 0.0263371
0.297444 0.713298 0.0278935
0.765393 0.843336 0.027863
0.977798 0.890166 0.0306249
0.994629 0.885283 0.029099
1 0.88336 0.029572
0.0109407 0.535973 0.0306554
0.019501 0.53637 0.0301976
0.030518 0.543389 0.0295872
0.0485542 0.602487 0.0286107
0.20238 0.705943 0.028397
0.701488 0.840208 0.0285344
0.957198 0.902068 0.0310521
0.994629 0.905425 0.0327306
1 0.903471 0.033402
0.00767529 0.026978 0.212192
0.0603952 0.0288853 0.210864
0.203601 0.0292668 0.216739
0.436896 0.0195621 0.210361
0.617426 0.0159152 0.201282
0.71075 0.0151522 0.191333
0.737514 0.0153964 0.180652
0.743557 0.0168612 0.164889
0.749828 0.0174868 0.150347
0.00682078 0.0570535 0.200076
0.0287022 0.0707561 0.199878
0.176745 0.0795758 0.203677
0.415137 0.0428779 0.18526
0.61883 0.0229343 0.17261
0.723903 0.0217746 0.162554
0.754147 0.0222019 0.154711
0.760616 0.0237736 0.140505
0.766003 0.0246586 0.12842
0.00363165 0.145083 0.199344
0.0108797 0.142443 0.192538
0.117708 0.156176 0.187182
0.393011 0.160586 0.165103
0.622324 0.121233 0.133196
0.720623 0.0618448 0.111864
0.757733 0.065095 0.100847
0.787045 0.0560311 0.0869306
0.790204 0.0431983 0.0752575
0.000228885 0.266087 0.187533
0.00669871 0.261509 0.177768
0.0197757 0.274327 0.16054
0.352346 0.315541 0.128832
0.662928 0.32462 0.0717479
0.812879 0.307744 0.0434424
0.857893 0.305104 0.0444953
0.869535 0.299748 0.0463874
0.870558 0.285801 0.0472114
0 0.39028 0.14464
0.0055848 0.38674 0.135988
0.0156863 0.405051 0.113237
0.191516 0.478233 0.0463111
0.656184 0.556023 0.0268559
0.884428 0.565423 0.0271916
0.95317 0.55375 0.0287327
0.969162 0.546883 0.0300603
0.970184 0.527123 0.0307469
0 0.46688 0.108125
0.00724804 0.4654 0.100755
0.0189822 0.489128 0.0689708
0.0458076 0.565454 0.0280156
0.557076 0.706111 0.0300755
0.891783 0.760159 0.0311437
0.981399 0.749172 0.0321965
0.991608 0.737819 0.0329747
1 0.725887 0.0332494
0.00294499 0.494942 0.0958724
0.0121004 0.493523 0.086656
0.0231937 0.512123 0.0567025
0.0385748 0.576211 0.0318151
0.406287 0.724071 0.0328374
0.837522 0.832822 0.0342107
0.982467 0.851133 0.0346532
0.994079 0.841566 0.035462
1 0.83711 0.0360113
0.00726329 0.530739 0.1234
0.0160983 0.527886 0.111498
0.026978 0.536156 0.081239
0.0424659 0.587335 0.0385901
0.259098 0.706203 0.0361181
0.752819 0.840314 0.0362249
0.975402 0.889937 0.0392767
0.994629 0.885084 0.0378882
1 0.882933 0.0383001
0.00994888 0.542123 0.0956283
0.0184939 0.542214 0.0924697
0.0296788 0.545769 0.0733349
0.0454261 0.599939 0.0411841
0.175036 0.699825 0.0370184
0.688334 0.836545 0.0370642
0.95169 0.900999 0.0393835
0.994629 0.905409 0.0414282
1 0.903441 0.0420996
0.00624094 0.0378424 0.351522
0.0236973 0.0372625 0.351202
0.191974 0.032639 0.374151
0.451286 0.0268711 0.38761
0.63827 0.0197299 0.386603
0.736004 0.0186923 0.381659
0.764416 0.018967 0.371786
0.772335 0.0200046 0.354849
0.779614 0.0201724 0.338643
0.00607309 0.0445411 0.346303
0.0162203 0.0460365 0.346868
0.158587 0.050248 0.363745
0.42388 0.0361944 0.374899
0.641505 0.0269017 0.372976
0.749508 0.0255589 0.365866
0.781018 0.0257115 0.356252
0.789151 0.0265965 0.338979
0.795056 0.0268254 0.32398
0.00361639 0.127367 0.360983
0.0100099 0.127489 0.359136
0.0670939 0.156207 0.3691
0.386618 0.157992 0.381384
0.638956 0.111223 0.358862
0.762478 0.0530251 0.335851
0.801373 0.0616617 0.324666
0.808118 0.0474403 0.305715
0.812207 0.0371099 0.289647
0 0.283375 0.382147
0.00541695 0.27863 0.373404
0.0142672 0.292866 0.370489
0.306127 0.338704 0.381109
0.654124 0.335134 0.355825
0.80853 0.307408 0.330449
0.852842 0.296025 0.313451
0.863539 0.286564 0.296315
0.863645 0.268681 0.278386
0 0.429709 0.369924
0.00552377 0.426719 0.359457
0.0140383 0.444892 0.349248
0.0826734 0.502434 0.328191
0.623255 0.56643 0.301167
0.862348 0.560708 0.259388
0.932158 0.542779 0.232853
0.949981 0.535088 0.209918
0.952331 0.514748 0.193698
0 0.514763 0.329229
0.0075227 0.512093 0.315541
0.0181125 0.531441 0.297841
0.0316014 0.586419 0.264836
0.495766 0.703655 0.190311
0.864195 0.753582 0.0903639
0.977783 0.753414 0.0767834
0.992462 0.742702 0.0750744
0.999969 0.733104 0.0736095
0.00299077 0.539864 0.292027
0.0123598 0.536629 0.277882
0.022385 0.54873 0.256245
0.0360266 0.595453 0.223331
0.3205 0.718608 0.130282
0.81088 0.834791 0.0578622
0.980804 0.86244 0.0592813
0.994476 0.855207 0.0624247
1 0.852384 0.0628367
0.00708019 0.56965 0.294469
0.0159609 0.565255 0.278752
0.0258335 0.568002 0.253986
0.0394903 0.607569 0.221057
0.157061 0.698634 0.133349
0.721325 0.838102 0.0545815
0.968627 0.896422 0.0581826
0.994629 0.894835 0.0590524
1 0.892409 0.0596323
0.00950637 0.578256 0.269047
0.018143 0.577249 0.261494
0.0277714 0.577661 0.247166
0.0417792 0.622187 0.228122
0.101671 0.699641 0.179477
0.647456 0.828824 0.0713359
0.931533 0.897658 0.0556344
0.994629 0.908324 0.060441
1 0.906722 0.060914
0.00531014 0.0477607 0.463294
0.0128481 0.0479286 0.468589
0.175235 0.04094 0.499641
0.441474 0.0339666 0.533486
0.647623 0.0240177 0.541329
0.749249 0.0195621 0.542718
0.762997 0.0208743 0.526665
0.771634 0.022797 0.517632
0.781109 0.023209 0.50811
0.0049897 0.0552834 0.472862
0.0120851 0.0557565 0.478477
0.136706 0.0518654 0.501808
0.410361 0.0426795 0.538628
0.651057 0.0313725 0.54699
0.76376 0.0263981 0.545953
0.783825 0.0276951 0.532647
0.792691 0.029572 0.52224
0.799039 0.0300298 0.51046
0.00427253 0.0806744 0.493858
0.0106813 0.0823224 0.497017
0.0414588 0.14461 0.531182
0.357046 0.144198 0.572732
0.640253 0.082887 0.560174
0.773053 0.0418402 0.545846
0.800565 0.0431067 0.529335
0.812024 0.0423896 0.516991
0.819303 0.0407874 0.503609
0 0.276509 0.556832
0.00538643 0.271 0.552041
0.0142519 0.288823 0.563973
0.237003 0.336721 0.59675
0.632258 0.334676 0.602838
0.799695 0.301701 0.581994
0.848249 0.286152 0.565911
0.861402 0.27747 0.549783
0.862257 0.25771 0.530327
0 0.446952 0.583795
0.00537118 0.443046 0.576349
0.0126192 0.462455 0.580987
0.0346075 0.520241 0.589242
0.577264 0.589532 0.60647
0.84593 0.580606 0.586816
0.924956 0.558465 0.566247
0.94406 0.551446 0.550347
0.947478 0.531411 0.531624
0 0.548959 0.570016
0.00656138 0.548211 0.560983
0.0168612 0.570626 0.55848
0.0273289 0.630213 0.556603
0.39443 0.739986 0.554238
0.828717 0.784634 0.534371
0.960159 0.776608 0.509834
0.991699 0.765484 0.488685
0.998672 0.753429 0.470573
0.00198367 0.584604 0.548959
0.0112001 0.583398 0.536751
0.0210117 0.59762 0.524712
0.0310216 0.64828 0.516991
0.147555 0.759518 0.500084
0.752377 0.860121 0.475563
0.958297 0.879454 0.435004
0.994629 0.870146 0.395346
1 0.86363 0.369985
0.00573739 0.610941 0.538109
0.0146944 0.608408 0.525383
0.0244144 0.612757 0.507286
0.0348363 0.655802 0.497566
0.0669566 0.745693 0.475624
0.654078 0.865492 0.445106
0.927459 0.907897 0.391135
0.994522 0.906538 0.32079
1 0.900252 0.28072
0.00810254 0.622385 0.510338
0.0168002 0.621912 0.503685
0.0262455 0.622599 0.489845
0.0369116 0.668772 0.48658
0.0574502 0.747738 0.475685
0.580728 0.864927 0.451621
0.889769 0.916671 0.40325
0.993896 0.925307 0.340108
1 0.918608 0.290929
0.00483711 0.0554055 0.547448
0.0121614 0.0559701 0.554452
0.162844 0.0509041 0.589456
0.438514 0.0386664 0.631266
0.654704 0.0265965 0.642802
0.759335 0.0232395 0.643381
0.746273 0.0233768 0.59794
0.757687 0.0250401 0.594034
0.769177 0.0267491 0.593851
0.00454719 0.0626078 0.555215
0.0115511 0.0633555 0.56321
0.115496 0.0784009 0.596521
0.399908 0.0511482 0.642329
0.650248 0.0344244 0.656916
0.771984 0.0302586 0.659068
0.763561 0.030396 0.615564
0.774929 0.0321813 0.610986
0.78294 0.0338445 0.60708
0.00367742 0.0827955 0.578714
0.0104067 0.0869306 0.586236
0.0272526 0.149722 0.626596
0.333562 0.156817 0.683894
0.628077 0.0886091 0.688045
0.777005 0.044007 0.677806
0.775616 0.0433967 0.632929
0.790326 0.0437781 0.629572
0.800122 0.0449836 0.625162
0 0.250294 0.659983
0.00547799 0.244495 0.659815
0.0155947 0.263325 0.680262
0.196307 0.31162 0.723201
0.607599 0.306401 0.758465
0.800336 0.26949 0.752804
0.826505 0.249729 0.71165
0.842878 0.245945 0.705028
0.845579 0.226093 0.690929
0 0.444327 0.713069
0.00537118 0.439582 0.710582
0.0135042 0.457832 0.725475
0.0255589 0.513909 0.751476
0.526619 0.583124 0.797772
0.824445 0.57583 0.798337
0.914443 0.553811 0.786892
0.938018 0.547448 0.776638
0.942092 0.528679 0.763333
0 0.560052 0.730175
0.00701915 0.559396 0.726909
0.0159762 0.579965 0.73579
0.0250858 0.64036 0.757137
0.262348 0.7505 0.78407
0.792615 0.80061 0.796979
0.943114 0.79089 0.783505
0.981262 0.779416 0.767361
0.989822 0.768017 0.753765
0.00248722 0.604303 0.723415
0.0103761 0.605112 0.718868
0.0189975 0.62092 0.719463
0.0287175 0.673869 0.733013
0.0595407 0.782391 0.745876
0.700755 0.887098 0.759884
0.933913 0.909987 0.746334
0.992065 0.906416 0.728649
0.999863 0.900282 0.71281
0.00553903 0.635874 0.721111
0.0133211 0.635309 0.714611
0.0221866 0.640543 0.706355
0.0323033 0.685252 0.713314
0.0455177 0.773556 0.719875
0.586343 0.897261 0.730068
0.89514 0.942061 0.714565
0.99144 0.947814 0.689937
1 0.942535 0.670146
0.00764477 0.651438 0.705303
0.0152895 0.651469 0.700206
0.0239261 0.653284 0.691676
0.0338445 0.699992 0.700298
0.0475776 0.772107 0.703792
0.501762 0.895582 0.713954
0.85565 0.948928 0.699596
0.983139 0.963012 0.674601
0.999985 0.958846 0.652232
0.00509651 0.0593423 0.581079
0.0121309 0.0606851 0.59086
0.155566 0.0666056 0.634226
0.427588 0.0427405 0.679301
0.654597 0.0294194 0.697856
0.730251 0.0267491 0.66688
0.762509 0.0259556 0.663783
0.778103 0.0263828 0.663783
0.791241 0.0271 0.664866
0.00469978 0.0671092 0.595544
0.0116579 0.0696422 0.606821
0.0881056 0.144778 0.665309
0.392157 0.132113 0.721721
0.645243 0.0546578 0.722148
0.738811 0.0339818 0.688609
0.772381 0.036759 0.682353
0.786542 0.0336919 0.678462
0.797452 0.0345312 0.676341
0.00239567 0.137316 0.644144
0.00918593 0.145785 0.656916
0.01944 0.19382 0.696452
0.317922 0.224079 0.761944
0.634546 0.203784 0.787686
0.757671 0.159976 0.748791
0.794858 0.149752 0.731411
0.808545 0.125673 0.722057
0.814572 0.0906386 0.708156
0 0.266392 0.730175
0.00610361 0.263172 0.731975
0.0163272 0.283726 0.755016
0.157549 0.331075 0.79646
0.599313 0.333944 0.844816
0.78117 0.301472 0.816922
0.827512 0.279881 0.787717
0.846632 0.272404 0.783413
0.850614 0.250538 0.77438
0 0.44007 0.761059
0.00555428 0.435813 0.760601
0.0142824 0.45272 0.778546
0.0262913 0.504845 0.807279
0.48333 0.57203 0.868727
0.801938 0.565332 0.88574
0.903517 0.539406 0.88127
0.930465 0.533181 0.87689
0.936568 0.515831 0.871061
0 0.559976 0.794263
0.00762951 0.558694 0.793591
0.016434 0.577707 0.807599
0.0266117 0.634897 0.837507
0.166552 0.741924 0.879957
0.762142 0.795377 0.917174
0.929702 0.786603 0.916915
0.973556 0.777569 0.912749
0.983322 0.76704 0.906737
0.00314336 0.608408 0.800626
0.0106813 0.608835 0.800107
0.0193332 0.625208 0.808637
0.0285496 0.67599 0.832944
0.042237 0.783108 0.86714
0.655863 0.893263 0.909331
0.912779 0.919753 0.915969
0.984726 0.918441 0.90898
0.999573 0.914717 0.901564
0.00593576 0.645243 0.811017
0.0135653 0.644602 0.80885
0.0220493 0.649592 0.808621
0.0314641 0.694453 0.82916
0.0428931 0.775174 0.851026
0.515312 0.910109 0.891646
0.867826 0.959213 0.899718
0.979568 0.969482 0.892989
0.999573 0.967819 0.882719
0.00793469 0.666285 0.811673
0.0153201 0.666758 0.81091
0.0236667 0.66862 0.808637
0.0328527 0.713497 0.826688
0.043534 0.780865 0.842542
0.401709 0.909834 0.877333
0.824994 0.968353 0.887053
0.966094 0.985733 0.879759
0.999619 0.986236 0.868086
0.00552377 0.0616922 0.593423
0.0125429 0.0627756 0.602731
0.145327 0.0667735 0.643473
0.412558 0.0455787 0.690913
0.629297 0.0328832 0.686091
0.716869 0.0294347 0.672267
0.761669 0.0283055 0.682338
0.778454 0.0278782 0.682704
0.792309 0.0282139 0.683497
0.00512703 0.0694896 0.607996
0.0121004 0.0709697 0.618555
0.0740215 0.143404 0.673564
0.374228 0.132174 0.73138
0.619257 0.0561379 0.711727
0.722835 0.0372931 0.692088
0.770703 0.036408 0.700786
0.786816 0.0359197 0.698863
0.798657 0.0362097 0.69691
0.00334173 0.12668 0.652262
0.00996414 0.139681 0.665553
0.0191196 0.189532 0.705486
0.299748 0.223667 0.770672
0.609125 0.206867 0.781064
0.738964 0.172763 0.75285
0.798138 0.173327 0.762432
0.817533 0.17438 0.763104
0.826825 0.162707 0.757595
6.10361e-05 0.263905 0.743847
0.00619516 0.26006 0.745174
0.0171664 0.283116 0.768811
0.136873 0.333593 0.809674
0.57525 0.345449 0.848676
0.756237 0.32459 0.820508
0.832731 0.312474 0.824063
0.856672 0.317418 0.82533
0.86392 0.304845 0.820203
0 0.437461 0.773281
0.00538643 0.43331 0.773129
0.0155489 0.450507 0.791302
0.0272526 0.501808 0.821393
0.454414 0.574243 0.888853
0.786633 0.574533 0.913863
0.898619 0.554818 0.914778
0.929702 0.55285 0.912642
0.937987 0.539971 0.908827
0 0.558434 0.813977
0.0083772 0.55729 0.814252
0.0168307 0.576852 0.829755
0.0276188 0.631098 0.860899
0.14139 0.736004 0.909133
0.737041 0.791714 0.952361
0.918166 0.785702 0.958282
0.966857 0.775876 0.955489
0.979446 0.767056 0.952682
0.00317388 0.613596 0.82884
0.0111238 0.613306 0.829114
0.0197299 0.628351 0.840421
0.0293736 0.677287 0.866392
0.0415351 0.778515 0.905516
0.625925 0.889372 0.956252
0.897231 0.917159 0.973632
0.978241 0.915114 0.973022
0.997131 0.913375 0.971267
0.0065156 0.647837 0.841291
0.0138705 0.647211 0.841215
0.0224002 0.650721 0.843153
0.0313268 0.69514 0.866728
0.0420691 0.772091 0.895323
0.465019 0.907225 0.947051
0.848081 0.960357 0.970214
0.969818 0.973632 0.974151
0.998871 0.972869 0.971084
0.00827039 0.67068 0.847883
0.0155795 0.671534 0.848127
0.0238956 0.673671 0.84863
0.0327001 0.716411 0.869886
0.0430457 0.780453 0.893309
0.292622 0.908339 0.939391
0.800641 0.972198 0.965133
0.954162 0.992248 0.969253
0.996735 0.9953 0.966903
0.00572213 0.0628672 0.60238
0.0127108 0.063798 0.611307
0.137987 0.0667277 0.650111
0.403006 0.0469062 0.698955
0.625193 0.0344701 0.696437
0.714 0.0307774 0.682628
0.760449 0.0297856 0.694072
0.777981 0.0294499 0.695186
0.792081 0.0289464 0.696132
0.00534066 0.070634 0.616922
0.0123293 0.0718395 0.627253
0.0680095 0.142 0.680217
0.365377 0.131914 0.738552
0.615503 0.0570077 0.722698
0.71989 0.0385443 0.702754
0.768826 0.0377966 0.711788
0.785916 0.0375219 0.710491
0.798032 0.0369268 0.70837
0.00389105 0.119738 0.658625
0.0104677 0.13576 0.672328
0.0189364 0.186297 0.712291
0.291295 0.22179 0.776928
0.603876 0.205478 0.790112
0.734005 0.170611 0.762036
0.795254 0.169757 0.771481
0.816037 0.172549 0.773251
0.82565 0.159854 0.76733
0.00015259 0.261295 0.751904
0.00643931 0.257404 0.752575
0.0174105 0.279133 0.775113
0.129992 0.330373 0.814404
0.568643 0.342916 0.855177
0.749889 0.322255 0.828489
0.829114 0.310033 0.831815
0.854795 0.315938 0.833661
0.862333 0.302541 0.828153
0 0.434089 0.782849
0.00537118 0.429496 0.782193
0.0163882 0.44596 0.799588
0.0280003 0.495583 0.828702
0.446479 0.567407 0.893645
0.778286 0.568475 0.919493
0.892744 0.548898 0.921218
0.926085 0.546578 0.92018
0.935363 0.533318 0.916747
0 0.558145 0.824979
0.00869764 0.556619 0.825055
0.0171359 0.574914 0.839887
0.0282139 0.627558 0.870527
0.135378 0.731716 0.918608
0.727062 0.787457 0.962509
0.912749 0.782406 0.969696
0.964553 0.774121 0.968429
0.979065 0.76614 0.966567
0.00328069 0.614282 0.841581
0.0115511 0.613764 0.84181
0.0200351 0.628199 0.85301
0.0298466 0.676356 0.879454
0.0415351 0.776013 0.919097
0.613367 0.887053 0.970733
0.890578 0.9149 0.988357
0.974945 0.9131 0.99086
0.995819 0.910826 0.990692
0.00677501 0.648829 0.854704
0.0142977 0.648341 0.855039
0.0226139 0.651453 0.857328
0.0316167 0.695735 0.881788
0.0420996 0.771359 0.911482
0.446067 0.905211 0.964538
0.839567 0.958831 0.989502
0.96582 0.972793 0.995315
0.997421 0.972 0.994522
0.0087892 0.672587 0.863355
0.0158694 0.67335 0.864073
0.024094 0.675349 0.865278
0.0325475 0.716991 0.886107
0.0425727 0.778225 0.909941
0.273381 0.905104 0.957946
0.790219 0.969665 0.986816
0.948699 0.991882 0.994461
0.994247 0.99559 0.993851
