webgpu/resources/luts/Cine_Teal.cube
#Created by: Adobe Photoshop Export Color Lookup Plugin
TITLE "Screen Shot 2019-10-17 at 10.34.50 pm.png"
#LUT size
LUT_3D_SIZE 32
#data domain
DOMAIN_MIN 0.0 0.0 0.0
DOMAIN_MAX 1.0 1.0 1.0
#LUT data points
0.035278 0.007507 0.027863
0.040924 0.008118 0.027008
0.049377 0.008667 0.025604
0.063141 0.009583 0.023438
0.084595 0.011322 0.020142
0.114349 0.013641 0.015625
0.149170 0.016693 0.010468
0.185394 0.020447 0.005249
0.219910 0.024719 0.000519
0.258423 0.028748 0.000000
0.299683 0.032593 0.000000
0.340088 0.036224 0.000000
0.379761 0.039795 0.000000
0.418915 0.043396 0.000000
0.457672 0.047150 0.000000
0.494141 0.052246 0.000000
0.535065 0.056580 0.000000
0.579407 0.060059 0.000000
0.621399 0.063751 0.000000
0.660553 0.067780 0.000000
0.696289 0.071716 0.000000
0.728424 0.075409 0.000000
0.757507 0.079193 0.000000
0.783722 0.082703 0.000000
0.807251 0.086334 0.000000
0.828613 0.089935 0.000000
0.847839 0.093353 0.000000
0.865295 0.096802 0.000000
0.881226 0.100159 0.000000
0.895874 0.103210 0.000000
0.909424 0.106476 0.000000
0.922089 0.109802 0.000000
0.035278 0.007507 0.027863
0.040924 0.008118 0.027008
0.049377 0.008667 0.025604
0.063141 0.009583 0.023438
0.084595 0.011322 0.020142
0.114349 0.013641 0.015625
0.149170 0.016693 0.010468
0.185394 0.020447 0.005249
0.219910 0.024719 0.000519
0.258423 0.028748 0.000000
0.299683 0.032593 0.000000
0.340088 0.036224 0.000000
0.379761 0.039795 0.000000
0.418915 0.043396 0.000000
0.457672 0.047150 0.000000
0.494141 0.052246 0.000000
0.535065 0.056580 0.000000
0.579407 0.060059 0.000000
0.621399 0.063751 0.000000
0.660553 0.067780 0.000000
0.696289 0.071716 0.000000
0.728424 0.075409 0.000000
0.757507 0.079193 0.000000
0.783722 0.082703 0.000000
0.807251 0.086334 0.000000
0.828613 0.089935 0.000000
0.847839 0.093353 0.000000
0.865295 0.096802 0.000000
0.881226 0.100159 0.000000
0.895874 0.103210 0.000000
0.909424 0.106476 0.000000
0.922089 0.109802 0.000000
0.035370 0.012787 0.028137
0.040802 0.013733 0.027222
0.049103 0.014526 0.025970
0.063202 0.016022 0.023590
0.084747 0.017670 0.020172
0.114532 0.019989 0.015656
0.149353 0.023071 0.010498
0.185638 0.026825 0.005280
0.220184 0.031097 0.000549
0.258667 0.035309 0.000000
0.299927 0.038940 0.000000
0.340302 0.042419 0.000000
0.380035 0.046082 0.000000
0.419159 0.049561 0.000000
0.457947 0.053467 0.000000
0.494415 0.058228 0.000000
0.535339 0.062500 0.000000
0.579651 0.065979 0.000000
0.621735 0.069824 0.000000
0.660858 0.073608 0.000000
0.696625 0.077362 0.000000
0.728760 0.081116 0.000000
0.757812 0.084717 0.000000
0.784058 0.088257 0.000000
0.807617 0.092224 0.000000
0.828979 0.095734 0.000000
0.848206 0.098907 0.000000
0.865662 0.102264 0.000000
0.881592 0.105438 0.000000
0.896240 0.108673 0.000000
0.909821 0.112091 0.000000
0.922516 0.115540 0.000000
0.035461 0.022858 0.028656
0.040924 0.023560 0.027771
0.049072 0.024567 0.026428
0.062469 0.025635 0.024506
0.084442 0.028351 0.020813
0.114899 0.031708 0.015747
0.149750 0.034729 0.010559
0.186066 0.038666 0.005341
0.220581 0.042938 0.000610
0.259125 0.046814 0.000000
0.300354 0.050323 0.000000
0.340759 0.053894 0.000000
0.380524 0.057678 0.000000
0.419678 0.061127 0.000000
0.458466 0.064758 0.000000
0.494965 0.069427 0.000000
0.535889 0.073547 0.000000
0.580261 0.077179 0.000000
0.622314 0.080658 0.000000
0.661438 0.084229 0.000000
0.697205 0.088043 0.000000
0.729370 0.091553 0.000000
0.758484 0.095367 0.000000
0.784698 0.098907 0.000000
0.808258 0.102539 0.000000
0.829620 0.105743 0.000000
0.848877 0.109253 0.000000
0.866333 0.112396 0.000000
0.882294 0.115692 0.000000
0.897003 0.119202 0.000000
0.910522 0.122375 0.000000
0.923218 0.125580 0.000000
0.035645 0.040039 0.029541
0.041016 0.040710 0.028656
0.049103 0.041718 0.027374
0.062531 0.043457 0.025208
0.083496 0.045502 0.022095
0.113892 0.049438 0.017151
0.149658 0.054138 0.011292
0.186768 0.059021 0.005463
0.221283 0.063110 0.000702
0.259888 0.067200 0.000000
0.301147 0.070709 0.000000
0.341614 0.074097 0.000000
0.381348 0.077515 0.000000
0.420532 0.080963 0.000000
0.459381 0.084625 0.000000
0.495880 0.089081 0.000000
0.536835 0.092987 0.000000
0.581207 0.096100 0.000000
0.623291 0.099335 0.000000
0.662476 0.103119 0.000000
0.698273 0.106659 0.000000
0.730469 0.110199 0.000000
0.759583 0.113556 0.000000
0.785828 0.117035 0.000000
0.809418 0.120453 0.000000
0.830780 0.123962 0.000000
0.850067 0.127350 0.000000
0.867554 0.130524 0.000000
0.883514 0.133606 0.000000
0.898193 0.136749 0.000000
0.911774 0.139862 0.000000
0.924438 0.142944 0.000000
0.035980 0.067535 0.030884
0.041260 0.068146 0.030029
0.049194 0.069153 0.028778
0.062347 0.070801 0.026611
0.083374 0.073486 0.023254
0.112946 0.076752 0.018799
0.147949 0.081024 0.013550
0.185394 0.086914 0.007538
0.221191 0.092957 0.001862
0.260437 0.098511 0.000000
0.302368 0.102539 0.000000
0.342896 0.105743 0.000000
0.382660 0.109009 0.000000
0.421906 0.112305 0.000000
0.460754 0.115875 0.000000
0.497314 0.119934 0.000000
0.538330 0.123444 0.000000
0.582733 0.126282 0.000000
0.624847 0.129303 0.000000
0.664032 0.132416 0.000000
0.699921 0.136017 0.000000
0.732178 0.139252 0.000000
0.761322 0.142609 0.000000
0.787567 0.145782 0.000000
0.811188 0.149048 0.000000
0.832611 0.152313 0.000000
0.851929 0.155487 0.000000
0.869446 0.158600 0.000000
0.885437 0.161682 0.000000
0.900146 0.164612 0.000000
0.913727 0.167664 0.000000
0.926483 0.170898 0.000000
0.036469 0.103790 0.032715
0.041626 0.104462 0.031891
0.049408 0.105377 0.030670
0.062225 0.106964 0.028534
0.082764 0.109894 0.025269
0.112152 0.113708 0.020508
0.147675 0.117828 0.015015
0.183563 0.121307 0.010254
0.219604 0.128265 0.004395
0.258209 0.134399 0.000000
0.301056 0.139557 0.000000
0.342072 0.144348 0.000000
0.383453 0.148987 0.000000
0.423706 0.153809 0.000000
0.462646 0.156891 0.000000
0.499237 0.160461 0.000000
0.540253 0.163513 0.000000
0.584717 0.165863 0.000000
0.626923 0.168457 0.000000
0.666229 0.171509 0.000000
0.702057 0.174469 0.000000
0.734436 0.177551 0.000000
0.763611 0.180573 0.000000
0.789886 0.183533 0.000000
0.813599 0.186707 0.000000
0.835022 0.189972 0.000000
0.854401 0.192902 0.000000
0.871948 0.195709 0.000000
0.887970 0.198578 0.000000
0.902710 0.201508 0.000000
0.916351 0.204498 0.000000
0.929108 0.207306 0.000000
0.037170 0.145874 0.034790
0.042206 0.146698 0.033997
0.049744 0.147644 0.032776
0.062225 0.149139 0.030792
0.082092 0.151672 0.027588
0.110657 0.155334 0.022980
0.145721 0.160095 0.017303
0.184021 0.164978 0.011292
0.217316 0.166962 0.007690
0.255493 0.173920 0.001862
0.298462 0.179718 0.000000
0.339813 0.184937 0.000000
0.380890 0.190155 0.000000
0.421692 0.194824 0.000000
0.461487 0.199554 0.000000
0.501282 0.204132 0.000000
0.542450 0.207886 0.000000
0.587097 0.211639 0.000000
0.629303 0.213867 0.000000
0.668671 0.216339 0.000000
0.704590 0.218872 0.000000
0.736969 0.221741 0.000000
0.766205 0.224426 0.000000
0.792633 0.227325 0.000000
0.816345 0.230194 0.000000
0.837830 0.232941 0.000000
0.857208 0.235687 0.000000
0.874817 0.238495 0.000000
0.890869 0.241150 0.000000
0.905670 0.243958 0.000000
0.919373 0.246674 0.000000
0.932159 0.249725 0.000000
0.037964 0.190613 0.036987
0.042816 0.191193 0.036224
0.050110 0.192078 0.035034
0.062195 0.193542 0.033112
0.081482 0.195923 0.030029
0.109131 0.199493 0.025543
0.143005 0.203979 0.020111
0.180695 0.209473 0.014008
0.219025 0.214783 0.007965
0.254089 0.215973 0.004181
0.295868 0.220520 0.000000
0.337555 0.226715 0.000000
0.379120 0.232147 0.000000
0.419739 0.237061 0.000000
0.459320 0.241882 0.000000
0.500153 0.246979 0.000000
0.544495 0.250641 0.000000
0.589203 0.253418 0.000000
0.631592 0.256592 0.000000
0.671082 0.260193 0.000000
0.707153 0.263733 0.000000
0.739655 0.267914 0.000000
0.768982 0.270874 0.000000
0.795441 0.273376 0.000000
0.819244 0.276031 0.000000
0.840729 0.278534 0.000000
0.860168 0.281128 0.000000
0.877838 0.283722 0.000000
0.893982 0.286438 0.000000
0.908813 0.289062 0.000000
0.922546 0.291656 0.000000
0.935364 0.294220 0.000000
0.038879 0.234863 0.039185
0.043549 0.235413 0.038422
0.050659 0.236267 0.037262
0.062347 0.237671 0.035431
0.080994 0.239960 0.032410
0.107727 0.243591 0.028168
0.140533 0.247925 0.022858
0.176849 0.252899 0.016998
0.214233 0.258301 0.010925
0.255859 0.263214 0.004425
0.295441 0.263977 0.000061
0.335175 0.266052 0.000000
0.376373 0.272003 0.000000
0.416748 0.277405 0.000000
0.458130 0.282776 0.000000
0.497711 0.287933 0.000000
0.543457 0.291779 0.000000
0.591278 0.294678 0.000000
0.633759 0.297516 0.000000
0.673279 0.300873 0.000000
0.709442 0.304382 0.000000
0.742004 0.307861 0.000000
0.771393 0.310974 0.000000
0.797974 0.314667 0.000000
0.821869 0.317993 0.000000
0.843475 0.321442 0.000000
0.863068 0.325165 0.000000
0.880829 0.328522 0.000000
0.897003 0.330658 0.000000
0.911865 0.333008 0.000000
0.925659 0.335663 0.000000
0.938507 0.337921 0.000000
0.039795 0.277649 0.041229
0.044342 0.278137 0.040497
0.051239 0.278931 0.039398
0.062592 0.280518 0.037628
0.080658 0.282745 0.034698
0.106506 0.285980 0.030579
0.138184 0.290131 0.025513
0.173218 0.294922 0.019867
0.209259 0.300110 0.014008
0.250244 0.305176 0.007538
0.297241 0.309174 0.000275
0.336121 0.309631 0.000000
0.374481 0.310059 0.000000
0.415527 0.315643 0.000000
0.455750 0.321259 0.000000
0.496216 0.326538 0.000000
0.541199 0.331116 0.000000
0.590515 0.333954 0.000000
0.635803 0.336884 0.000000
0.675446 0.339874 0.000000
0.711609 0.342865 0.000000
0.744202 0.345947 0.000000
0.773712 0.349182 0.000000
0.800323 0.352356 0.000000
0.824219 0.355743 0.000000
0.845886 0.359009 0.000000
0.865509 0.362213 0.000000
0.883331 0.365631 0.000000
0.899597 0.368591 0.000000
0.914551 0.371643 0.000000
0.928436 0.374634 0.000000
0.941406 0.378082 0.000000
0.040863 0.319397 0.043213
0.045288 0.319916 0.042480
0.051971 0.320679 0.041443
0.062958 0.321960 0.039703
0.080414 0.324036 0.036926
0.105438 0.327118 0.032898
0.136047 0.331116 0.028046
0.169891 0.335693 0.022614
0.204620 0.340942 0.017029
0.244537 0.345520 0.010651
0.292114 0.349396 0.003326
0.337860 0.353027 0.000000
0.376282 0.353241 0.000000
0.414307 0.353546 0.000000
0.453217 0.356934 0.000000
0.494659 0.363007 0.000000
0.538818 0.367828 0.000000
0.589569 0.371185 0.000000
0.636383 0.374481 0.000000
0.677429 0.377167 0.000000
0.713684 0.380005 0.000000
0.746368 0.382874 0.000000
0.775879 0.385742 0.000000
0.802521 0.388733 0.000000
0.826508 0.391815 0.000000
0.848206 0.394897 0.000000
0.867889 0.398102 0.000000
0.885712 0.400726 0.000000
0.902008 0.404053 0.000000
0.917023 0.406738 0.000000
0.930969 0.409821 0.000000
0.943939 0.412842 0.000000
0.041962 0.359863 0.045135
0.046265 0.360352 0.044434
0.052734 0.361053 0.043396
0.063354 0.362305 0.041779
0.080322 0.364288 0.039062
0.104492 0.367249 0.035217
0.134125 0.371002 0.030487
0.166748 0.375641 0.025269
0.200195 0.380371 0.019928
0.238983 0.384766 0.013794
0.286896 0.388245 0.006378
0.333344 0.391785 0.000000
0.378052 0.395233 0.000000
0.416077 0.395264 0.000000
0.453918 0.395355 0.000000
0.492950 0.397308 0.000000
0.536285 0.402496 0.000000
0.587067 0.406158 0.000000
0.633911 0.409454 0.000000
0.678955 0.413116 0.000000
0.715698 0.415497 0.000000
0.748413 0.418152 0.000000
0.777985 0.420837 0.000000
0.804657 0.423431 0.000000
0.828674 0.426453 0.000000
0.850433 0.429138 0.000000
0.870117 0.432220 0.000000
0.888031 0.435120 0.000000
0.904327 0.437775 0.000000
0.919373 0.440735 0.000000
0.933350 0.443451 0.000000
0.946320 0.446106 0.000000
0.043152 0.399506 0.046936
0.047272 0.399963 0.046295
0.053497 0.400635 0.045349
0.063812 0.401825 0.043701
0.080353 0.403687 0.041107
0.103638 0.406494 0.037354
0.132294 0.410309 0.032837
0.163788 0.414490 0.027832
0.196014 0.418945 0.022675
0.233673 0.423065 0.016754
0.281769 0.426208 0.009369
0.328613 0.429657 0.002197
0.374176 0.432800 0.000000
0.417816 0.435455 0.000000
0.455719 0.435364 0.000000
0.493622 0.435272 0.000000
0.533661 0.435211 0.000000
0.584442 0.439148 0.000000
0.632782 0.443176 0.000000
0.677948 0.446869 0.000000
0.717682 0.450012 0.000000
0.750427 0.452423 0.000000
0.780029 0.454651 0.000000
0.806732 0.457306 0.000000
0.830780 0.459869 0.000000
0.852600 0.462799 0.000000
0.872284 0.465118 0.000000
0.890198 0.467957 0.000000
0.906555 0.470490 0.000000
0.921631 0.473114 0.000000
0.935608 0.475769 0.000000
0.948669 0.478516 0.000000
0.044281 0.438293 0.048889
0.048370 0.438721 0.048279
0.054352 0.439362 0.047180
0.064392 0.440430 0.045593
0.080292 0.442200 0.043121
0.102905 0.444824 0.039551
0.130554 0.448486 0.035126
0.160950 0.452393 0.030334
0.192017 0.456635 0.025391
0.228394 0.460480 0.019653
0.276764 0.463287 0.012299
0.323883 0.466339 0.005066
0.369843 0.469147 0.000000
0.414734 0.472015 0.000000
0.457428 0.474182 0.000000
0.495392 0.473785 0.000000
0.535461 0.473358 0.000000
0.583160 0.471436 0.000000
0.631622 0.475342 0.000000
0.676819 0.479218 0.000000
0.716766 0.482391 0.000000
0.752350 0.485352 0.000000
0.781982 0.487640 0.000000
0.808716 0.489838 0.000000
0.832825 0.492035 0.000000
0.854675 0.494995 0.000000
0.874420 0.497162 0.000000
0.892334 0.499756 0.000000
0.908722 0.502136 0.000000
0.923828 0.504578 0.000000
0.937836 0.507263 0.000000
0.950897 0.509613 0.000000
0.045532 0.476501 0.050781
0.049469 0.476929 0.050171
0.055267 0.477509 0.049255
0.064972 0.478546 0.047760
0.080444 0.480225 0.045349
0.102386 0.482910 0.041901
0.128998 0.486053 0.037628
0.158295 0.489746 0.032776
0.188202 0.493683 0.028046
0.223389 0.497284 0.022491
0.271973 0.499725 0.015167
0.319275 0.502441 0.007965
0.365509 0.504883 0.000916
0.410797 0.507385 0.000000
0.455261 0.509949 0.000000
0.497162 0.511475 0.000000
0.537231 0.510742 0.000000
0.585022 0.508728 0.000000
0.630371 0.506958 0.000000
0.674133 0.509644 0.000000
0.715668 0.513428 0.000000
0.751770 0.516571 0.000000
0.783905 0.519501 0.000000
0.810669 0.521484 0.000000
0.834808 0.523804 0.000000
0.856689 0.526306 0.000000
0.876465 0.528503 0.000000
0.894409 0.530823 0.000000
0.910828 0.533081 0.000000
0.925964 0.535309 0.000000
0.940002 0.537689 0.000000
0.953094 0.540039 0.000000
0.046814 0.514313 0.052490
0.050629 0.514648 0.051880
0.056305 0.515228 0.051025
0.065674 0.516418 0.049561
0.080536 0.517944 0.047241
0.101715 0.520264 0.043945
0.127472 0.523193 0.039886
0.155670 0.526611 0.035461
0.184418 0.530273 0.030914
0.218262 0.533600 0.025513
0.267212 0.535950 0.017975
0.314758 0.537994 0.010803
0.361206 0.540100 0.003723
0.406860 0.542267 0.000000
0.451599 0.544464 0.000000
0.495880 0.546722 0.000000
0.539001 0.547302 0.000000
0.586853 0.545410 0.000000
0.632263 0.543579 0.000000
0.674408 0.541870 0.000000
0.714508 0.543640 0.000000
0.752136 0.547333 0.000000
0.784821 0.550507 0.000000
0.812592 0.552734 0.000000
0.836792 0.554749 0.000000
0.858612 0.556458 0.000000
0.878448 0.558929 0.000000
0.896454 0.560760 0.000000
0.912872 0.563080 0.000000
0.928040 0.565094 0.000000
0.942108 0.567444 0.000000
0.955231 0.569916 0.000000
0.048859 0.551697 0.051025
0.052612 0.552063 0.050476
0.058380 0.552551 0.049561
0.067871 0.553375 0.048126
0.082947 0.554718 0.045776
0.104248 0.556763 0.042511
0.130249 0.559357 0.038422
0.158722 0.562408 0.033691
0.187775 0.565704 0.029144
0.221222 0.568695 0.023956
0.270172 0.570679 0.016602
0.317566 0.572418 0.009491
0.363983 0.574158 0.002472
0.409393 0.575897 0.000000
0.454285 0.577789 0.000000
0.498413 0.579803 0.000000
0.542328 0.581818 0.000000
0.588623 0.581238 0.000000
0.634064 0.579193 0.000000
0.676300 0.577240 0.000000
0.714783 0.575531 0.000000
0.751007 0.576813 0.000000
0.783783 0.579773 0.000000
0.813446 0.582825 0.000000
0.838654 0.584900 0.000000
0.860565 0.586761 0.000000
0.880402 0.588623 0.000000
0.898438 0.590820 0.000000
0.914948 0.592804 0.000000
0.930084 0.594574 0.000000
0.944183 0.596863 0.000000
0.957336 0.598755 0.000000
0.051239 0.588593 0.047211
0.055176 0.588867 0.046631
0.061188 0.589294 0.045715
0.070984 0.589996 0.044220
0.086517 0.591125 0.041840
0.108673 0.592865 0.038422
0.135651 0.595062 0.034241
0.165283 0.597717 0.029663
0.195557 0.600494 0.024994
0.229309 0.603088 0.019806
0.277954 0.604736 0.012512
0.325043 0.606140 0.005463
0.371216 0.607513 0.000000
0.416351 0.609039 0.000000
0.460785 0.610565 0.000000
0.504669 0.612152 0.000000
0.548248 0.613892 0.000000
0.591095 0.616058 0.000000
0.635864 0.614502 0.000000
0.678192 0.612457 0.000000
0.716736 0.610596 0.000000
0.751434 0.609131 0.000000
0.782715 0.608521 0.000000
0.812439 0.611267 0.000000
0.840546 0.615021 0.000000
0.862457 0.616577 0.000000
0.882355 0.618225 0.000000
0.900391 0.619843 0.000000
0.916901 0.621735 0.000000
0.932098 0.623718 0.000000
0.946259 0.625793 0.000000
0.959381 0.627594 0.000000
0.053650 0.625671 0.043671
0.057709 0.625854 0.043060
0.063934 0.626251 0.042084
0.074066 0.626801 0.040527
0.090149 0.627716 0.038086
0.113098 0.629150 0.034637
0.141052 0.630981 0.030334
0.171906 0.633179 0.025604
0.203339 0.635498 0.020813
0.237549 0.637726 0.015594
0.285736 0.639008 0.008423
0.332733 0.640045 0.001404
0.378510 0.641113 0.000000
0.423340 0.642212 0.000000
0.467468 0.643372 0.000000
0.511047 0.644684 0.000000
0.554230 0.646057 0.000000
0.596680 0.647827 0.000000
0.637604 0.649506 0.000000
0.680023 0.647217 0.000000
0.718658 0.645294 0.000000
0.753387 0.643494 0.000000
0.784698 0.642090 0.000000
0.812836 0.640808 0.000000
0.839752 0.643188 0.000000
0.864044 0.646088 0.000000
0.884247 0.647522 0.000000
0.902313 0.649078 0.000000
0.918884 0.650757 0.000000
0.934082 0.652313 0.000000
0.948242 0.654266 0.000000
0.961456 0.656281 0.000000
0.056000 0.663147 0.040009
0.060181 0.663300 0.039398
0.066559 0.663544 0.038452
0.077087 0.664001 0.036835
0.093689 0.664764 0.034393
0.117523 0.665833 0.030731
0.146454 0.667297 0.026367
0.178467 0.668976 0.021545
0.211060 0.670868 0.016602
0.245758 0.672638 0.011383
0.293793 0.673553 0.004211
0.340424 0.674194 0.000000
0.385986 0.674957 0.000000
0.430389 0.675720 0.000000
0.474274 0.676544 0.000000
0.517395 0.677460 0.000000
0.560181 0.678497 0.000000
0.602234 0.679657 0.000000
0.642883 0.681152 0.000000
0.681885 0.681976 0.000000
0.720551 0.679962 0.000000
0.755371 0.678070 0.000000
0.786682 0.676361 0.000000
0.814941 0.675049 0.000000
0.840271 0.673798 0.000000
0.863251 0.673859 0.000000
0.885376 0.676544 0.000000
0.904266 0.678375 0.000000
0.920868 0.679901 0.000000
0.936127 0.681274 0.000000
0.950256 0.682709 0.000000
0.963501 0.684601 0.000000
0.058289 0.701172 0.036346
0.062714 0.701263 0.035675
0.069244 0.701416 0.034698
0.079987 0.701782 0.033081
0.097229 0.702240 0.030518
0.121857 0.703003 0.026855
0.151825 0.704010 0.022369
0.185028 0.705292 0.017395
0.218964 0.706696 0.012268
0.254272 0.708282 0.006989
0.301849 0.708527 0.000000
0.348297 0.708862 0.000000
0.393494 0.709259 0.000000
0.437561 0.709625 0.000000
0.481079 0.710144 0.000000
0.523926 0.710693 0.000000
0.566376 0.711365 0.000000
0.607941 0.712189 0.000000
0.648132 0.713318 0.000000
0.686310 0.714294 0.000000
0.722473 0.714630 0.000000
0.757294 0.712494 0.000000
0.788696 0.710846 0.000000
0.817017 0.709259 0.000000
0.842377 0.707825 0.000000
0.865326 0.706757 0.000000
0.885986 0.705597 0.000000
0.906158 0.707855 0.000000
0.922852 0.709076 0.000000
0.938171 0.710480 0.000000
0.952332 0.711914 0.000000
0.965546 0.713440 0.000000
0.060577 0.739990 0.032593
0.065094 0.740082 0.031952
0.071869 0.740112 0.030914
0.083099 0.740356 0.029266
0.100952 0.740601 0.026611
0.126221 0.740997 0.022858
0.157349 0.741608 0.018250
0.191620 0.742401 0.013153
0.227020 0.743561 0.007935
0.262909 0.744385 0.002563
0.310242 0.744293 0.000000
0.356354 0.744263 0.000000
0.401276 0.744232 0.000000
0.445160 0.744324 0.000000
0.488098 0.744476 0.000000
0.530548 0.744690 0.000000
0.572632 0.744995 0.000000
0.613922 0.745392 0.000000
0.653687 0.746185 0.000000
0.691376 0.746826 0.000000
0.726410 0.747559 0.000000
0.759247 0.747498 0.000000
0.790741 0.745636 0.000000
0.819031 0.743958 0.000000
0.844513 0.742310 0.000000
0.867493 0.741028 0.000000
0.888214 0.739807 0.000000
0.907043 0.738922 0.000000
0.924164 0.738068 0.000000
0.940186 0.739929 0.000000
0.954376 0.740936 0.000000
0.967651 0.742462 0.000000
0.062836 0.779755 0.028748
0.067566 0.779724 0.028015
0.074585 0.779724 0.027008
0.086151 0.779755 0.025269
0.104462 0.779785 0.022614
0.130646 0.779877 0.018768
0.162903 0.780090 0.014008
0.198486 0.780579 0.008789
0.235107 0.781006 0.003357
0.271881 0.781372 0.000000
0.318939 0.780884 0.000000
0.364532 0.780487 0.000000
0.409302 0.780151 0.000000
0.452576 0.779816 0.000000
0.495361 0.779572 0.000000
0.537415 0.779449 0.000000
0.578979 0.779358 0.000000
0.619873 0.779388 0.000000
0.659210 0.779846 0.000000
0.696655 0.780090 0.000000
0.731201 0.780426 0.000000
0.763000 0.780884 0.000000
0.792786 0.780792 0.000000
0.821167 0.778931 0.000000
0.846619 0.777191 0.000000
0.869690 0.775787 0.000000
0.890472 0.774475 0.000000
0.909332 0.773346 0.000000
0.926483 0.772217 0.000000
0.942261 0.771362 0.000000
0.956482 0.770721 0.000000
0.969757 0.771973 0.000000
0.065063 0.820404 0.024719
0.069824 0.820343 0.024017
0.077271 0.820251 0.022949
0.089050 0.820129 0.021240
0.108002 0.820038 0.018494
0.135223 0.819946 0.014526
0.168518 0.819672 0.009644
0.205322 0.819458 0.004272
0.243439 0.819366 0.000000
0.281067 0.819214 0.000000
0.327850 0.818359 0.000000
0.373138 0.817535 0.000000
0.417389 0.816803 0.000000
0.460510 0.816162 0.000000
0.502930 0.815552 0.000000
0.544586 0.815033 0.000000
0.585602 0.814575 0.000000
0.625977 0.814270 0.000000
0.665131 0.814301 0.000000
0.701874 0.814148 0.000000
0.736176 0.814178 0.000000
0.767639 0.814178 0.000000
0.796417 0.814362 0.000000
0.823242 0.814453 0.000000
0.848816 0.812531 0.000000
0.871948 0.811035 0.000000
0.892761 0.809601 0.000000
0.911621 0.808167 0.000000
0.928802 0.807129 0.000000
0.944641 0.806030 0.000000
0.958893 0.804810 0.000000
0.972015 0.803497 0.000000
0.067291 0.862122 0.020660
0.072205 0.861969 0.019958
0.079865 0.861786 0.018860
0.091980 0.861542 0.017090
0.111572 0.861145 0.014282
0.139740 0.860504 0.010193
0.174103 0.859833 0.005188
0.212250 0.859070 0.000000
0.251709 0.858459 0.000000
0.290558 0.857819 0.000000
0.336914 0.856567 0.000000
0.381958 0.855377 0.000000
0.425842 0.854279 0.000000
0.468689 0.853210 0.000000
0.510498 0.852234 0.000000
0.551788 0.851318 0.000000
0.592499 0.850525 0.000000
0.632599 0.850037 0.000000
0.670990 0.849426 0.000000
0.707336 0.848907 0.000000
0.741272 0.848541 0.000000
0.772278 0.848297 0.000000
0.800720 0.848083 0.000000
0.827087 0.848053 0.000000
0.851074 0.847961 0.000000
0.874176 0.846436 0.000000
0.895020 0.844788 0.000000
0.913971 0.843414 0.000000
0.931183 0.842102 0.000000
0.947083 0.840881 0.000000
0.961334 0.839569 0.000000
0.974487 0.838013 0.000000
0.069458 0.904236 0.016296
0.074554 0.904053 0.015533
0.082367 0.903778 0.014404
0.095093 0.903381 0.012573
0.115173 0.902679 0.009735
0.144318 0.901703 0.005524
0.179718 0.900574 0.000488
0.219238 0.899384 0.000000
0.260071 0.898163 0.000000
0.300110 0.897003 0.000000
0.346283 0.895386 0.000000
0.390930 0.893799 0.000000
0.434296 0.892242 0.000000
0.476837 0.890869 0.000000
0.518311 0.889496 0.000000
0.559113 0.888214 0.000000
0.599518 0.887268 0.000000
0.639069 0.886139 0.000000
0.676941 0.885132 0.000000
0.713043 0.884247 0.000000
0.746429 0.883453 0.000000
0.777008 0.882874 0.000000
0.805176 0.882324 0.000000
0.830963 0.881866 0.000000
0.854736 0.881592 0.000000
0.876648 0.881317 0.000000
0.897308 0.880219 0.000000
0.916290 0.878662 0.000000
0.933563 0.877319 0.000000
0.949493 0.875977 0.000000
0.963776 0.874268 0.000000
0.977020 0.872803 0.000000
0.071472 0.946899 0.012054
0.076813 0.946686 0.011322
0.084747 0.946320 0.010193
0.097992 0.945740 0.008301
0.118774 0.944794 0.005341
0.148621 0.943481 0.001068
0.185516 0.941895 0.000000
0.226379 0.940155 0.000000
0.268738 0.938385 0.000000
0.309967 0.936707 0.000000
0.355652 0.934692 0.000000
0.400116 0.932709 0.000000
0.443024 0.930817 0.000000
0.485077 0.929260 0.000000
0.526367 0.927521 0.000000
0.566681 0.925873 0.000000
0.606537 0.924225 0.000000
