webgpu/resources/luts/Cine_Teal.cube
#Created by: Adobe Photoshop Export Color Lookup Plugin
TITLE "Screen Shot 2019-10-17 at 10.34.50 pm.png"
#LUT size
LUT_3D_SIZE 8
#data domain
#LUT data points
DOMAIN_MIN 0.000000 0.000000 0.000000
DOMAIN_MAX 0.903226 0.903226 0.903226
0.035278 0.007507 0.027863
0.084595 0.011322 0.020142
0.219910 0.024719 0.000519
0.379761 0.039795 0.000000
0.535065 0.056580 0.000000
0.696289 0.071716 0.000000
0.807251 0.086334 0.000000
0.881226 0.100159 0.000000
0.035645 0.040039 0.029541
0.083496 0.045502 0.022095
0.221283 0.063110 0.000702
0.381348 0.077515 0.000000
0.536835 0.092987 0.000000
0.698273 0.106659 0.000000
0.809418 0.120453 0.000000
0.883514 0.133606 0.000000
0.037964 0.190613 0.036987
0.081482 0.195923 0.030029
0.219025 0.214783 0.007965
0.379120 0.232147 0.000000
0.544495 0.250641 0.000000
0.707153 0.263733 0.000000
0.819244 0.276031 0.000000
0.893982 0.286438 0.000000
0.041962 0.359863 0.045135
0.080322 0.364288 0.039062
0.200195 0.380371 0.019928
0.378052 0.395233 0.000000
0.536285 0.402496 0.000000
0.715698 0.415497 0.000000
0.828674 0.426453 0.000000
0.904327 0.437775 0.000000
0.046814 0.514313 0.052490
0.080536 0.517944 0.047241
0.184418 0.530273 0.030914
0.361206 0.540100 0.003723
0.539001 0.547302 0.000000
0.714508 0.543640 0.000000
0.836792 0.554749 0.000000
0.912872 0.563080 0.000000
0.056000 0.663147 0.040009
0.093689 0.664764 0.034393
0.211060 0.670868 0.016602
0.385986 0.674957 0.000000
0.560181 0.678497 0.000000
0.720551 0.679962 0.000000
0.840271 0.673798 0.000000
0.920868 0.679901 0.000000
0.065063 0.820404 0.024719
0.108002 0.820038 0.018494
0.243439 0.819366 0.000000
0.417389 0.816803 0.000000
0.585602 0.814575 0.000000
0.736176 0.814178 0.000000
0.848816 0.812531 0.000000
0.928802 0.807129 0.000000
0.073517 0.990051 0.007782
0.122375 0.987366 0.000854
0.277130 0.979401 0.000000
0.451996 0.970093 0.000000
0.613647 0.961700 0.000000
0.757111 0.954773 0.000000
0.862396 0.950134 0.000000
0.938293 0.947144 0.000000
0.032440 0.004883 0.071014
0.068451 0.004944 0.063232
0.210327 0.008423 0.025574
0.374146 0.014191 0.000000
0.534210 0.016296 0.000000
0.695404 0.029144 0.000000
0.805908 0.045227 0.000000
0.879425 0.059784 0.000000
0.037140 0.039398 0.067932
0.068481 0.036285 0.064728
0.203644 0.044830 0.034668
0.365082 0.059357 0.008026
0.529541 0.072296 0.000000
0.704742 0.080322 0.000000
0.822144 0.089539 0.000000
0.897675 0.098907 0.000000
0.039764 0.189911 0.074768
0.066406 0.187347 0.072479
0.201324 0.206360 0.050079
0.363739 0.224487 0.020264
0.533508 0.241699 0.000000
0.713257 0.250641 0.000000
0.832153 0.257782 0.000000
0.908936 0.265350 0.000000
0.043762 0.359161 0.082672
0.065491 0.356781 0.081055
0.182892 0.373077 0.060760
0.362152 0.387482 0.031586
0.524414 0.396576 0.003326
0.710419 0.409454 0.000000
0.836609 0.420929 0.000000
0.916534 0.431244 0.000000
0.048584 0.513611 0.089447
0.065918 0.511505 0.088440
0.167450 0.524292 0.070587
0.345337 0.534119 0.041473
0.526306 0.541107 0.011200
0.707031 0.539124 0.000000
0.836273 0.551208 0.000000
0.919250 0.560944 0.000000
0.057800 0.662445 0.077271
0.079041 0.659912 0.075928
0.193665 0.666321 0.056183
0.369476 0.670410 0.027252
0.547516 0.673798 0.000000
0.711975 0.675049 0.000000
0.834900 0.668671 0.000000
0.921997 0.678436 0.000000
0.066864 0.819702 0.062561
0.093384 0.816650 0.060425
0.225922 0.816345 0.038025
0.400970 0.813843 0.009125
0.572845 0.811462 0.000000
0.727631 0.810791 0.000000
0.843658 0.809113 0.000000
0.926239 0.803436 0.000000
0.075378 0.989349 0.046204
0.107758 0.985718 0.043304
0.259674 0.977783 0.018066
0.435516 0.968750 0.000000
0.601074 0.960175 0.000000
0.748413 0.953033 0.000000
0.857147 0.948273 0.000000
0.936005 0.945190 0.000000
0.023926 0.000000 0.228790
0.056091 0.000000 0.224182
0.156555 0.000000 0.196991
0.325134 0.001465 0.161621
0.502197 0.000549 0.111267
0.678284 0.005310 0.047821
0.796967 0.012665 0.001038
0.875824 0.020233 0.000000
0.026245 0.030914 0.228790
0.054565 0.025238 0.223328
0.152924 0.028595 0.198883
0.322540 0.030396 0.161469
0.501068 0.030151 0.110046
0.690063 0.024933 0.035126
0.813446 0.025238 0.000000
0.892731 0.027252 0.000000
0.046417 0.187347 0.214447
0.071625 0.184113 0.212158
0.137451 0.174866 0.206818
0.305511 0.184662 0.175110
0.482635 0.194275 0.141449
0.677277 0.198547 0.085693
0.810638 0.204498 0.042450
0.899048 0.211517 0.009247
0.050354 0.356567 0.220459
0.070709 0.353638 0.218842
0.119934 0.345734 0.216187
0.304352 0.360046 0.186829
0.482605 0.372772 0.153748
0.684326 0.381836 0.094208
0.822510 0.390717 0.047058
0.911957 0.395844 0.013702
0.055115 0.511047 0.225800
0.071136 0.508484 0.224823
0.105560 0.501495 0.224396
0.287720 0.511078 0.195190
0.480286 0.517792 0.164673
0.679993 0.519806 0.109894
0.821869 0.529755 0.063141
0.916290 0.537750 0.026886
0.064392 0.659882 0.215088
0.084290 0.656982 0.213623
0.130676 0.649109 0.212006
0.310577 0.652832 0.183105
0.501587 0.655701 0.152679
0.681976 0.655487 0.118439
0.820831 0.653503 0.077759
0.918091 0.662323 0.041565
0.073517 0.817078 0.201538
0.098846 0.813782 0.199280
0.163086 0.804596 0.195160
0.341797 0.802216 0.166290
0.527466 0.798981 0.136566
0.697968 0.797028 0.108887
0.827393 0.794342 0.083466
0.920624 0.787842 0.054504
0.082123 0.986694 0.187042
0.113220 0.983002 0.184235
0.196838 0.972260 0.177246
0.376190 0.962860 0.148224
0.555542 0.953430 0.119232
0.719086 0.945526 0.092468
0.841278 0.939880 0.071747
0.930786 0.936096 0.056488
0.021820 0.000000 0.391632
0.046814 0.000000 0.389832
0.133789 0.000000 0.368103
0.279694 0.000000 0.336700
0.456238 0.000000 0.304810
0.659393 0.000000 0.237488
0.788879 0.000000 0.187439
0.876068 0.000000 0.150055
0.024048 0.023865 0.391632
0.043823 0.013916 0.393402
0.129578 0.017548 0.370789
0.276062 0.018890 0.338196
0.454498 0.020721 0.304840
0.659882 0.013123 0.236359
0.799500 0.010284 0.179657
0.891083 0.009949 0.134430
0.040436 0.186615 0.382629
0.060516 0.182373 0.382050
0.110504 0.162994 0.377686
0.259552 0.164337 0.345367
0.446198 0.160950 0.303711
0.657745 0.150513 0.230530
0.802612 0.144653 0.169830
0.896271 0.143677 0.127380
0.057617 0.353729 0.371857
0.077942 0.350800 0.369843
0.126038 0.342529 0.366241
0.243011 0.330505 0.352692
0.432587 0.336731 0.317688
0.647705 0.336914 0.261902
0.798645 0.339447 0.218109
0.901093 0.343170 0.184814
0.062286 0.508240 0.375732
0.078308 0.505646 0.374664
0.111572 0.498383 0.372925
0.226471 0.486145 0.359833
0.430969 0.492065 0.328278
0.650269 0.497467 0.270966
0.806488 0.503937 0.224030
0.912720 0.509705 0.187225
0.071625 0.657043 0.365936
0.091522 0.654175 0.364105
0.136749 0.646057 0.361176
0.247589 0.633850 0.349152
0.451874 0.635681 0.317383
0.648743 0.634399 0.282166
0.804810 0.637024 0.238647
0.914154 0.643646 0.202057
0.080841 0.814209 0.353973
0.106140 0.810944 0.351440
0.169159 0.801544 0.345886
0.278809 0.789185 0.334015
0.477692 0.785095 0.302948
0.665009 0.782349 0.273438
0.808990 0.778748 0.246857
0.914764 0.772827 0.216614
0.089478 0.983795 0.340607
0.120575 0.980133 0.337372
0.203125 0.969330 0.329437
0.313080 0.956451 0.317413
0.506195 0.946136 0.287079
0.686523 0.936920 0.258209
0.823090 0.930389 0.236206
0.924347 0.926086 0.219696
0.025696 0.000000 0.528046
0.044922 0.000000 0.527069
0.112152 0.000000 0.517578
0.259247 0.000000 0.482635
0.427002 0.000000 0.456085
0.632660 0.000000 0.408295
0.781799 0.000000 0.357941
0.876495 0.000000 0.319153
0.028107 0.024689 0.528046
0.037750 0.003296 0.544708
0.106812 0.003906 0.529846
0.256073 0.014984 0.485229
0.424011 0.008881 0.457336
0.632507 0.004150 0.408142
0.783936 0.000031 0.356598
0.886078 0.000000 0.314728
0.039551 0.180664 0.528046
0.051453 0.172729 0.539001
0.089996 0.152832 0.529785
0.238983 0.154327 0.496063
0.410675 0.153198 0.462708
0.628754 0.143860 0.406403
0.786072 0.136566 0.351654
0.891998 0.132629 0.306824
0.057434 0.351898 0.514771
0.073303 0.349792 0.514404
0.106689 0.342255 0.516479
0.210114 0.318085 0.504608
0.397034 0.316803 0.468445
0.626465 0.301514 0.401367
0.788727 0.291779 0.342102
0.898193 0.285858 0.295837
0.068878 0.505676 0.513031
0.084869 0.503082 0.511322
0.118042 0.495819 0.508179
0.228302 0.482178 0.494507
0.388763 0.470825 0.472107
0.619995 0.467834 0.416718
0.786743 0.466858 0.373352
0.901672 0.467804 0.340027
0.078247 0.654419 0.504150
0.098114 0.651581 0.501740
0.143280 0.643494 0.497620
0.249390 0.630005 0.485016
0.407135 0.617584 0.464172
0.618286 0.615570 0.427795
0.790802 0.620972 0.381683
0.910339 0.624908 0.345184
0.087524 0.811584 0.493378
0.112793 0.808319 0.490387
0.175751 0.798981 0.483429
0.280670 0.785889 0.471130
0.433167 0.772614 0.450897
0.634857 0.768707 0.419922
0.791809 0.764343 0.392456
0.910553 0.763062 0.359955
0.096252 0.981140 0.482025
0.127319 0.977478 0.478088
0.209808 0.966736 0.468475
0.314972 0.953674 0.455994
0.461761 0.939453 0.436646
0.656586 0.929321 0.406494
0.806305 0.921875 0.383118
0.917847 0.916687 0.365540
0.031281 0.000000 0.650177
0.053864 0.000000 0.648560
0.132660 0.000000 0.637451
0.279236 0.000000 0.616760
0.435242 0.000000 0.583435
0.616516 0.000000 0.552307
0.769196 0.000000 0.519165
0.876953 0.000000 0.483246
0.033661 0.022034 0.650177
0.038757 0.000000 0.679504
0.129639 0.000000 0.666687
0.276794 0.000000 0.622894
0.432251 0.000092 0.584290
0.614929 0.000000 0.552979
0.768829 0.000000 0.519623
0.880829 0.000000 0.482819
0.044830 0.174011 0.650177
0.050934 0.155243 0.677948
0.109253 0.135956 0.660950
0.253235 0.133087 0.633118
0.418701 0.144745 0.588135
0.607605 0.134521 0.555878
0.769806 0.129547 0.516815
0.885345 0.124359 0.477325
0.057495 0.346954 0.650177
0.075470 0.343903 0.653595
0.123322 0.328369 0.652466
0.217651 0.301910 0.636444
0.406952 0.302643 0.596985
0.599670 0.296844 0.559479
0.772461 0.286102 0.512085
0.892029 0.278839 0.469452
0.073730 0.499847 0.639679
0.092896 0.496948 0.637054
0.135803 0.489868 0.632904
0.236908 0.476868 0.624786
0.387054 0.450836 0.605164
0.594269 0.446167 0.560577
0.774292 0.431335 0.505249
0.897858 0.421509 0.458862
0.084686 0.651917 0.638519
0.104553 0.649048 0.635834
0.149628 0.641022 0.629944
0.255646 0.627533 0.615570
0.400970 0.611420 0.595764
0.606445 0.599823 0.555328
0.781799 0.596313 0.513702
0.904205 0.594604 0.482025
0.094025 0.809021 0.629242
0.119293 0.805786 0.625824
0.182159 0.796448 0.617340
0.286987 0.783417 0.603180
0.427032 0.767792 0.584137
0.619995 0.754639 0.551117
0.783417 0.749634 0.523712
0.909546 0.752350 0.490753
0.102844 0.978577 0.619415
0.133881 0.974884 0.615143
0.216278 0.964172 0.603973
0.321411 0.951141 0.589844
0.455719 0.935974 0.571564
0.641296 0.920746 0.539795
0.797943 0.912903 0.515991
0.915039 0.907440 0.497986
0.037476 0.000000 0.779083
0.064301 0.000000 0.776855
0.157623 0.000000 0.763702
0.300964 0.000000 0.743439
0.460266 0.000000 0.720947
0.617340 0.000000 0.691193
0.762390 0.000000 0.666595
0.875000 0.000000 0.642853
0.039795 0.019012 0.779083
0.044952 0.000000 0.809998
0.150940 0.000000 0.795013
0.301636 0.000000 0.768555
0.458435 0.000000 0.723602
0.615662 0.000000 0.691498
0.761932 0.000000 0.666626
0.875641 0.000000 0.642853
0.050781 0.168488 0.779083
0.050690 0.140900 0.818268
0.128601 0.117798 0.799927
0.272675 0.110107 0.776703
0.445038 0.120514 0.730560
0.608154 0.124115 0.692902
0.760162 0.116943 0.667236
0.878265 0.115417 0.642731
0.063202 0.338257 0.779083
0.073853 0.331177 0.802551
0.142639 0.308716 0.796692
0.235992 0.283142 0.773712
0.425018 0.278564 0.738556
0.600128 0.287476 0.694672
0.758179 0.278656 0.668030
0.883331 0.273071 0.639496
0.074738 0.495331 0.779083
0.097046 0.493347 0.780701
0.159760 0.482117 0.775208
0.251831 0.461060 0.766602
0.398315 0.432068 0.741211
0.594177 0.436493 0.697906
0.756531 0.428497 0.668762
0.888123 0.419067 0.634033
0.089539 0.645569 0.772461
0.113739 0.642517 0.768738
0.173218 0.633392 0.759186
0.276611 0.621094 0.745514
0.412018 0.604584 0.731415
0.602600 0.579041 0.697693
0.767212 0.574432 0.661652
0.898682 0.561218 0.621246
0.100830 0.806366 0.771179
0.126068 0.803101 0.767151
0.188873 0.793823 0.757233
0.293610 0.780823 0.741272
0.433563 0.765228 0.720520
0.620544 0.746033 0.686340
0.781891 0.736755 0.655609
0.909851 0.734222 0.624847
0.109741 0.975861 0.763031
0.140747 0.972198 0.758179
0.223083 0.961517 0.745453
0.328094 0.948517 0.729492
0.462311 0.933380 0.709625
0.642151 0.914764 0.676758
0.795135 0.902863 0.650726
0.914764 0.897247 0.632874
0.044250 0.000000 0.920685
0.075623 0.000000 0.917908
0.185150 0.000000 0.902435
0.327606 0.000000 0.882324
0.479309 0.000000 0.860901
0.634399 0.000000 0.837158
0.765289 0.000000 0.817078
0.874939 0.000000 0.800323
0.046570 0.015869 0.920685
0.052673 0.000000 0.951843
0.174377 0.000000 0.934662
0.325256 0.000000 0.913361
0.484039 0.000000 0.883087
0.633698 0.000000 0.838409
0.764832 0.000000 0.816833
0.875458 0.000000 0.799835
0.057373 0.163239 0.920685
0.057159 0.133514 0.960571
0.145447 0.098572 0.954376
0.294189 0.087341 0.933380
0.466278 0.094391 0.889648
0.628418 0.107819 0.842285
0.762817 0.105774 0.815735
0.877930 0.098969 0.798126
0.069641 0.330658 0.920685
0.070496 0.315674 0.960571
0.158508 0.287018 0.954132
0.257355 0.262878 0.924927
0.439697 0.252350 0.896210
0.620880 0.263824 0.848022
0.760742 0.268494 0.814697
0.880676 0.260895 0.796417
0.081024 0.485962 0.920685
0.093536 0.484161 0.944489
0.179321 0.466522 0.933533
0.269501 0.438354 0.923615
0.411987 0.411804 0.891632
0.609619 0.409363 0.853058
0.758972 0.419189 0.813995
0.883240 0.410797 0.795074
0.092255 0.639099 0.920685
0.118561 0.638031 0.922089
0.197479 0.627411 0.913422
0.293976 0.611725 0.902435
0.421570 0.585815 0.886810
0.605011 0.556976 0.851929
0.769409 0.563202 0.812866
0.891113 0.558441 0.790955
0.105347 0.799896 0.918701
0.135010 0.796326 0.913727
0.212616 0.785950 0.899933
0.317352 0.772888 0.882050
0.450195 0.759247 0.863831
0.624634 0.738556 0.839203
0.779541 0.715240 0.811981
0.902161 0.715546 0.785065
0.117126 0.972961 0.917267
0.148132 0.969330 0.912201
0.230377 0.958649 0.897675
0.335297 0.945679 0.879883
0.469452 0.930603 0.858093
0.649323 0.911957 0.826599
0.797852 0.896423 0.799988
0.914276 0.885864 0.779633
