webgpu/resources/luts/CineStill-800-T-V1.0--N125.cube
#Generated with IWLTBAP LUT Generator
#Website: http://luts.iwltbap.com
TITLE "CineStill-800-T-V1.0--N125"
#LUT size
LUT_3D_SIZE 25
#LUT data points
0.000000 0.003922 0.000000
0.015686 0.000000 0.000000
0.047059 0.000000 0.000000
0.078431 0.000000 0.000000
0.113725 0.000000 0.000000
0.141176 0.007843 0.000000
0.160784 0.031373 0.000000
0.184314 0.047059 0.000000
0.211765 0.058824 0.000000
0.235294 0.066667 0.011765
0.262745 0.078431 0.023529
0.286275 0.090196 0.035294
0.313725 0.098039 0.043137
0.345098 0.109804 0.054902
0.372549 0.121569 0.062745
0.403922 0.133333 0.074510
0.439216 0.149020 0.082353
0.474510 0.164706 0.098039
0.509804 0.184314 0.109804
0.545098 0.200000 0.125490
0.580392 0.219608 0.137255
0.615686 0.235294 0.152941
0.650980 0.254902 0.168627
0.690196 0.274510 0.180392
0.725490 0.294118 0.196078
0.000000 0.019608 0.000000
0.015686 0.015686 0.000000
0.047059 0.011765 0.000000
0.082353 0.003922 0.000000
0.113725 0.011765 0.000000
0.141176 0.031373 0.000000
0.164706 0.047059 0.000000
0.188235 0.058824 0.000000
0.211765 0.066667 0.007843
0.239216 0.078431 0.019608
0.266667 0.090196 0.031373
0.294118 0.098039 0.043137
0.321569 0.109804 0.050980
0.349020 0.121569 0.062745
0.380392 0.133333 0.070588
0.411765 0.145098 0.078431
0.447059 0.160784 0.090196
0.482353 0.176471 0.101961
0.513725 0.192157 0.117647
0.549020 0.207843 0.129412
0.584314 0.227451 0.145098
0.619608 0.243137 0.156863
0.654902 0.262745 0.172549
0.694118 0.282353 0.184314
0.729412 0.298039 0.200000
0.000000 0.035294 0.000000
0.023529 0.039216 0.000000
0.058824 0.039216 0.000000
0.094118 0.043137 0.000000
0.121569 0.050980 0.000000
0.149020 0.058824 0.000000
0.172549 0.066667 0.003922
0.196078 0.074510 0.011765
0.223529 0.082353 0.023529
0.247059 0.090196 0.031373
0.270588 0.101961 0.039216
0.298039 0.109804 0.050980
0.325490 0.121569 0.058824
0.352941 0.129412 0.066667
0.384314 0.141176 0.074510
0.415686 0.152941 0.082353
0.450980 0.168627 0.094118
0.486275 0.184314 0.109804
0.517647 0.200000 0.121569
0.552941 0.215686 0.133333
0.588235 0.235294 0.149020
0.623529 0.250980 0.160784
0.658824 0.270588 0.176471
0.694118 0.286275 0.188235
0.733333 0.305882 0.203922
0.043137 0.082353 0.000000
0.062745 0.082353 0.000000
0.086275 0.082353 0.000000
0.109804 0.082353 0.000000
0.133333 0.082353 0.003922
0.160784 0.082353 0.015686
0.184314 0.086275 0.023529
0.207843 0.090196 0.031373
0.231373 0.094118 0.039216
0.254902 0.101961 0.043137
0.278431 0.109804 0.047059
0.301961 0.121569 0.054902
0.325490 0.129412 0.058824
0.352941 0.141176 0.066667
0.384314 0.149020 0.074510
0.415686 0.164706 0.086275
0.450980 0.180392 0.098039
0.482353 0.192157 0.109804
0.517647 0.207843 0.121569
0.552941 0.223529 0.137255
0.588235 0.243137 0.149020
0.623529 0.258824 0.164706
0.658824 0.274510 0.176471
0.694118 0.294118 0.192157
0.733333 0.313725 0.207843
0.074510 0.105882 0.000000
0.090196 0.105882 0.003922
0.105882 0.105882 0.007843
0.121569 0.105882 0.015686
0.145098 0.105882 0.023529
0.172549 0.105882 0.039216
0.200000 0.109804 0.047059
0.223529 0.109804 0.054902
0.247059 0.113725 0.058824
0.270588 0.121569 0.062745
0.294118 0.129412 0.066667
0.317647 0.141176 0.070588
0.341176 0.149020 0.074510
0.368627 0.160784 0.082353
0.396078 0.172549 0.090196
0.431373 0.184314 0.098039
0.462745 0.200000 0.109804
0.494118 0.215686 0.121569
0.529412 0.227451 0.133333
0.560784 0.243137 0.149020
0.596078 0.258824 0.160784
0.631373 0.274510 0.172549
0.666667 0.290196 0.188235
0.701961 0.309804 0.200000
0.737255 0.325490 0.215686
0.101961 0.137255 0.023529
0.113725 0.137255 0.027451
0.125490 0.137255 0.031373
0.141176 0.137255 0.039216
0.160784 0.137255 0.047059
0.188235 0.137255 0.058824
0.211765 0.137255 0.066667
0.239216 0.137255 0.074510
0.262745 0.137255 0.078431
0.286275 0.145098 0.078431
0.309804 0.149020 0.082353
0.333333 0.160784 0.082353
0.356863 0.168627 0.086275
0.380392 0.180392 0.094118
0.411765 0.192157 0.101961
0.439216 0.207843 0.113725
0.470588 0.219608 0.121569
0.501961 0.231373 0.133333
0.537255 0.247059 0.145098
0.572549 0.262745 0.156863
0.603922 0.278431 0.168627
0.639216 0.294118 0.180392
0.674510 0.309804 0.196078
0.709804 0.325490 0.207843
0.745098 0.341176 0.223529
0.125490 0.160784 0.043137
0.133333 0.160784 0.047059
0.145098 0.160784 0.047059
0.156863 0.160784 0.050980
0.176471 0.160784 0.058824
0.196078 0.160784 0.066667
0.219608 0.160784 0.074510
0.247059 0.160784 0.082353
0.270588 0.160784 0.090196
0.298039 0.164706 0.094118
0.321569 0.168627 0.094118
0.341176 0.176471 0.098039
0.364706 0.188235 0.101961
0.392157 0.200000 0.105882
0.419608 0.211765 0.113725
0.447059 0.227451 0.121569
0.478431 0.239216 0.133333
0.509804 0.250980 0.141176
0.541176 0.266667 0.152941
0.576471 0.278431 0.164706
0.607843 0.294118 0.176471
0.643137 0.309804 0.188235
0.678431 0.325490 0.203922
0.713725 0.341176 0.215686
0.749020 0.356863 0.231373
0.152941 0.192157 0.062745
0.160784 0.192157 0.062745
0.168627 0.192157 0.066667
0.180392 0.192157 0.066667
0.196078 0.196078 0.074510
0.211765 0.196078 0.078431
0.235294 0.196078 0.090196
0.262745 0.196078 0.098039
0.290196 0.196078 0.105882
0.317647 0.200000 0.113725
0.341176 0.203922 0.117647
0.368627 0.211765 0.121569
0.392157 0.219608 0.129412
0.415686 0.231373 0.133333
0.443137 0.243137 0.137255
0.470588 0.254902 0.145098
0.498039 0.266667 0.152941
0.525490 0.278431 0.160784
0.556863 0.294118 0.172549
0.592157 0.305882 0.180392
0.623529 0.317647 0.192157
0.654902 0.333333 0.203922
0.690196 0.349020 0.215686
0.725490 0.364706 0.231373
0.760784 0.380392 0.243137
0.180392 0.223529 0.078431
0.188235 0.223529 0.078431
0.192157 0.223529 0.082353
0.203922 0.227451 0.082353
0.215686 0.227451 0.086275
0.231373 0.227451 0.094118
0.250980 0.231373 0.101961
0.274510 0.231373 0.109804
0.301961 0.231373 0.121569
0.329412 0.235294 0.133333
0.360784 0.239216 0.141176
0.388235 0.243137 0.145098
0.411765 0.250980 0.152941
0.439216 0.258824 0.156863
0.462745 0.270588 0.160784
0.490196 0.282353 0.164706
0.513725 0.294118 0.172549
0.545098 0.305882 0.180392
0.572549 0.317647 0.188235
0.603922 0.333333 0.196078
0.635294 0.345098 0.207843
0.670588 0.360784 0.219608
0.701961 0.372549 0.231373
0.737255 0.388235 0.243137
0.772549 0.403922 0.258824
0.203922 0.250980 0.094118
0.207843 0.254902 0.094118
0.215686 0.254902 0.094118
0.223529 0.254902 0.098039
0.235294 0.254902 0.101961
0.250980 0.258824 0.105882
0.270588 0.262745 0.113725
0.290196 0.262745 0.121569
0.313725 0.266667 0.133333
0.341176 0.270588 0.145098
0.368627 0.270588 0.152941
0.400000 0.274510 0.160784
0.427451 0.282353 0.168627
0.450980 0.286275 0.172549
0.478431 0.298039 0.176471
0.505882 0.309804 0.184314
0.529412 0.321569 0.188235
0.556863 0.333333 0.196078
0.584314 0.345098 0.203922
0.615686 0.356863 0.211765
0.647059 0.368627 0.223529
0.678431 0.384314 0.235294
0.713725 0.396078 0.247059
0.749020 0.411765 0.258824
0.780392 0.427451 0.270588
0.239216 0.298039 0.121569
0.243137 0.298039 0.121569
0.250980 0.298039 0.121569
0.258824 0.298039 0.121569
0.270588 0.298039 0.125490
0.286275 0.301961 0.129412
0.301961 0.305882 0.133333
0.317647 0.305882 0.141176
0.337255 0.309804 0.152941
0.360784 0.313725 0.160784
0.388235 0.313725 0.172549
0.419608 0.317647 0.184314
0.447059 0.321569 0.192157
0.474510 0.329412 0.196078
0.501961 0.333333 0.203922
0.525490 0.345098 0.207843
0.552941 0.352941 0.211765
0.580392 0.364706 0.219608
0.607843 0.376471 0.227451
0.635294 0.388235 0.235294
0.666667 0.400000 0.243137
0.698039 0.411765 0.250980
0.729412 0.427451 0.262745
0.760784 0.439216 0.274510
0.796078 0.454902 0.286275
0.270588 0.337255 0.141176
0.274510 0.337255 0.145098
0.282353 0.337255 0.145098
0.290196 0.337255 0.145098
0.301961 0.337255 0.149020
0.313725 0.341176 0.152941
0.329412 0.341176 0.156863
0.345098 0.345098 0.160784
0.360784 0.349020 0.168627
0.384314 0.352941 0.180392
0.407843 0.356863 0.188235
0.435294 0.356863 0.200000
0.462745 0.360784 0.211765
0.490196 0.368627 0.219608
0.521569 0.372549 0.223529
0.549020 0.380392 0.231373
0.572549 0.388235 0.235294
0.600000 0.400000 0.243137
0.627451 0.407843 0.247059
0.654902 0.419608 0.254902
0.686275 0.431373 0.262745
0.713725 0.447059 0.274510
0.745098 0.458824 0.282353
0.780392 0.470588 0.294118
0.811765 0.486275 0.305882
0.294118 0.372549 0.160784
0.298039 0.372549 0.164706
0.305882 0.372549 0.164706
0.313725 0.376471 0.164706
0.325490 0.376471 0.168627
0.337255 0.376471 0.168627
0.352941 0.380392 0.172549
0.368627 0.380392 0.180392
0.384314 0.384314 0.184314
0.403922 0.388235 0.192157
0.427451 0.392157 0.203922
0.450980 0.396078 0.211765
0.478431 0.400000 0.223529
0.505882 0.403922 0.235294
0.533333 0.407843 0.243137
0.560784 0.415686 0.250980
0.592157 0.423529 0.254902
0.619608 0.431373 0.262745
0.647059 0.443137 0.270588
0.674510 0.454902 0.274510
0.701961 0.466667 0.286275
0.733333 0.478431 0.294118
0.764706 0.490196 0.305882
0.800000 0.505882 0.317647
0.831373 0.521569 0.329412
0.325490 0.419608 0.188235
0.329412 0.419608 0.192157
0.337255 0.419608 0.192157
0.345098 0.419608 0.192157
0.352941 0.419608 0.196078
0.368627 0.419608 0.196078
0.380392 0.423529 0.200000
0.396078 0.423529 0.203922
0.415686 0.427451 0.207843
0.431373 0.431373 0.215686
0.450980 0.435294 0.223529
0.474510 0.439216 0.231373
0.498039 0.443137 0.243137
0.525490 0.447059 0.254902
0.552941 0.450980 0.262745
0.580392 0.454902 0.270588
0.611765 0.462745 0.278431
0.639216 0.470588 0.286275
0.666667 0.478431 0.290196
0.694118 0.490196 0.298039
0.725490 0.501961 0.305882
0.752941 0.509804 0.313725
0.784314 0.525490 0.325490
0.815686 0.537255 0.333333
0.847059 0.549020 0.345098
0.352941 0.462745 0.215686
0.356863 0.462745 0.215686
0.364706 0.462745 0.215686
0.372549 0.462745 0.219608
0.380392 0.462745 0.219608
0.396078 0.462745 0.223529
0.407843 0.466667 0.223529
0.423529 0.466667 0.227451
0.443137 0.470588 0.231373
0.458824 0.474510 0.239216
0.478431 0.474510 0.243137
0.498039 0.478431 0.250980
0.521569 0.486275 0.262745
0.549020 0.490196 0.270588
0.572549 0.494118 0.282353
0.600000 0.498039 0.290196
0.631373 0.505882 0.301961
0.658824 0.513725 0.309804
0.690196 0.521569 0.317647
0.717647 0.529412 0.325490
0.745098 0.541176 0.333333
0.776471 0.549020 0.341176
0.803922 0.560784 0.349020
0.835294 0.572549 0.356863
0.862745 0.584314 0.364706
0.380392 0.505882 0.239216
0.384314 0.505882 0.243137
0.388235 0.505882 0.243137
0.396078 0.505882 0.243137
0.407843 0.505882 0.243137
0.419608 0.505882 0.247059
0.435294 0.509804 0.247059
0.450980 0.509804 0.250980
0.466667 0.509804 0.254902
0.486275 0.513725 0.258824
0.505882 0.517647 0.266667
0.525490 0.521569 0.274510
0.545098 0.525490 0.282353
0.568627 0.529412 0.294118
0.596078 0.537255 0.301961
0.623529 0.541176 0.313725
0.650980 0.549020 0.321569
0.682353 0.556863 0.333333
0.709804 0.564706 0.341176
0.741176 0.572549 0.349020
0.768627 0.580392 0.356863
0.800000 0.592157 0.364706
0.827451 0.600000 0.372549
0.858824 0.611765 0.380392
0.886275 0.619608 0.392157
0.407843 0.549020 0.266667
0.411765 0.549020 0.266667
0.419608 0.549020 0.270588
0.423529 0.549020 0.270588
0.435294 0.549020 0.270588
0.447059 0.552941 0.274510
0.458824 0.552941 0.274510
0.474510 0.552941 0.278431
0.494118 0.556863 0.282353
0.509804 0.556863 0.286275
0.529412 0.560784 0.290196
0.549020 0.564706 0.298039
0.572549 0.568627 0.305882
0.596078 0.572549 0.313725
0.619608 0.580392 0.321569
0.643137 0.584314 0.333333
0.670588 0.588235 0.341176
0.698039 0.596078 0.352941
0.729412 0.600000 0.360784
0.756863 0.607843 0.368627
0.784314 0.615686 0.376471
0.811765 0.623529 0.384314
0.839216 0.631373 0.388235
0.870588 0.639216 0.396078
0.898039 0.650980 0.403922
0.439216 0.596078 0.298039
0.443137 0.596078 0.298039
0.447059 0.596078 0.298039
0.454902 0.596078 0.298039
0.462745 0.600000 0.301961
0.474510 0.600000 0.301961
0.490196 0.600000 0.305882
0.505882 0.600000 0.305882
0.521569 0.603922 0.309804
0.541176 0.603922 0.313725
0.560784 0.607843 0.321569
0.580392 0.611765 0.325490
0.600000 0.615686 0.333333
0.623529 0.619608 0.337255
0.647059 0.623529 0.345098
0.670588 0.627451 0.356863
0.694118 0.631373 0.364706
0.721569 0.639216 0.372549
0.749020 0.643137 0.380392
0.776471 0.650980 0.388235
0.803922 0.654902 0.396078
0.831373 0.662745 0.403922
0.858824 0.670588 0.411765
0.886275 0.678431 0.419608
0.913725 0.686275 0.427451
0.474510 0.647059 0.329412
0.478431 0.647059 0.329412
0.482353 0.647059 0.329412
0.486275 0.647059 0.333333
0.498039 0.647059 0.333333
0.505882 0.650980 0.333333
0.521569 0.650980 0.337255
0.533333 0.650980 0.341176
0.552941 0.654902 0.341176
0.568627 0.654902 0.345098
0.588235 0.658824 0.349020
0.607843 0.658824 0.352941
0.631373 0.662745 0.360784
0.650980 0.666667 0.364706
0.674510 0.670588 0.372549
0.698039 0.674510 0.380392
0.721569 0.678431 0.388235
0.749020 0.686275 0.400000
0.772549 0.690196 0.407843
0.800000 0.694118 0.415686
0.827451 0.701961 0.423529
0.854902 0.705882 0.431373
0.882353 0.713725 0.439216
0.909804 0.721569 0.447059
0.937255 0.729412 0.450980
0.498039 0.690196 0.352941
0.501961 0.690196 0.352941
0.505882 0.690196 0.352941
0.513725 0.690196 0.356863
0.521569 0.690196 0.356863
0.529412 0.690196 0.356863
0.541176 0.690196 0.360784
0.556863 0.690196 0.360784
0.572549 0.694118 0.364706
0.588235 0.694118 0.368627
0.607843 0.694118 0.368627
0.627451 0.698039 0.372549
0.647059 0.701961 0.380392
0.666667 0.701961 0.384314
0.690196 0.705882 0.392157
0.713725 0.709804 0.396078
0.737255 0.713725 0.403922
0.760784 0.717647 0.411765
0.784314 0.721569 0.419608
0.811765 0.725490 0.427451
0.835294 0.729412 0.435294
0.862745 0.737255 0.443137
0.890196 0.741176 0.447059
0.917647 0.749020 0.454902
0.945098 0.752941 0.462745
0.529412 0.733333 0.380392
0.529412 0.733333 0.380392
0.533333 0.733333 0.384314
0.541176 0.733333 0.384314
0.549020 0.733333 0.384314
0.556863 0.737255 0.384314
0.568627 0.737255 0.388235
0.580392 0.737255 0.388235
0.596078 0.737255 0.392157
0.611765 0.737255 0.392157
0.631373 0.741176 0.396078
0.650980 0.741176 0.400000
0.670588 0.745098 0.403922
0.690196 0.745098 0.407843
0.713725 0.749020 0.411765
0.733333 0.752941 0.419608
0.756863 0.752941 0.427451
0.780392 0.756863 0.431373
0.803922 0.760784 0.439216
0.831373 0.764706 0.447059
0.854902 0.772549 0.454902
0.882353 0.776471 0.462745
0.909804 0.780392 0.470588
0.937255 0.788235 0.478431
0.964706 0.792157 0.486275
0.560784 0.780392 0.411765
0.560784 0.780392 0.411765
0.564706 0.780392 0.411765
0.572549 0.784314 0.411765
0.576471 0.784314 0.415686
0.588235 0.784314 0.415686
0.596078 0.784314 0.415686
0.611765 0.784314 0.419608
0.623529 0.784314 0.419608
0.639216 0.788235 0.423529
0.658824 0.788235 0.427451
0.678431 0.788235 0.431373
0.698039 0.792157 0.431373
0.717647 0.792157 0.439216
0.741176 0.796078 0.443137
0.760784 0.800000 0.447059
0.784314 0.803922 0.454902
0.807843 0.803922 0.458824
0.831373 0.807843 0.466667
0.858824 0.815686 0.474510
0.882353 0.819608 0.482353
0.909804 0.823529 0.490196
0.937255 0.831373 0.498039
0.964706 0.839216 0.509804
0.996078 0.847059 0.517647
0.580392 0.819608 0.431373
0.580392 0.819608 0.431373
0.584314 0.819608 0.431373
0.588235 0.819608 0.431373
0.596078 0.819608 0.431373
0.603922 0.819608 0.435294
0.615686 0.819608 0.435294
0.627451 0.819608 0.435294
0.639216 0.819608 0.439216
0.654902 0.819608 0.439216
0.670588 0.823529 0.443137
0.690196 0.823529 0.447059
0.709804 0.823529 0.447059
0.729412 0.827451 0.450980
0.749020 0.827451 0.458824
0.772549 0.831373 0.462745
0.796078 0.835294 0.466667
0.819608 0.839216 0.474510
0.843137 0.839216 0.478431
0.866667 0.847059 0.486275
0.894118 0.850980 0.494118
0.917647 0.854902 0.501961
0.945098 0.862745 0.509804
0.976471 0.870588 0.521569
1.000000 0.878431 0.533333
0.607843 0.858824 0.454902
0.607843 0.858824 0.454902
0.611765 0.858824 0.454902
0.615686 0.862745 0.458824
0.623529 0.862745 0.458824
0.631373 0.862745 0.458824
0.639216 0.862745 0.458824
0.650980 0.862745 0.462745
0.662745 0.862745 0.462745
0.678431 0.862745 0.466667
0.694118 0.866667 0.470588
0.713725 0.866667 0.470588
0.733333 0.870588 0.474510
0.752941 0.870588 0.478431
0.772549 0.874510 0.482353
0.796078 0.874510 0.486275
0.819608 0.878431 0.494118
0.843137 0.882353 0.498039
0.866667 0.886275 0.505882
0.894118 0.890196 0.513725
0.921569 0.898039 0.521569
0.949020 0.905882 0.533333
0.976471 0.909804 0.541176
0.996078 0.913725 0.545098
1.000000 0.917647 0.552941
0.639216 0.909804 0.486275
0.639216 0.909804 0.486275
0.643137 0.909804 0.486275
0.647059 0.909804 0.490196
0.654902 0.909804 0.490196
0.662745 0.909804 0.490196
0.674510 0.913725 0.494118
0.682353 0.913725 0.494118
0.698039 0.913725 0.498039
0.713725 0.917647 0.498039
0.729412 0.917647 0.501961
0.745098 0.921569 0.505882
0.764706 0.921569 0.509804
0.788235 0.925490 0.513725
0.807843 0.929412 0.521569
0.835294 0.933333 0.529412
0.858824 0.941176 0.533333
0.886275 0.945098 0.545098
0.909804 0.952941 0.549020
0.933333 0.952941 0.556863
0.956863 0.956863 0.560784
0.980392 0.956863 0.564706
1.000000 0.960784 0.572549
1.000000 0.964706 0.576471
1.000000 0.964706 0.580392
0.000000 0.007843 0.000000
0.007843 0.003922 0.000000
0.039216 0.000000 0.000000
0.074510 0.000000 0.000000
0.109804 0.000000 0.000000
0.137255 0.007843 0.000000
0.156863 0.031373 0.000000
0.180392 0.047059 0.003922
0.207843 0.058824 0.019608
0.231373 0.070588 0.031373
0.258824 0.082353 0.043137
0.286275 0.090196 0.050980
0.313725 0.101961 0.062745
0.345098 0.113725 0.070588
0.372549 0.125490 0.078431
0.407843 0.137255 0.090196
0.439216 0.152941 0.101961
0.474510 0.172549 0.113725
0.509804 0.188235 0.125490
0.545098 0.203922 0.137255
0.580392 0.223529 0.152941
0.619608 0.239216 0.164706
0.654902 0.258824 0.180392
0.690196 0.278431 0.192157
0.725490 0.294118 0.207843
0.000000 0.019608 0.000000
0.007843 0.015686 0.000000
0.039216 0.011765 0.000000
0.074510 0.003922 0.000000
0.109804 0.011765 0.000000
0.133333 0.031373 0.000000
0.156863 0.047059 0.000000
0.184314 0.058824 0.011765
0.211765 0.070588 0.023529
0.239216 0.082353 0.039216
0.266667 0.094118 0.050980
0.294118 0.101961 0.058824
0.321569 0.113725 0.066667
0.352941 0.125490 0.078431
0.384314 0.137255 0.086275
0.415686 0.152941 0.098039
0.450980 0.164706 0.109804
0.482353 0.184314 0.121569
0.517647 0.200000 0.133333
0.552941 0.215686 0.145098
0.588235 0.231373 0.156863
0.623529 0.250980 0.172549
0.658824 0.266667 0.184314
0.694118 0.286275 0.196078
0.729412 0.301961 0.211765
0.000000 0.039216 0.000000
0.007843 0.039216 0.000000
0.047059 0.039216 0.000000
0.086275 0.043137 0.000000
0.117647 0.050980 0.000000
0.141176 0.058824 0.003922
0.168627 0.066667 0.015686
0.192157 0.074510 0.027451
0.219608 0.086275 0.039216
0.243137 0.094118 0.047059
0.270588 0.105882 0.058824
0.298039 0.113725 0.066667
0.325490 0.125490 0.074510
0.356863 0.137255 0.082353
0.388235 0.149020 0.090196
0.419608 0.160784 0.101961
0.450980 0.176471 0.113725
0.486275 0.192157 0.125490
0.521569 0.207843 0.137255
0.556863 0.223529 0.149020
0.592157 0.239216 0.160784
0.627451 0.254902 0.176471
0.662745 0.274510 0.188235
0.698039 0.290196 0.200000
0.733333 0.309804 0.215686
0.027451 0.082353 0.000000
0.050980 0.082353 0.000000
0.078431 0.082353 0.000000
0.101961 0.082353 0.003922
0.129412 0.086275 0.015686
0.152941 0.086275 0.027451
0.180392 0.090196 0.035294
0.203922 0.094118 0.047059
0.227451 0.098039 0.050980
0.250980 0.105882 0.058824
0.274510 0.117647 0.062745
0.298039 0.125490 0.066667
0.325490 0.133333 0.074510
0.352941 0.145098 0.082353
0.384314 0.156863 0.090196
0.415686 0.168627 0.101961
0.450980 0.184314 0.113725
0.486275 0.200000 0.125490
0.517647 0.211765 0.137255
0.552941 0.227451 0.149020
0.588235 0.247059 0.160784
0.623529 0.262745 0.176471
0.658824 0.278431 0.188235
0.698039 0.298039 0.203922
0.733333 0.313725 0.215686
0.066667 0.105882 0.011765
0.082353 0.105882 0.015686
0.098039 0.109804 0.019608
0.117647 0.109804 0.027451
0.141176 0.109804 0.035294
0.164706 0.109804 0.047059
0.192157 0.113725 0.058824
0.219608 0.113725 0.066667
0.243137 0.121569 0.070588
0.266667 0.129412 0.074510
0.290196 0.137255 0.078431
0.317647 0.145098 0.082353
0.341176 0.156863 0.090196
0.368627 0.168627 0.098039
0.400000 0.180392 0.105882
0.431373 0.192157 0.113725
0.462745 0.203922 0.125490
0.498039 0.219608 0.137255
0.529412 0.231373 0.149020
0.564706 0.247059 0.160784
0.600000 0.262745 0.172549
0.635294 0.278431 0.184314
0.670588 0.294118 0.196078
0.705882 0.309804 0.211765
0.741176 0.329412 0.223529
0.098039 0.137255 0.043137
0.105882 0.137255 0.043137
0.121569 0.137255 0.047059
0.137255 0.137255 0.054902
0.156863 0.141176 0.058824
0.184314 0.141176 0.070588
0.207843 0.141176 0.078431
0.235294 0.141176 0.082353
0.262745 0.145098 0.086275
0.286275 0.149020 0.090196
0.309804 0.156863 0.094118
0.333333 0.164706 0.098039
0.356863 0.176471 0.101961
0.384314 0.188235 0.109804
0.411765 0.200000 0.117647
0.443137 0.211765 0.125490
0.474510 0.227451 0.137255
0.505882 0.239216 0.149020
0.541176 0.250980 0.156863
0.572549 0.266667 0.168627
0.607843 0.282353 0.180392
0.643137 0.294118 0.196078
0.674510 0.309804 0.207843
0.709804 0.329412 0.219608
0.745098 0.345098 0.231373
0.121569 0.164706 0.058824
0.129412 0.164706 0.062745
0.141176 0.164706 0.062745
0.152941 0.164706 0.066667
0.172549 0.164706 0.070588
0.192157 0.164706 0.078431
0.219608 0.164706 0.086275
0.243137 0.164706 0.094118
0.270588 0.164706 0.098039
0.294118 0.168627 0.105882
0.321569 0.172549 0.105882
0.341176 0.180392 0.109804
0.368627 0.192157 0.113725
0.392157 0.203922 0.121569
0.419608 0.215686 0.129412
0.450980 0.231373 0.137255
0.478431 0.243137 0.145098
0.509804 0.254902 0.152941
0.545098 0.270588 0.164706
0.576471 0.282353 0.176471
0.611765 0.298039 0.188235
0.643137 0.309804 0.200000
0.678431 0.325490 0.211765
0.713725 0.341176 0.227451
0.749020 0.356863 0.239216
0.152941 0.196078 0.078431
0.156863 0.196078 0.078431
0.164706 0.196078 0.082353
0.180392 0.196078 0.082353
0.196078 0.200000 0.086275
0.211765 0.200000 0.094118
0.235294 0.200000 0.101961
0.262745 0.200000 0.109804
0.290196 0.200000 0.121569
0.317647 0.203922 0.125490
0.345098 0.207843 0.133333
0.368627 0.215686 0.137255
0.396078 0.223529 0.141176
0.419608 0.235294 0.145098
0.447059 0.247059 0.152941
0.470588 0.258824 0.156863
0.498039 0.270588 0.164706
0.529412 0.282353 0.172549
0.560784 0.298039 0.184314
0.592157 0.309804 0.192157
0.623529 0.321569 0.203922
0.658824 0.337255 0.215686
0.690196 0.349020 0.227451
0.725490 0.364706 0.239216
0.760784 0.380392 0.250980
0.180392 0.227451 0.094118
0.188235 0.231373 0.098039
0.196078 0.231373 0.098039
0.203922 0.231373 0.098039
0.219608 0.231373 0.101961
0.235294 0.235294 0.109804
0.254902 0.235294 0.117647
0.278431 0.235294 0.125490
0.305882 0.239216 0.137255
0.333333 0.239216 0.145098
0.364706 0.243137 0.152941
0.392157 0.247059 0.160784
0.415686 0.254902 0.164706
0.443137 0.262745 0.168627
0.466667 0.274510 0.172549
0.490196 0.286275 0.176471
0.517647 0.298039 0.184314
0.545098 0.309804 0.192157
0.576471 0.321569 0.200000
0.607843 0.337255 0.207843
0.639216 0.349020 0.219608
0.670588 0.360784 0.231373
0.701961 0.376471 0.239216
0.737255 0.388235 0.250980
0.772549 0.403922 0.266667
0.203922 0.254902 0.105882
0.207843 0.254902 0.105882
0.215686 0.258824 0.109804
0.223529 0.258824 0.109804
0.239216 0.258824 0.113725
0.250980 0.262745 0.117647
0.270588 0.262745 0.125490
0.290196 0.266667 0.133333
0.317647 0.270588 0.145098
0.345098 0.270588 0.156863
0.372549 0.274510 0.164706
0.400000 0.278431 0.172549
0.427451 0.282353 0.180392
0.454902 0.290196 0.184314
0.482353 0.298039 0.188235
0.505882 0.309804 0.192157
0.533333 0.321569 0.200000
0.560784 0.333333 0.203922
0.588235 0.345098 0.211765
0.615686 0.360784 0.223529
0.647059 0.372549 0.231373
0.678431 0.384314 0.243137
0.713725 0.400000 0.250980
0.745098 0.411765 0.266667
0.780392 0.427451 0.278431
0.243137 0.301961 0.133333
0.247059 0.301961 0.133333
0.254902 0.301961 0.137255
0.262745 0.301961 0.137255
0.274510 0.305882 0.141176
0.286275 0.305882 0.145098
0.301961 0.309804 0.149020
0.321569 0.309804 0.156863
