webgpu/resources/luts/CineStill-800-T-V1.0--N125.cube
#Generated with IWLTBAP LUT Generator
#Website: http://luts.iwltbap.com
TITLE "CineStill-800-T-V1.0--N125"
#LUT size
LUT_3D_SIZE 5
#LUT data points
0.000000 0.003922 0.000000
0.160784 0.031373 0.000000
0.313725 0.098039 0.043137
0.509804 0.184314 0.109804
0.725490 0.294118 0.196078
0.125490 0.160784 0.043137
0.219608 0.160784 0.074510
0.364706 0.188235 0.101961
0.541176 0.266667 0.152941
0.749020 0.356863 0.231373
0.294118 0.372549 0.160784
0.352941 0.380392 0.172549
0.478431 0.400000 0.223529
0.647059 0.443137 0.270588
0.831373 0.521569 0.329412
0.474510 0.647059 0.329412
0.521569 0.650980 0.337255
0.631373 0.662745 0.360784
0.772549 0.690196 0.407843
0.937255 0.729412 0.450980
0.639216 0.909804 0.486275
0.674510 0.913725 0.494118
0.764706 0.921569 0.509804
0.909804 0.952941 0.549020
1.000000 0.964706 0.580392
0.000000 0.007843 0.086275
0.133333 0.062745 0.098039
0.313725 0.117647 0.156863
0.513725 0.207843 0.219608
0.721569 0.309804 0.290196
0.074510 0.180392 0.133333
0.180392 0.188235 0.149020
0.349020 0.219608 0.192157
0.537255 0.286275 0.250980
0.745098 0.368627 0.313725
0.286275 0.388235 0.258824
0.341176 0.392157 0.266667
0.478431 0.407843 0.309804
0.647059 0.447059 0.349020
0.819608 0.521569 0.392157
0.474510 0.643137 0.392157
0.521569 0.643137 0.396078
0.627451 0.654902 0.415686
0.764706 0.682353 0.462745
0.933333 0.717647 0.505882
0.627451 0.894118 0.521569
0.662745 0.898039 0.525490
0.756863 0.909804 0.545098
0.898039 0.933333 0.580392
1.000000 0.952941 0.615686
0.054902 0.070588 0.176471
0.121569 0.109804 0.188235
0.278431 0.168627 0.239216
0.498039 0.235294 0.329412
0.713725 0.325490 0.407843
0.113725 0.188235 0.254902
0.184314 0.203922 0.258824
0.329412 0.247059 0.290196
0.529412 0.305882 0.360784
0.737255 0.384314 0.431373
0.239216 0.407843 0.360784
0.290196 0.415686 0.364706
0.427451 0.435294 0.392157
0.607843 0.470588 0.443137
0.796078 0.537255 0.501961
0.462745 0.650980 0.509804
0.505882 0.650980 0.513725
0.607843 0.666667 0.533333
0.756863 0.686275 0.580392
0.929412 0.721569 0.619608
0.635294 0.894118 0.627451
0.670588 0.898039 0.635294
0.768627 0.905882 0.650980
0.909804 0.929412 0.682353
1.000000 0.952941 0.725490
0.133333 0.113725 0.313725
0.180392 0.137255 0.325490
0.298039 0.200000 0.356863
0.478431 0.286275 0.427451
0.698039 0.364706 0.517647
0.145098 0.219608 0.352941
0.192157 0.239216 0.356863
0.309804 0.290196 0.384314
0.494118 0.352941 0.450980
0.717647 0.419608 0.537255
0.266667 0.419608 0.486275
0.313725 0.427451 0.494118
0.431373 0.454902 0.509804
0.588235 0.501961 0.545098
0.792157 0.556863 0.615686
0.431373 0.666667 0.619608
0.466667 0.674510 0.623529
0.556863 0.690196 0.631373
0.705882 0.717647 0.666667
0.890196 0.749020 0.717647
0.631373 0.901961 0.756863
0.662745 0.905882 0.760784
0.752941 0.921569 0.780392
0.882353 0.945098 0.807843
1.000000 0.956863 0.847059
0.207843 0.145098 0.454902
0.247059 0.160784 0.462745
0.352941 0.219608 0.498039
0.509804 0.305882 0.556863
0.701961 0.400000 0.635294
0.219608 0.243137 0.486275
0.262745 0.258824 0.494118
0.364706 0.301961 0.525490
0.517647 0.372549 0.576471
0.713725 0.458824 0.654902
0.301961 0.439216 0.596078
0.341176 0.450980 0.600000
0.427451 0.486275 0.607843
0.560784 0.545098 0.639216
0.760784 0.611765 0.713725
0.462745 0.690196 0.756863
0.494118 0.698039 0.760784
0.584314 0.713725 0.776471
0.717647 0.745098 0.800000
0.874510 0.784314 0.831373
0.635294 0.937255 0.894118
0.662745 0.945098 0.898039
0.741176 0.968627 0.913725
0.843137 0.984314 0.921569
0.988235 0.996078 0.941176
