webgpu/resources/luts/Cine_Teal.cube
#Created by: Adobe Photoshop Export Color Lookup Plugin
TITLE "Screen Shot 2019-10-17 at 10.34.50 pm.png"
#LUT size
LUT_3D_SIZE 5
#data domain
#LUT data points
DOMAIN_MIN 0.000000 0.000000 0.000000
DOMAIN_MAX 0.903226 0.903226 0.903226
0.035278 0.007507 0.027863
0.185394 0.020447 0.005249
0.457672 0.047150 0.000000
0.728424 0.075409 0.000000
0.881226 0.100159 0.000000
0.037170 0.145874 0.034790
0.184021 0.164978 0.011292
0.461487 0.199554 0.000000
0.736969 0.221741 0.000000
0.890869 0.241150 0.000000
0.044281 0.438293 0.048889
0.160950 0.452393 0.030334
0.457428 0.474182 0.000000
0.752350 0.485352 0.000000
0.908722 0.502136 0.000000
0.058289 0.701172 0.036346
0.185028 0.705292 0.017395
0.481079 0.710144 0.000000
0.757294 0.712494 0.000000
0.922852 0.709076 0.000000
0.073517 0.990051 0.007782
0.233429 0.981445 0.000000
0.534241 0.965729 0.000000
0.786835 0.953400 0.000000
0.938293 0.947144 0.000000
0.026001 0.000305 0.183502
0.133911 0.000000 0.157990
0.424805 0.005157 0.085602
0.716766 0.012329 0.000000
0.875702 0.025391 0.000000
0.043549 0.143280 0.172150
0.123505 0.133087 0.165253
0.407471 0.151581 0.110168
0.722656 0.163544 0.024384
0.898102 0.176575 0.000000
0.050751 0.435760 0.183411
0.101929 0.427551 0.180969
0.406403 0.448822 0.131897
0.729492 0.463257 0.046082
0.915588 0.479309 0.000000
0.064758 0.698608 0.171722
0.125641 0.689575 0.168365
0.428772 0.694336 0.119080
0.731049 0.694946 0.064728
0.919891 0.696869 0.001221
0.080170 0.987457 0.146179
0.174316 0.975922 0.138458
0.482025 0.959839 0.088043
0.760895 0.946167 0.042023
0.932495 0.938721 0.012604
0.023834 0.000000 0.461304
0.100006 0.000000 0.452301
0.349426 0.000000 0.398865
0.688324 0.000000 0.311127
0.876282 0.000000 0.235870
0.034332 0.135803 0.461304
0.085999 0.113129 0.459381
0.335907 0.115540 0.404358
0.687256 0.103943 0.307465
0.892944 0.097626 0.220306
0.063232 0.430878 0.444031
0.113342 0.422394 0.439209
0.311249 0.401886 0.415009
0.679535 0.402649 0.328979
0.901550 0.405823 0.264191
0.077301 0.693695 0.433411
0.137054 0.684509 0.427582
0.330780 0.663300 0.405121
0.680634 0.660767 0.346649
0.912323 0.667999 0.278839
0.092926 0.982452 0.412628
0.185944 0.970886 0.402069
0.384125 0.948120 0.378906
0.711578 0.931091 0.327759
0.921173 0.921173 0.294281
0.032776 0.000000 0.681274
0.114746 0.000000 0.671295
0.364075 0.000000 0.634521
0.657135 0.000000 0.578735
0.877106 0.000000 0.525177
0.042938 0.127289 0.681274
0.096710 0.087128 0.699493
0.349304 0.091583 0.642090
0.651764 0.087341 0.580994
0.882538 0.080902 0.520966
0.065338 0.424683 0.680084
0.124542 0.414459 0.676819
0.301819 0.372955 0.654144
0.640961 0.368286 0.585754
0.892517 0.350403 0.508209
0.088684 0.689240 0.670471
0.148315 0.680115 0.662109
0.333710 0.657074 0.636261
0.655762 0.632996 0.577728
0.905548 0.627930 0.516571
0.104523 0.977905 0.654236
0.197388 0.966400 0.641266
0.387207 0.943146 0.614777
0.683807 0.916107 0.565704
0.914978 0.904999 0.530609
0.044250 0.000000 0.920685
0.153290 0.000000 0.906952
0.402039 0.000000 0.871826
0.669037 0.000000 0.830688
0.874939 0.000000 0.800323
0.054138 0.119263 0.920685
0.115936 0.055237 0.962280
0.388214 0.047577 0.911530
0.664337 0.069214 0.831390
0.877197 0.056519 0.798645
0.075409 0.409271 0.920685
0.146545 0.386414 0.946930
0.330872 0.338257 0.908630
0.655945 0.340851 0.838989
0.881958 0.336578 0.795654
0.096375 0.677277 0.918701
0.182678 0.668518 0.909119
0.361511 0.643158 0.889923
0.652832 0.594635 0.841644
0.893707 0.596344 0.789520
0.117126 0.972961 0.917267
0.209869 0.961517 0.901398
0.399414 0.938354 0.869354
0.690308 0.907684 0.819336
0.914276 0.885864 0.779633
