webgpu/resources/luts/CineStill-800-T-V1.0--N125.cube
#Generated with IWLTBAP LUT Generator
#Website: http://luts.iwltbap.com
TITLE "CineStill-800-T-V1.0--N125"
#LUT size
LUT_3D_SIZE 9
#LUT data points
0.000000 0.003922 0.000000
0.078431 0.000000 0.000000
0.160784 0.031373 0.000000
0.235294 0.066667 0.011765
0.313725 0.098039 0.043137
0.403922 0.133333 0.074510
0.509804 0.184314 0.109804
0.615686 0.235294 0.152941
0.725490 0.294118 0.196078
0.043137 0.082353 0.000000
0.109804 0.082353 0.000000
0.184314 0.086275 0.023529
0.254902 0.101961 0.043137
0.325490 0.129412 0.058824
0.415686 0.164706 0.086275
0.517647 0.207843 0.121569
0.623529 0.258824 0.164706
0.733333 0.313725 0.207843
0.125490 0.160784 0.043137
0.156863 0.160784 0.050980
0.219608 0.160784 0.074510
0.298039 0.164706 0.094118
0.364706 0.188235 0.101961
0.447059 0.227451 0.121569
0.541176 0.266667 0.152941
0.643137 0.309804 0.188235
0.749020 0.356863 0.231373
0.203922 0.250980 0.094118
0.223529 0.254902 0.098039
0.270588 0.262745 0.113725
0.341176 0.270588 0.145098
0.427451 0.282353 0.168627
0.505882 0.309804 0.184314
0.584314 0.345098 0.203922
0.678431 0.384314 0.235294
0.780392 0.427451 0.270588
0.294118 0.372549 0.160784
0.313725 0.376471 0.164706
0.352941 0.380392 0.172549
0.403922 0.388235 0.192157
0.478431 0.400000 0.223529
0.560784 0.415686 0.250980
0.647059 0.443137 0.270588
0.733333 0.478431 0.294118
0.831373 0.521569 0.329412
0.380392 0.505882 0.239216
0.396078 0.505882 0.243137
0.435294 0.509804 0.247059
0.486275 0.513725 0.258824
0.545098 0.525490 0.282353
0.623529 0.541176 0.313725
0.709804 0.564706 0.341176
0.800000 0.592157 0.364706
0.886275 0.619608 0.392157
0.474510 0.647059 0.329412
0.486275 0.647059 0.333333
0.521569 0.650980 0.337255
0.568627 0.654902 0.345098
0.631373 0.662745 0.360784
0.698039 0.674510 0.380392
0.772549 0.690196 0.407843
0.854902 0.705882 0.431373
0.937255 0.729412 0.450980
0.560784 0.780392 0.411765
0.572549 0.784314 0.411765
0.596078 0.784314 0.415686
0.639216 0.788235 0.423529
0.698039 0.792157 0.431373
0.760784 0.800000 0.447059
0.831373 0.807843 0.466667
0.909804 0.823529 0.490196
0.996078 0.847059 0.517647
0.639216 0.909804 0.486275
0.647059 0.909804 0.490196
0.674510 0.913725 0.494118
0.713725 0.917647 0.498039
0.764706 0.921569 0.509804
0.835294 0.933333 0.529412
0.909804 0.952941 0.549020
0.980392 0.956863 0.564706
1.000000 0.964706 0.580392
0.000000 0.007843 0.011765
0.062745 0.000000 0.011765
0.149020 0.039216 0.043137
0.231373 0.074510 0.074510
0.313725 0.109804 0.098039
0.407843 0.149020 0.125490
0.513725 0.196078 0.160784
0.619608 0.247059 0.196078
0.725490 0.301961 0.235294
0.000000 0.090196 0.027451
0.082353 0.090196 0.043137
0.164706 0.098039 0.070588
0.243137 0.113725 0.090196
0.325490 0.145098 0.109804
0.415686 0.180392 0.137255
0.521569 0.223529 0.168627
0.627451 0.270588 0.207843
0.733333 0.317647 0.243137
0.105882 0.168627 0.090196
0.141176 0.172549 0.094118
0.207843 0.172549 0.109804
0.286275 0.180392 0.129412
0.364706 0.203922 0.145098
0.447059 0.239216 0.164706
0.541176 0.278431 0.196078
0.643137 0.317647 0.227451
0.749020 0.360784 0.262745
0.200000 0.262745 0.137255
0.219608 0.266667 0.141176
0.266667 0.270588 0.156863
0.345098 0.278431 0.180392
0.431373 0.290196 0.207843
0.505882 0.317647 0.219608
0.588235 0.352941 0.239216
0.678431 0.388235 0.266667
0.780392 0.431373 0.298039
0.298039 0.380392 0.200000
0.317647 0.380392 0.203922
0.356863 0.384314 0.211765
0.407843 0.396078 0.227451
0.482353 0.403922 0.258824
0.568627 0.415686 0.282353
0.647059 0.443137 0.298039
0.733333 0.478431 0.317647
0.827451 0.517647 0.349020
0.388235 0.505882 0.270588
0.403922 0.509804 0.270588
0.439216 0.509804 0.278431
0.490196 0.517647 0.286275
0.549020 0.525490 0.309804
0.623529 0.541176 0.337255
0.709804 0.560784 0.364706
0.796078 0.584314 0.384314
0.882353 0.615686 0.407843
0.474510 0.643137 0.349020
0.486275 0.643137 0.349020
0.517647 0.647059 0.352941
0.568627 0.650980 0.360784
0.627451 0.658824 0.376471
0.694118 0.670588 0.396078
0.768627 0.682353 0.423529
0.850980 0.701961 0.447059
0.933333 0.721569 0.466667
0.552941 0.772549 0.419608
0.564706 0.772549 0.423529
0.592157 0.776471 0.427451
0.635294 0.780392 0.431373
0.690196 0.784314 0.443137
0.756863 0.792157 0.454902
0.827451 0.803922 0.478431
0.901961 0.819608 0.501961
0.988235 0.839216 0.525490
0.627451 0.898039 0.490196
0.639216 0.898039 0.494118
0.662745 0.901961 0.498039
0.701961 0.905882 0.505882
0.756863 0.913725 0.513725
0.823529 0.921569 0.529412
0.898039 0.937255 0.552941
0.968627 0.949020 0.568627
1.000000 0.956863 0.588235
0.000000 0.007843 0.086275
0.054902 0.011765 0.078431
0.133333 0.062745 0.098039
0.223529 0.086275 0.125490
0.313725 0.117647 0.156863
0.407843 0.156863 0.184314
0.513725 0.207843 0.219608
0.615686 0.258824 0.254902
0.721569 0.309804 0.290196
0.027451 0.090196 0.105882
0.082353 0.094118 0.109804
0.152941 0.109804 0.121569
0.235294 0.125490 0.141176
0.325490 0.152941 0.164706
0.419608 0.188235 0.196078
0.517647 0.231373 0.227451
0.623529 0.278431 0.262745
0.729412 0.325490 0.298039
0.074510 0.180392 0.133333
0.113725 0.184314 0.137255
0.180392 0.188235 0.149020
0.266667 0.200000 0.168627
0.349020 0.219608 0.192157
0.439216 0.250980 0.219608
0.537255 0.286275 0.250980
0.639216 0.325490 0.282353
0.745098 0.368627 0.313725
0.172549 0.274510 0.192157
0.196078 0.278431 0.192157
0.250980 0.282353 0.203922
0.325490 0.290196 0.223529
0.411765 0.305882 0.247059
0.494118 0.329412 0.266667
0.576471 0.360784 0.286275
0.670588 0.396078 0.313725
0.772549 0.435294 0.345098
0.286275 0.388235 0.258824
0.305882 0.388235 0.258824
0.341176 0.392157 0.266667
0.400000 0.400000 0.282353
0.478431 0.407843 0.309804
0.568627 0.419608 0.333333
0.647059 0.447059 0.349020
0.725490 0.482353 0.364706
0.819608 0.521569 0.392157
0.388235 0.509804 0.321569
0.403922 0.509804 0.321569
0.439216 0.513725 0.329412
0.486275 0.517647 0.337255
0.545098 0.529412 0.356863
0.623529 0.541176 0.388235
0.713725 0.556863 0.415686
0.796078 0.584314 0.431373
0.874510 0.615686 0.447059
0.474510 0.643137 0.392157
0.490196 0.643137 0.392157
0.521569 0.643137 0.396078
0.572549 0.647059 0.403922
0.627451 0.654902 0.415686
0.690196 0.666667 0.435294
0.764706 0.682353 0.462745
0.850980 0.698039 0.486275
0.933333 0.717647 0.505882
0.552941 0.768627 0.454902
0.564706 0.772549 0.458824
0.592157 0.772549 0.462745
0.635294 0.776471 0.466667
0.694118 0.780392 0.478431
0.756863 0.788235 0.490196
0.823529 0.800000 0.509804
0.901961 0.815686 0.537255
0.984314 0.835294 0.560784
0.627451 0.894118 0.521569
0.635294 0.894118 0.521569
0.662745 0.898039 0.525490
0.701961 0.901961 0.533333
0.756863 0.909804 0.545098
0.823529 0.917647 0.560784
0.898039 0.933333 0.580392
0.968627 0.945098 0.596078
1.000000 0.952941 0.615686
0.007843 0.031373 0.113725
0.054902 0.054902 0.121569
0.121569 0.090196 0.137255
0.203922 0.113725 0.164706
0.301961 0.141176 0.200000
0.403922 0.172549 0.239216
0.509804 0.215686 0.278431
0.615686 0.266667 0.313725
0.717647 0.317647 0.349020
0.058824 0.098039 0.156863
0.090196 0.105882 0.160784
0.145098 0.121569 0.168627
0.223529 0.145098 0.184314
0.313725 0.168627 0.215686
0.415686 0.200000 0.250980
0.517647 0.239216 0.286275
0.619608 0.286275 0.321569
0.725490 0.333333 0.356863
0.086275 0.184314 0.192157
0.117647 0.188235 0.196078
0.180392 0.196078 0.203922
0.254902 0.207843 0.219608
0.341176 0.231373 0.243137
0.439216 0.258824 0.274510
0.537255 0.294118 0.305882
0.635294 0.333333 0.341176
0.737255 0.376471 0.372549
0.149020 0.286275 0.235294
0.172549 0.290196 0.239216
0.223529 0.298039 0.247059
0.298039 0.305882 0.262745
0.388235 0.321569 0.290196
0.478431 0.341176 0.313725
0.564706 0.372549 0.341176
0.658824 0.407843 0.368627
0.764706 0.443137 0.403922
0.258824 0.396078 0.309804
0.278431 0.400000 0.309804
0.313725 0.403922 0.317647
0.376471 0.411765 0.329412
0.454902 0.419608 0.349020
0.545098 0.435294 0.376471
0.627451 0.458824 0.396078
0.709804 0.494118 0.415686
0.803922 0.529412 0.447059
0.372549 0.513725 0.380392
0.388235 0.517647 0.380392
0.419608 0.517647 0.388235
0.470588 0.525490 0.396078
0.533333 0.533333 0.411765
0.615686 0.545098 0.443137
0.709804 0.560784 0.470588
0.792157 0.584314 0.486275
0.870588 0.619608 0.501961
0.474510 0.643137 0.447059
0.490196 0.643137 0.450980
0.521569 0.647059 0.454902
0.568627 0.650980 0.462745
0.627451 0.658824 0.470588
0.686275 0.670588 0.494118
0.764706 0.682353 0.525490
0.854902 0.694118 0.549020
0.933333 0.717647 0.560784
0.556863 0.768627 0.509804
0.568627 0.768627 0.509804
0.596078 0.772549 0.513725
0.643137 0.772549 0.521569
0.701961 0.780392 0.529412
0.760784 0.788235 0.541176
0.827451 0.800000 0.560784
0.901961 0.815686 0.592157
0.988235 0.835294 0.619608
0.631373 0.894118 0.568627
0.639216 0.894118 0.568627
0.666667 0.898039 0.576471
0.705882 0.901961 0.580392
0.764706 0.905882 0.592157
0.831373 0.917647 0.607843
0.901961 0.933333 0.623529
0.968627 0.941176 0.643137
1.000000 0.952941 0.662745
0.054902 0.070588 0.176471
0.074510 0.086275 0.176471
0.121569 0.109804 0.188235
0.192157 0.141176 0.207843
0.278431 0.168627 0.239216
0.388235 0.200000 0.282353
0.498039 0.235294 0.329412
0.607843 0.278431 0.368627
0.713725 0.325490 0.407843
0.066667 0.117647 0.200000
0.090196 0.125490 0.200000
0.137255 0.145098 0.207843
0.203922 0.168627 0.223529
0.294118 0.196078 0.254902
0.400000 0.223529 0.294118
0.509804 0.258824 0.337255
0.615686 0.298039 0.376471
0.721569 0.341176 0.415686
0.113725 0.188235 0.254902
0.137255 0.192157 0.254902
0.184314 0.203922 0.258824
0.247059 0.223529 0.270588
0.329412 0.247059 0.290196
0.427451 0.274510 0.325490
0.529412 0.305882 0.360784
0.635294 0.341176 0.396078
0.737255 0.384314 0.431373
0.156863 0.290196 0.298039
0.180392 0.294118 0.301961
0.227451 0.301961 0.305882
0.294118 0.313725 0.321569
0.376471 0.329412 0.341176
0.466667 0.352941 0.364706
0.564706 0.380392 0.396078
0.662745 0.411765 0.427451
0.760784 0.447059 0.462745
0.239216 0.407843 0.360784
0.254902 0.407843 0.360784
0.290196 0.415686 0.364706
0.349020 0.423529 0.372549
0.427451 0.435294 0.392157
0.517647 0.450980 0.415686
0.607843 0.470588 0.443137
0.698039 0.501961 0.470588
0.796078 0.537255 0.501961
0.349020 0.525490 0.435294
0.360784 0.525490 0.435294
0.392157 0.529412 0.439216
0.443137 0.537255 0.447059
0.509804 0.545098 0.458824
0.592157 0.560784 0.482353
0.686275 0.576471 0.513725
0.768627 0.600000 0.533333
0.850980 0.631373 0.552941
0.462745 0.650980 0.509804
0.474510 0.650980 0.509804
0.505882 0.650980 0.513725
0.552941 0.658824 0.521569
0.607843 0.666667 0.533333
0.674510 0.674510 0.552941
0.756863 0.686275 0.580392
0.850980 0.698039 0.607843
0.929412 0.721569 0.619608
0.556863 0.772549 0.572549
0.568627 0.772549 0.572549
0.596078 0.772549 0.576471
0.643137 0.776471 0.584314
0.698039 0.780392 0.592157
0.756863 0.788235 0.603922
0.823529 0.803922 0.623529
0.901961 0.815686 0.654902
0.996078 0.831373 0.686275
0.635294 0.894118 0.627451
0.647059 0.894118 0.631373
0.670588 0.898039 0.635294
0.713725 0.901961 0.639216
0.768627 0.905882 0.650980
0.839216 0.917647 0.666667
0.909804 0.929412 0.682353
0.968627 0.941176 0.701961
1.000000 0.952941 0.725490
0.094118 0.094118 0.243137
0.109804 0.101961 0.247059
0.149020 0.125490 0.254902
0.203922 0.152941 0.266667
0.278431 0.188235 0.290196
0.372549 0.227451 0.329412
0.482353 0.262745 0.376471
0.596078 0.301961 0.419608
0.705882 0.345098 0.462745
0.094118 0.137255 0.254902
0.109804 0.145098 0.258824
0.149020 0.160784 0.262745
0.207843 0.184314 0.274510
0.282353 0.215686 0.298039
0.380392 0.250980 0.337255
0.490196 0.282353 0.384314
0.603922 0.317647 0.427451
0.713725 0.360784 0.470588
0.121569 0.203922 0.298039
0.141176 0.207843 0.301961
0.180392 0.219608 0.301961
0.235294 0.243137 0.309804
0.309804 0.270588 0.329412
0.403922 0.301961 0.364706
0.509804 0.329412 0.403922
0.619608 0.360784 0.447059
0.729412 0.396078 0.486275
0.184314 0.298039 0.364706
0.203922 0.301961 0.364706
0.243137 0.309804 0.372549
0.301961 0.325490 0.380392
0.372549 0.345098 0.392157
0.454902 0.368627 0.415686
0.549020 0.396078 0.443137
0.654902 0.423529 0.482353
0.760784 0.458824 0.517647
0.243137 0.415686 0.419608
0.258824 0.415686 0.419608
0.294118 0.423529 0.423529
0.352941 0.431373 0.435294
0.423529 0.447059 0.447059
0.509804 0.462745 0.470588
0.600000 0.482353 0.498039
0.698039 0.509804 0.529412
0.800000 0.545098 0.560784
0.333333 0.533333 0.486275
0.345098 0.537255 0.486275
0.372549 0.541176 0.490196
0.419608 0.549020 0.494118
0.482353 0.560784 0.505882
0.568627 0.576471 0.525490
0.662745 0.592157 0.556863
0.752941 0.611765 0.584314
0.839216 0.639216 0.607843
0.443137 0.658824 0.564706
0.454902 0.658824 0.568627
0.482353 0.662745 0.568627
0.525490 0.670588 0.576471
0.580392 0.678431 0.584314
0.650980 0.690196 0.600000
0.733333 0.701961 0.623529
0.823529 0.713725 0.647059
0.905882 0.733333 0.666667
0.549020 0.776471 0.631373
0.556863 0.776471 0.635294
0.584314 0.780392 0.639216
0.623529 0.784314 0.643137
0.678431 0.788235 0.654902
0.737255 0.796078 0.666667
0.807843 0.807843 0.682353
0.894118 0.823529 0.713725
0.992157 0.839216 0.745098
0.635294 0.894118 0.690196
0.647059 0.898039 0.694118
0.670588 0.901961 0.698039
0.713725 0.905882 0.705882
0.768627 0.909804 0.717647
0.839216 0.921569 0.733333
0.901961 0.933333 0.745098
0.964706 0.945098 0.764706
1.000000 0.952941 0.792157
0.133333 0.113725 0.313725
0.149020 0.117647 0.317647
0.180392 0.137255 0.325490
0.231373 0.164706 0.337255
0.298039 0.200000 0.356863
0.384314 0.243137 0.388235
0.478431 0.286275 0.427451
0.584314 0.325490 0.470588
0.698039 0.364706 0.517647
0.133333 0.149020 0.325490
0.149020 0.156863 0.325490
0.180392 0.172549 0.333333
0.231373 0.196078 0.345098
0.301961 0.227451 0.364706
0.384314 0.266667 0.396078
0.482353 0.305882 0.435294
0.592157 0.341176 0.478431
0.701961 0.380392 0.521569
0.145098 0.219608 0.352941
0.160784 0.223529 0.352941
0.192157 0.239216 0.356863
0.243137 0.258824 0.364706
0.309804 0.290196 0.384314
0.392157 0.321569 0.411765
0.494118 0.352941 0.450980
0.603922 0.384314 0.494118
0.717647 0.419608 0.537255
0.200000 0.309804 0.415686
0.215686 0.313725 0.419608
0.250980 0.325490 0.423529
0.298039 0.341176 0.427451
0.356863 0.364706 0.435294
0.431373 0.392157 0.454902
0.525490 0.419608 0.486275
0.635294 0.447059 0.525490
0.745098 0.478431 0.568627
0.266667 0.419608 0.486275
0.282353 0.423529 0.486275
0.313725 0.427451 0.494118
0.364706 0.439216 0.501961
0.431373 0.454902 0.509804
0.501961 0.474510 0.525490
0.588235 0.501961 0.545098
0.686275 0.529412 0.576471
0.792157 0.556863 0.615686
0.337255 0.541176 0.549020
0.349020 0.545098 0.549020
0.376471 0.549020 0.552941
0.423529 0.556863 0.556863
0.486275 0.568627 0.568627
0.564706 0.584314 0.588235
0.650980 0.603922 0.611765
0.745098 0.623529 0.635294
0.839216 0.650980 0.666667
0.431373 0.666667 0.619608
0.443137 0.670588 0.623529
0.466667 0.674510 0.623529
0.505882 0.682353 0.627451
0.556863 0.690196 0.631373
0.623529 0.705882 0.643137
0.705882 0.717647 0.666667
0.800000 0.729412 0.694118
0.890196 0.749020 0.717647
0.533333 0.784314 0.690196
0.545098 0.788235 0.694118
0.564706 0.788235 0.694118
0.603922 0.796078 0.701961
0.650980 0.800000 0.705882
0.709804 0.811765 0.717647
0.784314 0.823529 0.733333
0.870588 0.835294 0.756863
0.964706 0.854902 0.788235
0.631373 0.901961 0.756863
0.639216 0.905882 0.756863
0.662745 0.905882 0.760784
0.701961 0.913725 0.768627
0.752941 0.921569 0.780392
0.819608 0.933333 0.796078
0.882353 0.945098 0.807843
0.952941 0.952941 0.823529
1.000000 0.956863 0.847059
0.172549 0.129412 0.388235
0.184314 0.133333 0.388235
0.215686 0.149020 0.396078
0.262745 0.176471 0.407843
0.325490 0.211765 0.427451
0.403922 0.250980 0.458824
0.490196 0.298039 0.490196
0.588235 0.341176 0.529412
0.694118 0.384314 0.572549
0.172549 0.164706 0.392157
0.184314 0.168627 0.396078
0.215686 0.180392 0.403922
0.266667 0.203922 0.415686
0.329412 0.239216 0.435294
0.403922 0.278431 0.462745
0.494118 0.317647 0.498039
0.592157 0.360784 0.537255
0.698039 0.403922 0.580392
0.180392 0.231373 0.415686
0.196078 0.235294 0.419608
0.227451 0.250980 0.423529
0.274510 0.270588 0.435294
0.337255 0.298039 0.450980
0.411765 0.333333 0.474510
0.498039 0.368627 0.509804
0.600000 0.403922 0.549020
0.709804 0.443137 0.592157
0.219608 0.325490 0.470588
0.231373 0.329412 0.470588
0.262745 0.337255 0.474510
0.305882 0.356863 0.478431
0.360784 0.380392 0.486275
0.427451 0.411765 0.501961
0.513725 0.439216 0.533333
0.615686 0.470588 0.572549
0.733333 0.505882 0.619608
0.286275 0.431373 0.545098
0.298039 0.431373 0.545098
0.329412 0.439216 0.549020
0.372549 0.450980 0.552941
0.427451 0.470588 0.560784
0.490196 0.494118 0.568627
0.564706 0.525490 0.588235
0.662745 0.552941 0.619608
0.772549 0.584314 0.662745
0.360784 0.549020 0.615686
0.368627 0.552941 0.615686
0.396078 0.556863 0.619608
0.443137 0.564706 0.627451
0.501961 0.580392 0.639216
0.572549 0.596078 0.650980
0.647059 0.619608 0.670588
0.733333 0.643137 0.690196
0.827451 0.666667 0.717647
0.439216 0.678431 0.682353
0.450980 0.678431 0.686275
0.470588 0.682353 0.686275
0.509804 0.690196 0.690196
0.560784 0.701961 0.698039
0.627451 0.713725 0.709804
0.705882 0.729412 0.729412
0.792157 0.745098 0.749020
0.882353 0.760784 0.772549
0.529412 0.796078 0.749020
0.537255 0.800000 0.752941
0.556863 0.803922 0.752941
0.592157 0.807843 0.756863
0.635294 0.815686 0.760784
0.690196 0.827451 0.768627
0.760784 0.843137 0.780392
0.847059 0.854902 0.803922
0.949020 0.878431 0.839216
0.623529 0.913725 0.819608
0.635294 0.917647 0.823529
0.654902 0.921569 0.827451
0.690196 0.929412 0.831373
0.741176 0.937255 0.843137
0.796078 0.952941 0.854902
0.858824 0.960784 0.862745
0.929412 0.968627 0.874510
1.000000 0.976471 0.894118
0.207843 0.145098 0.454902
0.219608 0.149020 0.458824
0.247059 0.160784 0.462745
0.290196 0.184314 0.478431
0.352941 0.219608 0.498039
0.423529 0.258824 0.525490
0.509804 0.305882 0.556863
0.600000 0.352941 0.596078
0.701961 0.400000 0.635294
0.207843 0.172549 0.462745
0.219608 0.180392 0.466667
0.250980 0.192157 0.470588
0.298039 0.215686 0.486275
0.356863 0.247059 0.505882
0.427451 0.282353 0.533333
0.509804 0.325490 0.564706
0.603922 0.368627 0.600000
0.705882 0.419608 0.643137
0.219608 0.243137 0.486275
0.231373 0.247059 0.490196
0.262745 0.258824 0.494118
0.305882 0.274510 0.505882
0.364706 0.301961 0.525490
0.435294 0.337255 0.545098
0.517647 0.372549 0.576471
0.611765 0.415686 0.611765
0.713725 0.458824 0.654902
0.247059 0.333333 0.529412
0.258824 0.337255 0.529412
0.286275 0.349020 0.533333
0.329412 0.364706 0.541176
0.384314 0.388235 0.552941
0.450980 0.415686 0.572549
0.529412 0.450980 0.600000
0.623529 0.486275 0.635294
0.733333 0.529412 0.682353
0.301961 0.439216 0.596078
0.313725 0.443137 0.596078
0.341176 0.450980 0.600000
0.376471 0.462745 0.603922
0.427451 0.486275 0.607843
0.486275 0.513725 0.619608
0.560784 0.545098 0.639216
0.654902 0.580392 0.670588
0.760784 0.611765 0.713725
0.380392 0.560784 0.678431
0.392157 0.560784 0.678431
0.415686 0.568627 0.682353
0.458824 0.580392 0.690196
0.509804 0.596078 0.698039
0.572549 0.615686 0.709804
0.639216 0.643137 0.717647
0.713725 0.670588 0.737255
0.807843 0.698039 0.764706
0.462745 0.690196 0.756863
0.474510 0.694118 0.756863
0.494118 0.698039 0.760784
0.533333 0.705882 0.764706
0.584314 0.713725 0.776471
0.647059 0.725490 0.784314
0.717647 0.745098 0.800000
0.792157 0.760784 0.811765
0.874510 0.784314 0.831373
0.541176 0.811765 0.819608
0.549020 0.815686 0.819608
0.568627 0.819608 0.823529
0.600000 0.823529 0.827451
0.643137 0.831373 0.831373
0.701961 0.843137 0.839216
0.768627 0.858824 0.850980
0.850980 0.874510 0.874510
0.949020 0.901961 0.905882
0.635294 0.937255 0.894118
0.643137 0.941176 0.894118
0.662745 0.945098 0.898039
0.694118 0.952941 0.905882
0.741176 0.968627 0.913725
0.788235 0.976471 0.917647
0.843137 0.984314 0.921569
0.909804 0.992157 0.929412
0.988235 0.996078 0.941176
