webgpu/resources/luts/Colorist_Factory_Severn_LUT.cube
TITLE "Generated by Resolve"
LUT_3D_SIZE 9
0.00117494 0.000259403 0.000137331
0.0834974 0.0227359 0.00958267
0.17847 0.0444648 0.0352636
0.29865 0.053727 0.0500954
0.425879 0.0703899 0.0777295
0.562631 0.0856947 0.101961
0.712718 0.109041 0.126909
0.852583 0.137636 0.151492
0.95259 0.168444 0.17644
0.0034638 0.0630655 0.0108339
0.0696117 0.0757305 0.0195621
0.173983 0.0941329 0.0175326
0.316121 0.109102 0.0122377
0.468544 0.127275 0.0309148
0.617426 0.144457 0.0652934
0.762692 0.176638 0.0987564
0.885618 0.21294 0.13402
0.966735 0.252888 0.164431
0.00204471 0.126589 0.0254826
0.0360876 0.138186 0.0207828
0.157321 0.162737 0.0298924
0.308309 0.1832 0.0250401
0.468223 0.205356 0.0208286
0.635706 0.229038 0.0426337
0.803708 0.258701 0.0464027
0.93019 0.289021 0.0702068
0.982986 0.335836 0.118563
0.00421149 0.208972 0.0534676
0.0153048 0.219577 0.0457465
0.112139 0.247837 0.0390326
0.296162 0.280232 0.0528725
0.465858 0.297292 0.0404364
0.639384 0.322255 0.0264134
0.809979 0.356359 0.0320592
0.939452 0.388647 0.0501411
0.98735 0.442603 0.0836347
0.0065919 0.309941 0.076112
0.0168307 0.32105 0.0623026
0.0517281 0.344274 0.049073
0.265614 0.385122 0.0607767
0.454643 0.41178 0.0634928
0.639811 0.428779 0.0434119
0.81622 0.458122 0.0303349
0.94255 0.501228 0.0236515
0.991501 0.54847 0.0679179
0.00839246 0.432135 0.0932784
0.0189975 0.447135 0.0761425
0.0362554 0.462394 0.0529183
0.180407 0.504326 0.0560159
0.439384 0.543694 0.0761425
0.637079 0.56875 0.0794842
0.821546 0.586969 0.056199
0.946975 0.610803 0.0513619
0.994934 0.654078 0.0895094
0.0118563 0.556771 0.119692
0.0225071 0.573007 0.103609
0.0382544 0.586206 0.0675975
0.115068 0.625757 0.0729534
0.415717 0.666575 0.0811322
0.65182 0.703578 0.090425
0.825254 0.720897 0.115114
0.948974 0.734264 0.108537
0.996551 0.755459 0.116472
0.0140078 0.664439 0.134356
0.0257877 0.680491 0.126314
0.0423133 0.69189 0.101549
0.078584 0.722911 0.0916609
0.398184 0.757397 0.0941634
0.65185 0.790402 0.134966
0.824109 0.80798 0.139437
0.949096 0.820127 0.134401
0.997177 0.834577 0.146334
0.019379 0.741451 0.169757
0.0316167 0.75259 0.165896
0.0483406 0.764492 0.125551
0.0944839 0.786603 0.102266
0.368444 0.813382 0.121721
0.622782 0.841077 0.138476
0.810147 0.86659 0.162524
0.940581 0.8757 0.166842
0.997284 0.888304 0.173312
0.0107271 0.0116274 0.082002
0.0908064 0.0186313 0.118074
0.197345 0.0315251 0.0980392
0.305364 0.035935 0.0829786
0.423224 0.050721 0.101839
0.554223 0.0683604 0.12697
0.702174 0.0883803 0.156344
0.841901 0.118837 0.182818
0.944747 0.151064 0.209796
0.0207218 0.0723888 0.0937972
0.0591287 0.0810864 0.0978714
0.20354 0.10341 0.0957504
0.356695 0.116594 0.0992905
0.496971 0.137758 0.121035
0.637537 0.167468 0.154162
0.785245 0.199985 0.182223
0.904677 0.23299 0.207065
0.96379 0.274617 0.240635
0.0340429 0.141543 0.112383
0.0491188 0.146761 0.107225
0.147768 0.169497 0.110018
0.333776 0.197375 0.097261
0.531838 0.218616 0.0887465
0.721111 0.239445 0.0881971
0.854047 0.269932 0.121965
0.943328 0.307256 0.167895
0.980362 0.352819 0.21207
0.0327306 0.225467 0.134493
0.0355077 0.231662 0.125612
0.0899062 0.254704 0.119799
0.284718 0.287816 0.126238
0.473747 0.311482 0.114153
0.703059 0.341909 0.0884718
0.876982 0.371405 0.0841993
0.963943 0.411246 0.118059
0.988418 0.458747 0.175051
0.0277256 0.327703 0.154864
0.0330968 0.337774 0.147539
0.0476539 0.34934 0.134676
0.240024 0.390387 0.133577
0.444755 0.422019 0.137957
0.639979 0.437751 0.115999
0.85539 0.484565 0.089128
0.966751 0.531762 0.0929732
0.992584 0.563149 0.165911
0.0255131 0.450294 0.176547
0.0309148 0.465934 0.161318
0.0395972 0.472221 0.136233
0.135622 0.511498 0.136614
0.418616 0.549172 0.143664
0.630259 0.576272 0.14168
0.821073 0.592294 0.118273
0.960983 0.630701 0.125887
0.996033 0.668574 0.164263
0.0246433 0.569055 0.192248
0.0329137 0.589044 0.182467
0.0429541 0.597299 0.157748
0.0900282 0.631388 0.144488
0.389883 0.672419 0.146441
0.643091 0.710887 0.16202
0.824781 0.728359 0.174762
0.953262 0.739559 0.159487
0.997375 0.765713 0.189502
0.0250095 0.672786 0.204868
0.0336309 0.689525 0.191302
0.0456703 0.699443 0.161334
0.0772412 0.727337 0.152514
0.378546 0.763195 0.163516
0.646433 0.796658 0.192584
0.826963 0.815854 0.196033
0.951965 0.827161 0.193606
0.998138 0.841917 0.217517
0.0248875 0.745754 0.207553
0.0374151 0.758816 0.205585
0.0534524 0.769757 0.185504
0.0938735 0.790677 0.16556
0.351293 0.816846 0.176089
0.623743 0.845212 0.192325
0.811826 0.871229 0.219852
0.942473 0.880873 0.22385
0.997726 0.893935 0.233051
0.00772107 0.0111238 0.157519
0.0508736 0.0157626 0.177386
0.194965 0.0100557 0.255146
0.360693 0.0106966 0.247593
0.464698 0.0321965 0.213993
0.570214 0.0488136 0.200427
0.697581 0.0570993 0.20238
0.827512 0.0991836 0.228031
0.929854 0.134783 0.258625
0.0267033 0.0893416 0.184085
0.0440375 0.0895857 0.186206
0.148943 0.0967269 0.211048
0.352575 0.100511 0.209552
0.487877 0.109514 0.178225
0.631067 0.139406 0.195972
0.774609 0.174578 0.224521
0.893858 0.212238 0.252064
0.957015 0.259297 0.292317
0.0480659 0.17116 0.209903
0.0590524 0.174868 0.210071
0.115267 0.176577 0.209125
0.318837 0.211307 0.21973
0.479622 0.236393 0.230335
0.661082 0.266621 0.241032
0.827756 0.298238 0.259983
0.929366 0.335882 0.287053
0.973602 0.397177 0.345495
0.0694896 0.257511 0.237476
0.0800793 0.268376 0.238697
0.0906539 0.258762 0.225711
0.248936 0.296101 0.241199
0.465034 0.330938 0.228397
0.712322 0.362783 0.224369
0.893462 0.381567 0.199756
0.966796 0.425223 0.239292
0.986465 0.480552 0.316075
0.0799878 0.352758 0.268406
0.0878614 0.36968 0.271427
0.0867628 0.355901 0.247807
0.189227 0.394919 0.255009
0.4121 0.432319 0.260197
0.634165 0.460548 0.248554
0.869062 0.507774 0.232425
0.972 0.547372 0.218494
0.992935 0.58471 0.295506
0.0792859 0.471794 0.301976
0.0797894 0.4907 0.293385
0.0770428 0.484291 0.26743
0.106554 0.506966 0.269718
0.368734 0.553933 0.259236
0.604944 0.591363 0.27509
0.814252 0.609644 0.256748
0.96817 0.652323 0.249348
0.996292 0.690455 0.296895
0.0664683 0.583383 0.310231
0.0657206 0.603555 0.293599
0.0653239 0.610346 0.267292
0.088365 0.633722 0.267491
0.309499 0.677714 0.265644
0.609735 0.717144 0.284367
0.810056 0.740993 0.296864
0.953964 0.748486 0.272786
0.998047 0.781048 0.316365
0.0534524 0.681071 0.304021
0.0565805 0.69575 0.287877
0.0623484 0.70811 0.269841
0.084596 0.73138 0.260761
0.331991 0.769894 0.270451
0.622248 0.804685 0.303624
0.824353 0.83006 0.310338
0.952865 0.837324 0.30164
0.998703 0.853498 0.329076
0.0463569 0.751995 0.296559
0.0518196 0.763378 0.280598
0.0645762 0.775616 0.265919
0.0970932 0.795697 0.261036
0.318486 0.824765 0.270466
0.616953 0.851759 0.281224
0.808865 0.87808 0.313191
0.944488 0.890394 0.318761
0.998291 0.903441 0.328206
0.0107881 0.0198825 0.228824
0.0345769 0.0280766 0.253193
0.118029 0.0305486 0.287968
0.311727 0.0155795 0.374731
0.487572 0.0174563 0.375341
0.614252 0.0257725 0.354177
0.734051 0.053315 0.331746
0.843229 0.0757763 0.317159
0.931075 0.0877546 0.317037
0.0307012 0.0982376 0.271443
0.0428016 0.0995499 0.275074
0.0966812 0.0975204 0.283558
0.274357 0.101991 0.360723
0.493614 0.0949416 0.369604
0.651713 0.114229 0.328252
0.779141 0.138613 0.297368
0.883467 0.178851 0.303853
0.950469 0.233234 0.345464
0.0540322 0.187015 0.300053
0.0651255 0.194064 0.305119
0.0760052 0.185504 0.302617
0.236423 0.204761 0.328206
0.478065 0.209705 0.345998
0.63888 0.224445 0.307362
0.810269 0.268956 0.317556
0.913985 0.310765 0.342229
0.965209 0.368185 0.395148
0.0797742 0.285695 0.33547
0.092668 0.300313 0.341344
0.0993668 0.290776 0.334356
0.199374 0.303456 0.342718
0.448783 0.345724 0.360418
0.637247 0.379065 0.369696
0.829953 0.416754 0.379202
0.948959 0.451774 0.392752
0.979583 0.525826 0.469276
0.104829 0.384939 0.365286
0.118227 0.40499 0.373419
0.125185 0.399634 0.36376
0.168109 0.398978 0.362325
0.375067 0.445716 0.386664
0.626657 0.48658 0.374853
0.876646 0.529763 0.369055
0.974594 0.558373 0.348882
0.991669 0.611154 0.438804
0.123156 0.495476 0.407111
0.13051 0.51223 0.4047
0.135088 0.514778 0.395285
0.145693 0.512383 0.384009
0.307195 0.561059 0.390875
0.569284 0.602777 0.399039
0.808728 0.63566 0.392889
0.972137 0.674754 0.378653
0.996002 0.713848 0.436469
0.119081 0.599573 0.419425
0.121355 0.617868 0.412177
0.12224 0.627924 0.400244
0.125612 0.634501 0.385763
0.22858 0.674525 0.398138
0.56054 0.724132 0.398413
0.789166 0.755795 0.425986
0.948943 0.764172 0.404715
0.997909 0.798627 0.44892
0.107164 0.689021 0.421759
0.102739 0.700679 0.399451
0.100282 0.71017 0.378759
0.107942 0.727947 0.367544
0.26566 0.772793 0.389425
0.581613 0.810956 0.417288
0.807935 0.839948 0.427375
0.948043 0.85034 0.432135
0.998749 0.865522 0.452461
0.085832 0.755673 0.397559
0.0887617 0.765148 0.386603
0.0970932 0.775219 0.386191
0.114122 0.793805 0.372381
0.307485 0.832944 0.361212
0.602502 0.858564 0.376791
0.80119 0.885542 0.417792
0.943099 0.901213 0.437186
0.998444 0.915343 0.447868
0.0140993 0.0256809 0.292027
0.0307164 0.0339208 0.335561
0.0636149 0.035172 0.344732
0.219501 0.0371557 0.420478
0.435798 0.0191043 0.495476
0.613687 0.0178836 0.499886
0.764584 0.0356146 0.488365
0.874388 0.0484779 0.462501
0.946365 0.0905013 0.442679
0.0341192 0.104463 0.358404
0.0445869 0.107027 0.362234
0.0612039 0.105409 0.364584
0.203693 0.10663 0.403311
0.421378 0.0882429 0.501991
0.617777 0.0977646 0.50779
0.803677 0.119829 0.476555
0.903685 0.156985 0.436728
0.95581 0.206455 0.440269
0.0590372 0.199725 0.390478
0.0701152 0.207095 0.39678
0.0786297 0.204501 0.397971
0.166049 0.203052 0.413474
0.387243 0.217945 0.493416
0.622263 0.222065 0.506477
0.803845 0.24593 0.456565
0.912123 0.266911 0.41973
0.962371 0.322225 0.450401
0.0865797 0.304479 0.426429
0.0999771 0.320684 0.435828
0.109087 0.320546 0.437751
0.135912 0.307637 0.436561
0.357687 0.338064 0.468681
0.623041 0.346471 0.483635
0.800839 0.362768 0.438392
0.923095 0.406653 0.44155
0.96994 0.478431 0.506081
0.113756 0.409262 0.462119
0.12871 0.431754 0.472068
0.139666 0.438788 0.47509
0.147021 0.426123 0.464836
0.314107 0.450095 0.485069
0.609827 0.501793 0.504326
0.817426 0.54757 0.519585
0.956161 0.589014 0.528222
0.982513 0.656245 0.601312
0.141924 0.521248 0.495048
0.155657 0.543114 0.502785
0.166842 0.55436 0.506188
0.173419 0.548562 0.495186
0.236591 0.557015 0.500237
0.52166 0.618265 0.530983
0.804211 0.663584 0.521218
0.973632 0.69662 0.509804
0.994522 0.744503 0.584848
0.15967 0.626215 0.528954
0.168185 0.642756 0.527276
0.17557 0.654047 0.524239
0.180468 0.6551 0.514168
0.201877 0.666163 0.51783
0.494331 0.735668 0.533791
0.753536 0.768551 0.555367
0.944625 0.788998 0.542138
0.996689 0.820264 0.589837
0.157748 0.706401 0.531899
0.162051 0.716472 0.523827
0.165805 0.723308 0.514611
0.165881 0.728725 0.498161
0.198795 0.748379 0.508522
0.517433 0.817563 0.534905
0.768399 0.848371 0.545632
0.934081 0.86627 0.57055
0.997772 0.880049 0.586557
0.150546 0.765225 0.529259
0.150469 0.770794 0.513329
0.153811 0.77673 0.505257
0.151064 0.785306 0.482078
0.235508 0.818112 0.485679
0.56144 0.866468 0.488426
0.781903 0.89279 0.519783
0.939345 0.915038 0.559274
0.997955 0.929839 0.581659
0.0170901 0.0284428 0.3552
0.0328374 0.0388037 0.42533
0.0522774 0.0412146 0.43151
0.134585 0.0465858 0.449577
0.352682 0.034287 0.567437
0.558968 0.0225986 0.62211
0.750378 0.0220188 0.628397
0.89453 0.0307927 0.621912
0.962249 0.0870832 0.604852
0.0370642 0.10811 0.447776
0.0468757 0.110414 0.450614
0.0561379 0.10721 0.451804
0.118013 0.100038 0.461387
0.336675 0.0993668 0.557733
0.556863 0.0901503 0.6327
0.761547 0.084596 0.639719
0.920897 0.13048 0.624323
0.96669 0.195499 0.599832
0.0628214 0.20795 0.477363
0.0740063 0.215641 0.484077
0.082475 0.212863 0.48658
0.100359 0.202533 0.492439
0.315633 0.21976 0.537957
0.543328 0.216876 0.6421
0.772122 0.233753 0.648676
0.929229 0.262196 0.617136
0.969909 0.31931 0.599802
0.0911879 0.31545 0.513954
0.104341 0.330648 0.523171
0.113069 0.329122 0.524712
0.120027 0.320668 0.527153
0.280552 0.333486 0.558633
0.520775 0.354238 0.635706
0.78938 0.368261 0.652323
0.932036 0.390188 0.600824
0.971817 0.448051 0.603891
0.119326 0.423407 0.547662
0.13431 0.445808 0.558602
0.145129 0.452125 0.563363
0.154025 0.45095 0.56791
0.19115 0.449638 0.578058
0.498772 0.493462 0.619333
0.795972 0.501808 0.632471
0.930114 0.518196 0.581765
0.97351 0.590982 0.627665
0.149706 0.540795 0.587396
0.165026 0.564584 0.598993
0.177829 0.578775 0.605219
0.187823 0.582055 0.607935
0.200214 0.58056 0.605356
0.474083 0.625711 0.641093
0.784833 0.680598 0.658351
0.947829 0.723125 0.675456
0.986328 0.776944 0.734417
0.177264 0.650675 0.619745
0.190768 0.671244 0.626413
0.202335 0.684459 0.629496
0.212116 0.688701 0.630579
0.222904 0.693202 0.627863
0.436149 0.728939 0.658167
0.707485 0.783215 0.684047
0.941405 0.814481 0.673442
0.99321 0.844617 0.725505
0.191073 0.732036 0.637324
0.200244 0.741802 0.635721
0.207996 0.747433 0.630503
0.21619 0.750378 0.628168
0.225315 0.759045 0.622522
0.427787 0.801266 0.660914
0.710689 0.858625 0.679149
0.913039 0.882872 0.697658
0.994308 0.899367 0.718013
0.192279 0.784817 0.636225
0.198581 0.788556 0.629404
0.204746 0.792462 0.62208
0.212055 0.797665 0.618082
0.215122 0.801343 0.599283
0.457145 0.860609 0.607706
0.73785 0.899626 0.624506
0.917922 0.925292 0.662409
0.994751 0.945312 0.708522
0.0201572 0.0313573 0.424994
0.0394751 0.0432746 0.506493
0.0657054 0.0439612 0.508553
0.123781 0.0460517 0.51516
0.282567 0.0493782 0.587671
0.490394 0.0379797 0.694224
0.696651 0.0254215 0.728481
0.878325 0.0321813 0.733059
0.964187 0.0640574 0.734279
0.0366674 0.0953384 0.523323
0.0463264 0.0948501 0.524834
0.057084 0.0918135 0.52578
0.0971542 0.0902571 0.530053
0.269917 0.105379 0.582055
0.495506 0.0890364 0.701915
0.710216 0.0740978 0.74081
0.893294 0.114336 0.742351
0.968231 0.149416 0.739055
0.0634775 0.204303 0.55494
0.0748913 0.213046 0.560265
0.0834821 0.210407 0.561929
0.0962997 0.206973 0.564706
0.248325 0.206714 0.590677
0.470008 0.218936 0.686122
0.713588 0.212573 0.753674
0.903212 0.243183 0.755474
0.972549 0.287343 0.746426
0.0935378 0.319203 0.585428
0.106355 0.333196 0.593393
0.115099 0.331731 0.594965
0.123445 0.328771 0.597452
0.188891 0.315999 0.618326
0.45716 0.35024 0.668864
0.71693 0.353872 0.765805
0.91606 0.377783 0.765652
0.976379 0.429374 0.752667
0.122637 0.429984 0.621912
0.13724 0.450843 0.632517
0.147799 0.45626 0.636454
0.15697 0.456336 0.638911
0.166674 0.445426 0.649012
0.42826 0.484092 0.690028
0.709728 0.505577 0.776043
0.927687 0.519554 0.772778
0.979522 0.579858 0.760616
0.153567 0.549325 0.658961
0.168444 0.571298 0.670283
0.181079 0.584741 0.676982
0.190936 0.587518 0.679469
0.200458 0.588388 0.687694
0.359777 0.61857 0.714504
0.683742 0.667308 0.756756
0.93492 0.669841 0.764157
0.97908 0.719249 0.761379
0.182727 0.662409 0.694926
0.197543 0.684398 0.704784
0.210986 0.70106 0.711452
0.221103 0.704921 0.71397
0.232593 0.713802 0.720119
0.294377 0.732143 0.73286
0.680201 0.788724 0.783047
0.926619 0.827787 0.790936
0.986038 0.861814 0.827543
0.205081 0.750851 0.723247
0.217456 0.765164 0.727977
0.228229 0.773419 0.729061
0.238346 0.778454 0.730556
0.248798 0.78558 0.732219
0.290227 0.800885 0.741436
0.681392 0.856519 0.791791
0.877623 0.89453 0.805753
0.988281 0.915541 0.824842
0.216114 0.808682 0.732448
0.225559 0.813596 0.731197
0.234638 0.816983 0.729351
0.243671 0.82063 0.727687
0.252476 0.825177 0.724773
0.345083 0.843595 0.733059
0.682017 0.90631 0.75964
0.900984 0.937682 0.775479
0.992126 0.960937 0.820844
0.0237278 0.0372931 0.494118
0.0522164 0.0438697 0.555413
0.107088 0.0504158 0.571923
0.163455 0.0543374 0.582925
0.24033 0.0581216 0.611566
0.456687 0.0471046 0.730541
0.655573 0.0337224 0.790875
0.844816 0.0428168 0.802716
0.957916 0.0625467 0.809232
0.0416571 0.0889296 0.580713
0.0531472 0.0922713 0.58378
0.0723735 0.0944381 0.586084
0.122515 0.102052 0.592432
0.228107 0.111849 0.611826
0.462013 0.090135 0.733669
0.666941 0.0899672 0.800427
0.863493 0.118364 0.810544
0.961639 0.138247 0.816953
0.0634318 0.198444 0.607813
0.074464 0.206088 0.611582
0.084062 0.20441 0.613458
0.101106 0.201099 0.616464
0.179309 0.198367 0.626825
0.429358 0.215656 0.704372
0.663279 0.211521 0.807126
0.860716 0.2365 0.823911
0.963958 0.267536 0.827054
0.0922713 0.310582 0.635721
0.104753 0.323384 0.642039
0.1131 0.320317 0.644617
0.120928 0.314351 0.647684
0.140658 0.307195 0.653513
0.413108 0.330327 0.69688
0.654673 0.344869 0.808347
0.862303 0.36347 0.834958
0.966567 0.391089 0.836423
0.120211 0.417151 0.662989
0.134157 0.435477 0.672221
0.144564 0.440208 0.676905
0.15285 0.436896 0.680262
0.161349 0.431998 0.685863
0.361151 0.452338 0.722301
0.647364 0.490501 0.798169
0.865324 0.505638 0.846387
0.970535 0.52578 0.848692
0.151354 0.536675 0.700648
0.165164 0.554513 0.710063
0.178576 0.57084 0.7187
0.187991 0.571694 0.723384
0.197421 0.572412 0.729213
0.32018 0.594537 0.755444
0.652247 0.647105 0.800183
0.877241 0.666835 0.861677
0.974472 0.689174 0.859663
0.180697 0.650446 0.734066
0.194507 0.668437 0.742901
0.208881 0.688365 0.754314
0.222248 0.704524 0.763882
0.23331 0.711635 0.770382
0.315175 0.737072 0.792889
0.691371 0.790433 0.837415
0.87834 0.815961 0.870848
0.980484 0.832151 0.875273
0.205066 0.744869 0.765988
0.217502 0.757549 0.773419
0.23032 0.771511 0.782025
0.243473 0.786801 0.791501
0.256336 0.800992 0.799969
0.398871 0.828489 0.822263
0.761181 0.877882 0.865354
0.901747 0.9075 0.882399
0.984878 0.928023 0.902235
0.222065 0.811414 0.789822
0.232563 0.816907 0.793194
0.243702 0.824918 0.798291
0.255283 0.83473 0.804532
0.267094 0.845457 0.811353
0.341131 0.864775 0.824811
0.763149 0.920394 0.874174
0.93022 0.957702 0.887129
0.994842 0.981994 0.920897
0.0260929 0.0382391 0.547143
0.0638132 0.0468605 0.595239
0.0889906 0.0519112 0.606958
0.143801 0.0563973 0.61474
0.215091 0.0628367 0.635279
0.374334 0.064271 0.713558
0.608881 0.0386816 0.818952
0.804623 0.0352789 0.841489
0.94226 0.0585794 0.847364
0.0467689 0.103731 0.623499
0.0542763 0.102876 0.622232
0.0680095 0.102754 0.622965
0.11574 0.107149 0.62797
0.220508 0.114534 0.643763
0.388724 0.104372 0.719066
0.614466 0.0875563 0.823987
0.818006 0.0993515 0.846113
0.947662 0.119203 0.854902
0.0652934 0.204181 0.642329
0.0747387 0.205325 0.644434
0.0828565 0.200855 0.646006
0.093019 0.194903 0.648096
0.170214 0.196719 0.658473
0.372274 0.205524 0.703502
0.613382 0.195789 0.82388
0.816831 0.202808 0.856672
0.949477 0.243366 0.864378
0.0942092 0.315663 0.668574
0.104875 0.321553 0.67332
0.112505 0.31574 0.674739
0.119448 0.306859 0.676356
0.142458 0.297414 0.680049
0.347066 0.304387 0.707866
0.604654 0.321752 0.814252
0.823468 0.329778 0.869581
0.951339 0.374563 0.874311
0.122225 0.422522 0.695201
0.134356 0.433982 0.701427
0.143084 0.432425 0.703304
0.150072 0.424125 0.705257
0.157565 0.415366 0.709728
0.243473 0.408652 0.725734
0.597742 0.45594 0.798367
0.834394 0.473075 0.881407
0.958831 0.506676 0.886915
0.150927 0.532601 0.727306
0.163409 0.54548 0.733455
0.17496 0.554513 0.740215
0.183368 0.551629 0.742519
0.191211 0.546334 0.746075
0.208331 0.542489 0.756512
0.604425 0.602365 0.813687
0.859602 0.63241 0.897429
0.965881 0.655772 0.901061
0.177691 0.636301 0.75639
0.19057 0.650797 0.762325
0.203494 0.665263 0.770565
0.216999 0.681804 0.781353
0.227588 0.687068 0.78764
0.24596 0.698512 0.802426
0.642145 0.760174 0.856214
0.860487 0.790829 0.902846
0.971954 0.803708 0.916167
0.201541 0.729 0.78378
0.214298 0.74287 0.791485
0.227344 0.757702 0.800824
0.241016 0.774975 0.811582
0.254719 0.792142 0.823728
0.271946 0.809964 0.838056
0.705272 0.868193 0.888838
0.898756 0.899474 0.915373
0.982406 0.915526 0.940597
0.221195 0.804944 0.811978
0.2318 0.810575 0.815961
0.242817 0.81767 0.821103
0.254627 0.827924 0.827893
0.266819 0.839414 0.836164
0.280598 0.854414 0.847898
0.581872 0.899992 0.888334
0.896544 0.952148 0.932036
0.997284 0.992401 0.982025
