webgpu/resources/luts/Colorist_Factory_Severn_LUT.cube
TITLE "Generated by Resolve"
LUT_3D_SIZE 5
0.00117494 0.000259403 0.000137331
0.17847 0.0444648 0.0352636
0.425879 0.0703899 0.0777295
0.712718 0.109041 0.126909
0.95259 0.168444 0.17644
0.00204471 0.126589 0.0254826
0.157321 0.162737 0.0298924
0.468223 0.205356 0.0208286
0.803708 0.258701 0.0464027
0.982986 0.335836 0.118563
0.0065919 0.309941 0.076112
0.0517281 0.344274 0.049073
0.454643 0.41178 0.0634928
0.81622 0.458122 0.0303349
0.991501 0.54847 0.0679179
0.0118563 0.556771 0.119692
0.0382544 0.586206 0.0675975
0.415717 0.666575 0.0811322
0.825254 0.720897 0.115114
0.996551 0.755459 0.116472
0.019379 0.741451 0.169757
0.0483406 0.764492 0.125551
0.368444 0.813382 0.121721
0.810147 0.86659 0.162524
0.997284 0.888304 0.173312
0.00772107 0.0111238 0.157519
0.194965 0.0100557 0.255146
0.464698 0.0321965 0.213993
0.697581 0.0570993 0.20238
0.929854 0.134783 0.258625
0.0480659 0.17116 0.209903
0.115267 0.176577 0.209125
0.479622 0.236393 0.230335
0.827756 0.298238 0.259983
0.973602 0.397177 0.345495
0.0799878 0.352758 0.268406
0.0867628 0.355901 0.247807
0.4121 0.432319 0.260197
0.869062 0.507774 0.232425
0.992935 0.58471 0.295506
0.0664683 0.583383 0.310231
0.0653239 0.610346 0.267292
0.309499 0.677714 0.265644
0.810056 0.740993 0.296864
0.998047 0.781048 0.316365
0.0463569 0.751995 0.296559
0.0645762 0.775616 0.265919
0.318486 0.824765 0.270466
0.808865 0.87808 0.313191
0.998291 0.903441 0.328206
0.0140993 0.0256809 0.292027
0.0636149 0.035172 0.344732
0.435798 0.0191043 0.495476
0.764584 0.0356146 0.488365
0.946365 0.0905013 0.442679
0.0590372 0.199725 0.390478
0.0786297 0.204501 0.397971
0.387243 0.217945 0.493416
0.803845 0.24593 0.456565
0.962371 0.322225 0.450401
0.113756 0.409262 0.462119
0.139666 0.438788 0.47509
0.314107 0.450095 0.485069
0.817426 0.54757 0.519585
0.982513 0.656245 0.601312
0.15967 0.626215 0.528954
0.17557 0.654047 0.524239
0.201877 0.666163 0.51783
0.753536 0.768551 0.555367
0.996689 0.820264 0.589837
0.150546 0.765225 0.529259
0.153811 0.77673 0.505257
0.235508 0.818112 0.485679
0.781903 0.89279 0.519783
0.997955 0.929839 0.581659
0.0201572 0.0313573 0.424994
0.0657054 0.0439612 0.508553
0.282567 0.0493782 0.587671
0.696651 0.0254215 0.728481
0.964187 0.0640574 0.734279
0.0634775 0.204303 0.55494
0.0834821 0.210407 0.561929
0.248325 0.206714 0.590677
0.713588 0.212573 0.753674
0.972549 0.287343 0.746426
0.122637 0.429984 0.621912
0.147799 0.45626 0.636454
0.166674 0.445426 0.649012
0.709728 0.505577 0.776043
0.979522 0.579858 0.760616
0.182727 0.662409 0.694926
0.210986 0.70106 0.711452
0.232593 0.713802 0.720119
0.680201 0.788724 0.783047
0.986038 0.861814 0.827543
0.216114 0.808682 0.732448
0.234638 0.816983 0.729351
0.252476 0.825177 0.724773
0.682017 0.90631 0.75964
0.992126 0.960937 0.820844
0.0260929 0.0382391 0.547143
0.0889906 0.0519112 0.606958
0.215091 0.0628367 0.635279
0.608881 0.0386816 0.818952
0.94226 0.0585794 0.847364
0.0652934 0.204181 0.642329
0.0828565 0.200855 0.646006
0.170214 0.196719 0.658473
0.613382 0.195789 0.82388
0.949477 0.243366 0.864378
0.122225 0.422522 0.695201
0.143084 0.432425 0.703304
0.157565 0.415366 0.709728
0.597742 0.45594 0.798367
0.958831 0.506676 0.886915
0.177691 0.636301 0.75639
0.203494 0.665263 0.770565
0.227588 0.687068 0.78764
0.642145 0.760174 0.856214
0.971954 0.803708 0.916167
0.221195 0.804944 0.811978
0.242817 0.81767 0.821103
0.266819 0.839414 0.836164
0.581872 0.899992 0.888334
0.997284 0.992401 0.982025
