webgpu/resources/luts/Colorist_Factory_Severn_LUT.cube
TITLE "Generated by Resolve"
LUT_3D_SIZE 33
0.00117494 0.000259403 0.000137331
0.01944 0.00224308 0.00190738
0.0447852 0.00770581 0.0034638
0.0644541 0.0153506 0.00430304
0.0834974 0.0227359 0.00958267
0.105562 0.0295262 0.0169528
0.128878 0.0356756 0.0238346
0.153094 0.0406195 0.0302739
0.17847 0.0444648 0.0352636
0.205615 0.0476234 0.0376135
0.235492 0.0501564 0.0393988
0.267735 0.0514534 0.0431067
0.29865 0.053727 0.0500954
0.329259 0.0574197 0.0578927
0.361501 0.0617685 0.0648508
0.39411 0.0662394 0.0713054
0.425879 0.0703899 0.0777295
0.459525 0.0738994 0.0836652
0.494774 0.0774548 0.0894789
0.528893 0.0818952 0.0957198
0.562631 0.0856947 0.101961
0.598047 0.0880903 0.108125
0.63563 0.0912337 0.114382
0.67422 0.0980087 0.120653
0.712718 0.109041 0.126909
0.750301 0.118181 0.132738
0.785595 0.124773 0.138415
0.820356 0.130022 0.144808
0.852583 0.137636 0.151492
0.882887 0.140948 0.158068
0.911086 0.145434 0.164553
0.933822 0.157321 0.171145
0.95259 0.168444 0.17644
0.00134279 0.0175174 0.00225834
0.0163577 0.0203861 0.00210575
0.0389868 0.0252995 0.00207523
0.0594339 0.031693 0.00296025
0.0796521 0.0374304 0.00717174
0.103899 0.0420233 0.011902
0.131167 0.0462654 0.0157931
0.1579 0.0501259 0.0188754
0.185122 0.0531624 0.0205234
0.214023 0.0554971 0.0209659
0.245594 0.0565957 0.0221866
0.279438 0.0566567 0.0260166
0.312001 0.0599069 0.0358892
0.344228 0.0650645 0.0464942
0.376181 0.0702678 0.0554208
0.40708 0.0753338 0.0632029
0.43798 0.0800793 0.070573
0.470146 0.0849622 0.0778363
0.502892 0.0905165 0.0850233
0.534951 0.0964675 0.0925154
0.566766 0.102296 0.100237
0.599954 0.10753 0.107958
0.636423 0.112169 0.115328
0.67541 0.119097 0.121965
0.713573 0.129778 0.128634
0.751202 0.13904 0.134661
0.787991 0.14548 0.139879
0.822797 0.150973 0.145983
0.854902 0.15935 0.15259
0.885603 0.166339 0.158846
0.914321 0.169818 0.164858
0.93666 0.18088 0.171756
0.954925 0.192584 0.177829
0.00177005 0.0347448 0.00230411
0.0126345 0.0373999 0.00347906
0.0363928 0.0405585 0.00418097
0.0571298 0.0444495 0.00634775
0.0757458 0.0489052 0.00921645
0.0986191 0.0539254 0.0131685
0.124392 0.0584726 0.0149081
0.151492 0.0631876 0.0158541
0.180102 0.0669108 0.0158389
0.212772 0.0691081 0.0146792
0.247074 0.0703593 0.0137026
0.283635 0.0701305 0.014435
0.320333 0.0709697 0.0153048
0.35584 0.0751965 0.0244602
0.3888 0.0801099 0.0363622
0.42034 0.0851301 0.0484474
0.452659 0.0905776 0.0588235
0.485801 0.0959487 0.0670176
0.518608 0.101686 0.0750286
0.550576 0.107652 0.0829786
0.582971 0.113664 0.0906691
0.618036 0.119631 0.0983444
0.654871 0.126268 0.106188
0.691279 0.135653 0.114488
0.727123 0.146563 0.122499
0.761257 0.1561 0.130602
0.795483 0.163287 0.137774
0.828489 0.170581 0.14519
0.858793 0.180529 0.152682
0.888869 0.189395 0.159609
0.917983 0.195956 0.166293
0.939971 0.207523 0.17322
0.957702 0.217838 0.179156
0.00265507 0.0488746 0.00689708
0.0133822 0.0513466 0.00799573
0.0329137 0.0548257 0.0104372
0.054551 0.0582284 0.0121462
0.0740978 0.0617227 0.0144198
0.0939498 0.0660716 0.0162356
0.119173 0.0712139 0.017731
0.146654 0.0758221 0.0174105
0.177523 0.0799115 0.0153964
0.210925 0.0827344 0.0140993
0.24535 0.0851148 0.0132906
0.281468 0.0881361 0.0136873
0.317922 0.0910811 0.0129091
0.355642 0.0946212 0.0171206
0.393118 0.0983139 0.0227054
0.430091 0.101549 0.0290532
0.465888 0.105333 0.0397345
0.500175 0.109819 0.0522164
0.533257 0.114992 0.0625315
0.566049 0.120928 0.0712291
0.600397 0.127535 0.0792401
0.636637 0.134066 0.0866407
0.67364 0.141299 0.0945602
0.710063 0.151339 0.10312
0.744533 0.161471 0.112001
0.778393 0.170245 0.120363
0.81146 0.178317 0.128985
0.842695 0.186526 0.136309
0.871794 0.196704 0.144472
0.900389 0.206607 0.15201
0.925673 0.216861 0.160388
0.946639 0.227588 0.168505
0.961532 0.237263 0.175357
0.0034638 0.0630655 0.0108339
0.011902 0.0654459 0.0115816
0.0268254 0.0689708 0.014847
0.0481422 0.0720989 0.0172885
0.0696117 0.0757305 0.0195621
0.091722 0.0793927 0.021561
0.116213 0.0833906 0.0218204
0.143221 0.0891432 0.0210727
0.173983 0.0941329 0.0175326
0.208225 0.097734 0.0144198
0.242603 0.100618 0.0128481
0.279194 0.104341 0.0125887
0.316121 0.109102 0.0122377
0.353658 0.11397 0.0153506
0.39118 0.118654 0.019913
0.429389 0.123201 0.0251164
0.468544 0.127275 0.0309148
0.507286 0.130404 0.0374762
0.544503 0.133623 0.0456245
0.580713 0.138231 0.0554818
0.617426 0.144457 0.0652934
0.655009 0.151644 0.0738231
0.692683 0.159197 0.0818952
0.728939 0.167636 0.0900893
0.762692 0.176638 0.0987564
0.796201 0.18497 0.1075
0.828199 0.192721 0.116564
0.85713 0.203128 0.126162
0.885618 0.21294 0.13402
0.913725 0.222065 0.140902
0.935653 0.233188 0.149615
0.955139 0.243229 0.156771
0.966735 0.252888 0.164431
0.00392157 0.0771801 0.0150454
0.011017 0.0800488 0.0151064
0.0201419 0.0832074 0.0170901
0.0384222 0.0869612 0.019913
0.0607919 0.090898 0.0220035
0.0858473 0.0957351 0.024506
0.112749 0.0997177 0.025864
0.139849 0.103944 0.0247959
0.170413 0.109285 0.0214847
0.205356 0.113664 0.0174258
0.23949 0.117403 0.0148775
0.276097 0.121675 0.0128481
0.313939 0.12694 0.0119631
0.352392 0.13254 0.013611
0.390326 0.137499 0.0165713
0.428702 0.142138 0.0213321
0.468498 0.146899 0.0279088
0.508064 0.151202 0.0349432
0.546944 0.155261 0.0415656
0.587442 0.159884 0.0473487
0.629969 0.165209 0.0519265
0.671946 0.171283 0.0570993
0.710872 0.178195 0.0647593
0.746395 0.185779 0.0737774
0.780377 0.193744 0.083299
0.813336 0.201785 0.0921645
0.843473 0.210315 0.101656
0.871687 0.220142 0.111681
0.899474 0.230289 0.120729
0.924453 0.240497 0.128573
0.944976 0.250751 0.136187
0.961547 0.260212 0.142519
0.972732 0.269978 0.150942
0.00326543 0.0929885 0.0185702
0.00976577 0.0958267 0.0184176
0.0167544 0.0988479 0.0191501
0.0294194 0.102251 0.0209506
0.0492866 0.106447 0.0220188
0.0749371 0.111467 0.0241398
0.105821 0.116594 0.0262913
0.13611 0.121462 0.0274357
0.166506 0.125414 0.0259556
0.20145 0.130663 0.0225528
0.235187 0.135851 0.020264
0.272557 0.140673 0.0171054
0.311498 0.145373 0.0136263
0.350683 0.150668 0.0124208
0.389425 0.156008 0.0133516
0.427893 0.160952 0.0174105
0.467597 0.166155 0.0241855
0.507576 0.171618 0.0318914
0.547219 0.17641 0.038819
0.588861 0.181125 0.0442206
0.632578 0.186725 0.0480049
0.676997 0.192706 0.0504768
0.720256 0.198825 0.0528878
0.759182 0.205631 0.056611
0.794949 0.21297 0.0618296
0.827527 0.220844 0.069276
0.857114 0.229725 0.0802319
0.88603 0.239094 0.0909895
0.912856 0.248463 0.100679
0.935424 0.258686 0.111116
0.954696 0.268818 0.121233
0.9673 0.279042 0.129488
0.978195 0.288991 0.138216
0.002533 0.109606 0.0221714
0.00891127 0.112169 0.0213474
0.0154116 0.115099 0.0210575
0.024567 0.11841 0.0215915
0.0408026 0.122301 0.0209201
0.0644694 0.127199 0.0214237
0.0945754 0.132555 0.0237888
0.129168 0.138521 0.0267338
0.163363 0.143954 0.0287327
0.197589 0.148135 0.027451
0.231037 0.153414 0.0256809
0.269657 0.159121 0.022858
0.309911 0.164218 0.0189059
0.349569 0.169223 0.016083
0.388907 0.17464 0.0148318
0.428046 0.179843 0.0163729
0.467994 0.185107 0.0215763
0.507988 0.190784 0.0287633
0.547814 0.196323 0.0358434
0.589868 0.201724 0.0417029
0.633921 0.207843 0.0457618
0.679057 0.214466 0.0475776
0.723491 0.220935 0.0480354
0.763363 0.22771 0.0491493
0.801099 0.234653 0.0508278
0.836652 0.241978 0.054139
0.868467 0.250233 0.0625315
0.897566 0.258762 0.0722515
0.923003 0.267948 0.0827039
0.944961 0.278401 0.0931106
0.961135 0.288991 0.106126
0.972656 0.299535 0.116258
0.980987 0.31107 0.126574
0.00204471 0.126589 0.0254826
0.00842298 0.128847 0.0238499
0.0149386 0.131167 0.0219577
0.0228275 0.134188 0.0215915
0.0360876 0.138186 0.0207828
0.0566567 0.143297 0.0203708
0.0840009 0.14905 0.0225528
0.119448 0.155612 0.0259098
0.157321 0.162737 0.0298924
0.192996 0.167712 0.0315557
0.226688 0.17232 0.0311589
0.26659 0.177584 0.0285039
0.308309 0.1832 0.0250401
0.348562 0.188357 0.0220188
0.38793 0.193866 0.0187686
0.427588 0.199557 0.0174868
0.468223 0.205356 0.0208286
0.50811 0.211109 0.0269017
0.547906 0.216709 0.0331121
0.590692 0.222538 0.0383459
0.635706 0.229038 0.0426337
0.681483 0.23621 0.0451667
0.725826 0.243534 0.0453193
0.765469 0.251026 0.0455482
0.803708 0.258701 0.0464027
0.840604 0.266239 0.0486305
0.874495 0.273747 0.0539406
0.904707 0.280751 0.0610819
0.93019 0.289021 0.0702068
0.951553 0.298802 0.080766
0.965515 0.30988 0.0941176
0.976959 0.322133 0.106065
0.982986 0.335836 0.118563
0.00207523 0.144884 0.0306859
0.00621042 0.147662 0.0292973
0.0110628 0.149844 0.0272374
0.0176699 0.152255 0.0251316
0.0284123 0.156313 0.0241093
0.0466926 0.161471 0.0224765
0.0742046 0.167407 0.0228275
0.109941 0.174212 0.0260166
0.14931 0.181842 0.0307317
0.189166 0.189136 0.0345006
0.224063 0.194034 0.0362554
0.262928 0.198718 0.0353399
0.305425 0.203952 0.0319219
0.346288 0.209735 0.0283665
0.386069 0.215549 0.0248112
0.426413 0.22089 0.0221866
0.467887 0.226352 0.0231327
0.508415 0.231968 0.0269932
0.548211 0.237583 0.030869
0.59115 0.244053 0.0343938
0.637079 0.251392 0.0390936
0.683391 0.259052 0.0424659
0.727459 0.267323 0.0423438
0.767208 0.275944 0.0425727
0.805829 0.284031 0.0439002
0.842863 0.291844 0.04654
0.877485 0.299077 0.0514687
0.908339 0.305257 0.0571756
0.934661 0.312612 0.0648661
0.956024 0.321279 0.0728923
0.968795 0.332021 0.0839857
0.979339 0.345235 0.0962234
0.984543 0.360586 0.109117
0.00262455 0.164874 0.0376287
0.00570687 0.16846 0.0364233
0.00927749 0.170733 0.0352331
0.0133211 0.172702 0.0319371
0.0200198 0.175998 0.0299992
0.0352331 0.181247 0.0281376
0.0634165 0.187274 0.0268711
0.0989395 0.194217 0.0289158
0.13994 0.202274 0.0333867
0.181796 0.210529 0.0376745
0.221546 0.21738 0.0405737
0.26006 0.22237 0.0419318
0.301244 0.227558 0.0400702
0.343084 0.232685 0.0360723
0.384405 0.237934 0.0321508
0.425422 0.243015 0.0287785
0.467277 0.248356 0.0275425
0.508629 0.254139 0.0281682
0.548989 0.26009 0.029221
0.591974 0.26685 0.0309911
0.638178 0.274693 0.03505
0.684871 0.282704 0.0375219
0.728847 0.291249 0.0360113
0.768536 0.300587 0.0373693
0.807523 0.309041 0.0409705
0.844587 0.316915 0.0438087
0.879149 0.323766 0.047364
0.910338 0.329793 0.0529183
0.936782 0.336782 0.0609903
0.957763 0.34551 0.068513
0.970474 0.356481 0.0755322
0.980224 0.370871 0.0854963
0.985504 0.387152 0.0996567
0.0034638 0.186526 0.0460059
0.00610361 0.190112 0.0449378
0.00898756 0.192309 0.0437934
0.0120851 0.194247 0.0406806
0.0159152 0.196643 0.037583
0.0243534 0.201373 0.0351263
0.0504158 0.207492 0.032639
0.0841382 0.215152 0.0328527
0.128206 0.224292 0.0364996
0.172412 0.233158 0.0409552
0.215274 0.241276 0.0447242
0.258305 0.248768 0.0476081
0.298787 0.25362 0.0473945
0.339605 0.257908 0.0442664
0.382132 0.262394 0.0404212
0.424567 0.266621 0.0363928
0.466911 0.271733 0.0337072
0.508354 0.277653 0.0322576
0.549355 0.283894 0.0303807
0.592676 0.290822 0.0288853
0.638514 0.298634 0.0302129
0.685115 0.306783 0.0304723
0.729305 0.315175 0.0282444
0.769253 0.324468 0.0315099
0.808469 0.333364 0.037232
0.845975 0.340932 0.0395666
0.880491 0.347494 0.0416876
0.911894 0.35404 0.048188
0.938186 0.361715 0.0562905
0.95877 0.371389 0.0631113
0.971542 0.383047 0.0689555
0.980636 0.398489 0.0788434
0.986419 0.415152 0.0912032
0.00421149 0.208972 0.0534676
0.00680552 0.212787 0.0528115
0.00952163 0.215198 0.0516365
0.0123445 0.217243 0.0491493
0.0153048 0.219577 0.0457465
0.0200198 0.223468 0.0421454
0.0336309 0.22977 0.0390173
0.0637827 0.238102 0.0365911
0.112139 0.247837 0.0390326
0.160464 0.256886 0.0436103
0.206363 0.265309 0.0479591
0.253117 0.274342 0.051667
0.296162 0.280232 0.0528725
0.33637 0.28481 0.0516823
0.378286 0.289281 0.0488441
0.422232 0.293507 0.04477
0.465858 0.297292 0.0404364
0.507591 0.302113 0.0370336
0.549065 0.30837 0.0334783
0.593301 0.315022 0.0289311
0.639384 0.322255 0.0264134
0.685573 0.330236 0.0243839
0.730129 0.338491 0.0218509
0.770657 0.347402 0.0258335
0.809979 0.356359 0.0320592
0.847593 0.364141 0.0335546
0.881849 0.371221 0.0361028
0.91342 0.379248 0.0433356
0.939452 0.388647 0.0501411
0.959381 0.399252 0.0561227
0.97232 0.411368 0.0632181
0.980896 0.426947 0.0734417
0.98735 0.442603 0.0836347
0.00489815 0.233371 0.0600137
0.00761425 0.237766 0.059678
0.0102846 0.240101 0.0583047
0.0130312 0.242054 0.0565805
0.0159304 0.244327 0.053315
0.0196231 0.24773 0.0485237
0.0258946 0.253239 0.0438087
0.0460517 0.261784 0.0396277
0.0915847 0.271489 0.0401617
0.144305 0.280934 0.0446174
0.195117 0.289799 0.0496376
0.244572 0.299138 0.0541085
0.291936 0.307378 0.0568246
0.332998 0.312367 0.0569619
0.374075 0.317006 0.0556802
0.418509 0.321874 0.0527352
0.463523 0.325765 0.0480964
0.50634 0.329 0.0429084
0.548562 0.333577 0.0374609
0.593805 0.339513 0.0310674
0.640345 0.346151 0.0257877
0.685985 0.35375 0.0219883
0.730648 0.361868 0.0191501
0.772045 0.370443 0.0218051
0.811627 0.379248 0.0264286
0.849149 0.387869 0.0276493
0.883436 0.396384 0.0319982
0.915022 0.406271 0.0391546
0.940688 0.416663 0.0439002
0.959625 0.427893 0.0483253
0.973022 0.439673 0.0557717
0.981674 0.454475 0.0663005
0.988525 0.469154 0.0763256
0.00561532 0.258869 0.0663462
0.00833143 0.263478 0.0658579
0.0108644 0.265782 0.0636759
0.0135348 0.267201 0.0610819
0.0163882 0.269291 0.0575113
0.0197147 0.272435 0.0528573
0.0250095 0.277211 0.0469673
0.0366522 0.285039 0.0421302
0.0717784 0.294743 0.0415961
0.123476 0.304616 0.0455329
0.179614 0.314305 0.0513313
0.234775 0.324117 0.0565805
0.285786 0.333516 0.0597543
0.330602 0.340688 0.0605478
0.371832 0.345068 0.0599222
0.415305 0.34966 0.0586252
0.46041 0.35462 0.0559243
0.504387 0.358114 0.0510719
0.547936 0.361089 0.0442359
0.593774 0.365011 0.0357061
0.640589 0.370718 0.0284581
0.686397 0.378103 0.023743
0.731258 0.386023 0.0202945
0.773236 0.394614 0.0206455
0.81323 0.403586 0.0225376
0.850568 0.413016 0.02327
0.88513 0.423102 0.0280919
0.91635 0.433677 0.0333257
0.941634 0.444343 0.0361791
0.959838 0.455879 0.0399481
0.973678 0.467842 0.0466773
0.982452 0.481605 0.0571298
0.989654 0.495552 0.070222
0.00621042 0.284077 0.0718395
0.00889601 0.288823 0.0710918
0.0113222 0.291569 0.0679789
0.0137484 0.292393 0.0631266
0.016556 0.294286 0.0594186
0.0198367 0.297398 0.0557107
0.0248569 0.302159 0.0513466
0.0329747 0.308797 0.045594
0.0588998 0.318669 0.044831
0.104814 0.328679 0.0475319
0.161288 0.338872 0.0528573
0.221698 0.349172 0.0583963
0.277623 0.358785 0.0615854
0.326513 0.367453 0.0626841
0.370535 0.373114 0.0624094
0.41352 0.377478 0.0622263
0.457145 0.382422 0.0614939
0.501198 0.387198 0.0587778
0.546105 0.390646 0.0527504
0.593057 0.393332 0.0430304
0.640467 0.397253 0.034165
0.687251 0.403601 0.0293584
0.732631 0.411688 0.026566
0.774517 0.420584 0.0254978
0.814878 0.430182 0.0249332
0.852064 0.440238 0.024506
0.886168 0.451118 0.0275883
0.916945 0.461845 0.0287938
0.942031 0.472313 0.0288243
0.959731 0.48394 0.0331731
0.973816 0.49604 0.0393072
0.98323 0.508736 0.0503395
0.990539 0.522103 0.0669108
0.0065919 0.309941 0.076112
0.00926223 0.315297 0.0750286
0.0117494 0.319097 0.0718547
0.0141299 0.319707 0.0663615
0.0168307 0.32105 0.0623026
0.0200351 0.323949 0.0587625
0.0247196 0.328679 0.0556954
0.0315099 0.334829 0.0513161
0.0517281 0.344274 0.049073
0.0898451 0.354314 0.0494698
0.141024 0.364523 0.0523537
0.203662 0.375174 0.0569924
0.265614 0.385122 0.0607767
0.318914 0.393835 0.0627298
0.367285 0.401617 0.0636912
0.412024 0.40705 0.0637217
0.454643 0.41178 0.0634928
0.497551 0.417212 0.0631266
0.543099 0.422141 0.0600748
0.591501 0.425696 0.0522469
0.639811 0.428779 0.0434119
0.687755 0.433127 0.0383307
0.734005 0.439597 0.035584
0.775738 0.448096 0.0330053
0.81622 0.458122 0.0303349
0.853407 0.468788 0.0277562
0.886854 0.479622 0.0268864
0.917617 0.490715 0.0244297
0.94255 0.501228 0.0236515
0.959716 0.512535 0.0285954
0.973831 0.523583 0.0352331
0.984222 0.535607 0.0487678
0.991501 0.54847 0.0679179
0.0068513 0.338018 0.0795148
0.00955215 0.344182 0.078172
0.0122072 0.349294 0.0757763
0.0147097 0.349966 0.0713512
0.017319 0.350713 0.0664378
0.0202792 0.352804 0.0616617
0.0244144 0.357198 0.0584268
0.0311437 0.363912 0.0566415
0.0450904 0.372839 0.0543374
0.0754559 0.382437 0.0517281
0.119783 0.392462 0.0512856
0.181994 0.403418 0.0538643
0.248402 0.413779 0.0577554
0.307683 0.422934 0.0605478
0.360708 0.431708 0.0622873
0.408988 0.439307 0.0627909
0.452644 0.4448 0.0628214
0.494484 0.449943 0.0640116
0.539788 0.455558 0.0645762
0.589273 0.460487 0.0611887
0.638834 0.464256 0.0546731
0.687709 0.467353 0.0492256
0.734813 0.471168 0.0451362
0.777081 0.477317 0.0401923
0.817288 0.486503 0.0356603
0.854582 0.497536 0.0309453
0.887678 0.50808 0.0267491
0.918608 0.519005 0.0227817
0.943725 0.529686 0.0235142
0.961013 0.540047 0.0295872
0.97499 0.550286 0.0371557
0.985672 0.561837 0.0525368
0.992523 0.574899 0.0721294
0.00717174 0.368078 0.0827802
0.0099031 0.374609 0.0813458
0.0126802 0.380957 0.0795148
0.015259 0.381598 0.0757458
0.0178836 0.382132 0.0703593
0.0206912 0.383581 0.0646525
0.0242161 0.387213 0.0597696
0.0306706 0.394232 0.0580911
0.0395666 0.402731 0.0571603
0.0605936 0.412116 0.054139
0.10164 0.422507 0.0525826
0.161837 0.433646 0.053254
0.228 0.444068 0.0557565
0.292332 0.453651 0.0582437
0.351263 0.462928 0.0604105
0.403754 0.472023 0.0624704
0.450278 0.479393 0.0641184
0.492576 0.484565 0.0660563
0.537301 0.489799 0.0687266
0.587274 0.495476 0.0693828
0.638254 0.500145 0.0656901
0.688014 0.503777 0.0603342
0.735348 0.506767 0.0550393
0.778439 0.510445 0.0484627
0.818357 0.516823 0.0419776
0.855375 0.526116 0.0353399
0.888441 0.536721 0.0305028
0.91928 0.546975 0.0263676
0.945022 0.556985 0.0278477
0.962707 0.566735 0.0361181
0.976913 0.576455 0.0448157
0.987381 0.587533 0.0603647
0.993454 0.601221 0.0780041
0.00762951 0.399496 0.0870069
0.0102998 0.406043 0.0847639
0.0130617 0.413046 0.0820478
0.0157015 0.413947 0.0780804
0.0184024 0.414389 0.0729534
0.0212406 0.415641 0.067277
0.0244755 0.418662 0.060502
0.0296483 0.424506 0.0559701
0.0371099 0.432197 0.0549783
0.0495003 0.44184 0.0545663
0.0839399 0.452827 0.0541238
0.139254 0.464057 0.0540475
0.205875 0.474388 0.0554055
0.275547 0.484199 0.0581674
0.33959 0.49395 0.0618448
0.396094 0.503609 0.0662547
0.446082 0.512474 0.0700084
0.491295 0.519326 0.0723583
0.536583 0.524422 0.0746624
0.585946 0.529519 0.0763409
0.63769 0.535073 0.0746929
0.688579 0.540078 0.0699779
0.736431 0.543908 0.063508
0.779751 0.547127 0.0560159
0.819806 0.551019 0.0487526
0.856321 0.556558 0.0410315
0.889616 0.565209 0.0365301
0.920165 0.574746 0.0344091
0.945953 0.583932 0.0366827
0.96376 0.593332 0.0458686
0.978164 0.60264 0.05626
0.988739 0.613611 0.0699321
0.994232 0.627283 0.0839857
0.00839246 0.432135 0.0932784
0.0110323 0.438819 0.0903944
0.0137331 0.445624 0.0868849
0.0163424 0.447211 0.082002
0.0189975 0.447135 0.0761425
0.0218662 0.448188 0.0701915
0.0251316 0.451087 0.0626993
0.0294194 0.455497 0.0550088
0.0362554 0.462394 0.0529183
0.0460822 0.471595 0.0530861
0.0663615 0.482322 0.0533455
0.109529 0.493538 0.0536355
0.180407 0.504326 0.0560159
0.258244 0.514504 0.0604715
0.32668 0.524498 0.0659037
0.386313 0.534554 0.0717174
0.439384 0.543694 0.0761425
0.488975 0.552254 0.078706
0.537362 0.558785 0.0798657
0.58616 0.563424 0.0802319
0.637079 0.56875 0.0794842
0.688869 0.574762 0.0761425
0.737667 0.579904 0.0693675
0.781201 0.58352 0.0616159
0.821546 0.586969 0.056199
0.858457 0.590494 0.0505379
0.891585 0.595514 0.0475929
0.921798 0.602914 0.0482338
0.946975 0.610803 0.0513619
0.965423 0.619562 0.0593271
0.979156 0.629496 0.0689708
0.989883 0.640757 0.0791333
0.994934 0.654078 0.0895094
0.00941482 0.464881 0.101091
0.0121767 0.471397 0.0994278
0.0149691 0.477806 0.0970932
0.0174563 0.48011 0.091249
0.0198367 0.479454 0.0827955
0.0225834 0.480034 0.0749523
0.0258335 0.482628 0.066392
0.0305028 0.487251 0.0589761
0.0368505 0.493324 0.0547799
0.0454871 0.501595 0.0529335
0.0580148 0.511803 0.0538033
0.0843977 0.522972 0.0550851
0.152209 0.534066 0.0588388
0.237812 0.544579 0.0646067
0.313726 0.555032 0.0708019
0.376272 0.564935 0.0759136
0.431891 0.574212 0.0793622
0.485298 0.583261 0.0813611
0.538262 0.592172 0.0821851
0.588525 0.59823 0.0815747
0.638041 0.602502 0.0803388
0.689342 0.608591 0.0785687
0.738033 0.614481 0.0741436
0.78233 0.618753 0.0688029
0.822797 0.622232 0.0656901
0.860426 0.62565 0.0636301
0.893736 0.629389 0.0634928
0.923506 0.633631 0.0646372
0.948348 0.638834 0.0672313
0.967712 0.646479 0.0729534
0.980804 0.657008 0.0789807
0.990723 0.668757 0.0871138
0.995636 0.681498 0.096025
0.0104067 0.496635 0.108797
0.0132906 0.502678 0.10808
0.0160983 0.508507 0.106096
0.0186007 0.51191 0.100649
0.0207828 0.510948 0.0908064
0.0233005 0.511101 0.0803693
0.0265507 0.513756 0.070161
0.031281 0.518456 0.0630655
0.0374151 0.524224 0.0583505
0.0457008 0.532219 0.0554513
0.0566567 0.542351 0.0575265
0.0727398 0.553552 0.0597391
0.131426 0.564248 0.0631418
0.218692 0.574899 0.0691997
0.300282 0.585946 0.0754559
0.366949 0.596353 0.0800793
0.424949 0.605524 0.0818952
0.481178 0.614664 0.0819715
0.538033 0.624674 0.0817884
0.591897 0.632883 0.0811322
0.641581 0.637522 0.0806592
0.6907 0.642374 0.0816052
0.738903 0.648951 0.0826429
0.783169 0.654154 0.0821393
0.823514 0.658366 0.0814069
0.861112 0.661601 0.0813001
0.895216 0.664454 0.0827344
0.924392 0.667643 0.084062
0.948867 0.671214 0.0851759
0.968994 0.676173 0.0866712
0.981949 0.685237 0.0894179
0.991363 0.696605 0.0956741
0.996338 0.708446 0.102464
0.0112612 0.526925 0.115358
0.0141604 0.532967 0.114687
0.016968 0.53875 0.112642
0.0195315 0.54313 0.107881
0.0217136 0.541939 0.0982681
0.0242466 0.542306 0.0885023
0.0271611 0.544579 0.0751812
0.0311589 0.548348 0.0656443
0.0372168 0.554604 0.0608377
0.0460059 0.563241 0.0592813
0.0568399 0.573465 0.062562
0.0733043 0.584558 0.0652476
0.124895 0.59527 0.0678264
0.20557 0.605844 0.0734875
0.287709 0.6168 0.0793927
0.358785 0.627527 0.0833906
0.42002 0.637201 0.0842145
0.47837 0.646235 0.0826429
0.537881 0.656077 0.0810407
0.595575 0.666194 0.0812238
0.646998 0.672419 0.0839857
0.694057 0.676005 0.0893263
0.740444 0.681727 0.0949722
0.784192 0.687541 0.09897
0.824231 0.692439 0.101335
0.861402 0.696315 0.100511
0.895537 0.699229 0.100481
0.924407 0.702556 0.100786
0.948379 0.705608 0.100206
0.968872 0.709194 0.098909
0.981674 0.714488 0.0989548
0.991455 0.7234 0.1037
0.996765 0.733455 0.109758
0.0118563 0.556771 0.119692
0.0147555 0.562554 0.118898
0.0176547 0.568292 0.117556
0.0203403 0.5738 0.113634
0.0225071 0.573007 0.103609
0.0250095 0.573373 0.0932479
0.0280308 0.575708 0.0807813
0.0324254 0.580072 0.0729076
0.0382544 0.586206 0.0675975
0.0465553 0.594385 0.0657969
0.0568093 0.604395 0.068101
0.0702373 0.615015 0.0706493
0.115068 0.625757 0.0729534
0.188708 0.636561 0.076463
0.275212 0.64712 0.0802014
0.352102 0.657053 0.0820935
0.415717 0.666575 0.0811322
0.476905 0.676005 0.079118
0.538003 0.685618 0.0790265
0.596567 0.695232 0.0829023
0.65182 0.703578 0.090425
0.699657 0.707866 0.0984054
0.74197 0.710292 0.105058
0.785336 0.715724 0.111162
0.825254 0.720897 0.115114
0.86215 0.725612 0.11487
0.895567 0.729015 0.111879
0.924605 0.732189 0.110597
0.948974 0.734264 0.108537
0.969436 0.737591 0.106554
0.981109 0.74287 0.107088
0.990631 0.748333 0.109987
0.996551 0.755459 0.116472
0.0123598 0.586313 0.123201
0.015259 0.591974 0.122393
0.0180972 0.597482 0.120119
0.0207828 0.603311 0.11574
0.0230564 0.603204 0.106279
0.0255589 0.603296 0.0948196
0.0289311 0.606424 0.0859388
0.0335241 0.611093 0.0803998
0.0393683 0.616632 0.0754864
0.0471809 0.62417 0.0729992
0.0572519 0.633692 0.0748302
0.0678874 0.644007 0.0771191
0.0998093 0.654429 0.0779126
0.166293 0.665064 0.0779736
0.259678 0.675319 0.0773785
0.345083 0.684367 0.0770886
0.412695 0.692912 0.0749523
0.47538 0.702144 0.0742351
0.537713 0.712077 0.0789044
0.597177 0.721325 0.0880293
0.654169 0.729641 0.0998398
0.704402 0.735485 0.109758
0.74548 0.738048 0.115694
0.786358 0.741909 0.121126
0.826139 0.747265 0.124819
0.862196 0.75198 0.125002
0.895247 0.755322 0.121324
0.923903 0.757809 0.117815
0.949462 0.760052 0.114672
0.96994 0.762936 0.112551
