webgpu/resources/luts/Hypnosis.cube
TITLE "Generated by Resolve"
LUT_3D_SIZE 5
0 0 0
0 0 0
0.17525 0.044419 0.0187686
0.781079 0.0573281 0
0.860548 0.0713207 0
0 0 0
0 0 0
0.211429 0.0533913 0.0153201
0.921752 0.10782 0
0.953933 0.125612 0
0.0009308 0.10071 0.0638285
0.00273136 0.0923629 0.0557107
0.442863 0.212146 0
0.975753 0.179339 0
0.997009 0.226429 0
0 0.832624 0.408652
0 0.831357 0.387381
0 0.834577 0.289906
0.954162 0.87628 0.435203
0.950484 0.915343 0.720699
0 0.881422 0.481239
0 0.884825 0.459968
0 0.883436 0.360861
0.941909 0.903563 0.513863
0.953445 0.936873 0.821118
0 0 0
0 0 0
0.166186 0.0388952 0.024567
0.72987 0.046067 0
0.792523 0.0513771 0
0 0 0
0 0 0
0.220157 0.0618448 0.0237125
0.861448 0.0796674 0
0.919539 0.093019 0
0 0.128969 0.0995651
0 0.120073 0.0868238
0.56109 0.267079 0
0.972763 0.173724 0
1 0.254505 0
0 0.836515 0.464652
0 0.83917 0.45124
0 0.837964 0.354421
0.953262 0.882017 0.477028
0.950347 0.922118 0.772335
0 0.886427 0.53698
0 0.889311 0.518288
0 0.885969 0.432944
0.941405 0.908385 0.543313
0.955093 0.941833 0.848493
0.00689708 0.0161898 0.027039
0 0 0
0.217746 0.0475013 0.0772717
0.759518 0.0439002 0.0676432
0.821683 0.051133 0.0598001
0.010605 0.0651865 0.102876
0.0118563 0.0358434 0.0610666
0.238743 0.0563821 0.0838483
0.784649 0.0525063 0.0337072
0.835355 0.0587472 0.0258335
0 0.200946 0.265888
0 0.202106 0.268971
0.190784 0.260761 0.262272
0.978836 0.370245 0.0935836
0.99646 0.371176 0.0912947
0 0.84445 0.594507
0 0.845838 0.583413
0 0.858366 0.505913
0.949615 0.903853 0.621317
0.954467 0.940154 0.860716
0 0.890684 0.65507
0 0.892302 0.642908
0 0.895705 0.57348
0.942153 0.92546 0.713512
0.960876 0.954177 0.897704
0.043061 0.0539406 0.192706
0.0754864 0.0511788 0.197742
0.198398 0.0636759 0.274815
0.926741 0.091722 0.477729
0.972992 0.156222 0.486595
0.0184024 0.101335 0.361013
0.0378729 0.0887922 0.315755
0.194583 0.0803082 0.317067
0.940063 0.11928 0.490135
0.983474 0.189807 0.491096
0 0.489906 0.776486
0 0.494972 0.787625
0 0.338506 0.776303
0.97995 0.251759 0.522499
0.997909 0.31223 0.50901
0 0.8804 0.932754
0 0.885527 0.934783
0.0342107 0.903761 0.949706
0.970596 0.976135 0.962554
0.979492 0.98027 0.967773
0 0.925261 0.950454
0.0105592 0.928847 0.953948
0.0664683 0.936568 0.956176
0.938247 0.96463 0.939147
0.985031 0.986831 0.974624
0.0592813 0.0590219 0.228122
0.0996872 0.0584726 0.246113
0.246159 0.0734569 0.356939
0.94583 0.130205 0.56022
0.982879 0.187823 0.565087
0.0241245 0.0930343 0.343725
0.0452888 0.098146 0.362799
0.244999 0.0938277 0.409247
0.952789 0.148821 0.563684
0.988647 0.221546 0.574136
0 0.533776 0.831174
0 0.526757 0.832532
0 0.323857 0.785107
0.977905 0.270481 0.579171
0.996399 0.327031 0.579812
0 0.880964 0.953109
0 0.884901 0.953979
0 0.892439 0.960632
0.969436 0.976516 0.965545
0.97908 0.980056 0.970977
0 0.91606 0.965805
0 0.916197 0.96582
0.0387121 0.923476 0.96878
0.820615 0.942611 0.940368
0.994186 0.997009 0.990845
