webgpu/resources/luts/Hypnosis.cube
TITLE "Generated by Resolve"
LUT_3D_SIZE 33
0 0 0
0 0 0
0 0 0
0 0 0
0 0 0
0 0 0
0 0 0
0 0 0
0 0 0
0 0 0
0 0 0
0.0180667 0.0109102 0.00852979
0.0428931 0.0211795 0.0152743
0.069337 0.0281987 0.0187228
0.0985733 0.0335699 0.0200809
0.137209 0.0400854 0.0208896
0.17525 0.044419 0.0187686
0.223713 0.0482338 0.0154421
0.286992 0.0505531 0.0103456
0.378256 0.0530556 0.00109865
0.453223 0.0524147 0
0.521889 0.0507515 0
0.586297 0.0479286 0
0.679759 0.0496834 0
0.781079 0.0573281 0
0.783963 0.0550393 0
0.79649 0.0569467 0
0.810925 0.059556 0
0.820233 0.0623484 0
0.82504 0.0622721 0
0.839002 0.065156 0
0.852583 0.0681468 0
0.860548 0.0713207 0
0 0 0
0 0 0
0 0 0
0 0 0
0 0 0
0 0 0
0 0 0
0 0 0
0 0 0
0 0 0
0 0 0
0.0160678 0.00996414 0.00784314
0.0408331 0.0205997 0.0149233
0.0708629 0.0291295 0.019089
0.100755 0.0351568 0.0205386
0.137209 0.0400854 0.0208896
0.176669 0.0452583 0.0188144
0.224903 0.0491035 0.0154269
0.293736 0.0522774 0.00962844
0.381415 0.0538033 0.000656138
0.46334 0.0541085 0
0.53875 0.0530404 0
0.596216 0.0498207 0
0.703777 0.0538033 0
0.802396 0.0625925 0
0.804929 0.0595865 0
0.814771 0.0623484 0
0.828626 0.0651865 0
0.834272 0.0654917 0
0.846754 0.0680858 0
0.860151 0.0712291 0
0.868162 0.0744793 0
0.880842 0.0778973 0
0 0 0
0 0 0
0 0 0
0 0 0
0 0 0
0 0 0
0 0 0
0 0 0
0 0 0
0 0 0
0 0 0
0.0137179 0.00880446 0.00697337
0.0386816 0.0199588 0.0145266
0.0686961 0.0287938 0.018967
0.100664 0.0351568 0.0205386
0.139361 0.0417029 0.0211948
0.179507 0.0462043 0.0187381
0.226505 0.0500954 0.0153658
0.300557 0.0540627 0.00886549
0.388525 0.0547799 0
0.474418 0.055787 0
0.549691 0.0549325 0
0.619654 0.0535134 0
0.724651 0.0576333 0
0.82034 0.0682994 0
0.82324 0.065156 0
0.836759 0.0680858 0
0.842451 0.0685283 0
0.855314 0.0715496 0
0.86743 0.0743877 0
0.875578 0.07776 0
0.887907 0.0812695 0
0.89984 0.0849622 0
0 0 0
0 0 0
0 0 0
0 0 0
0 0 0
0 0 0
0 0 0
0 0 0
0 0 0
0 0 0
0 0 0
0.0123751 0.00810254 0.00643931
0.0387579 0.0205081 0.014786
0.068864 0.0295262 0.0192569
0.102724 0.0367895 0.0209812
0.141299 0.0427405 0.0213169
0.180987 0.0471199 0.0187839
0.231815 0.0517739 0.0149691
0.304051 0.0550088 0.0084535
0.398581 0.0563363 0
0.4804 0.0565042 0
0.560922 0.0568246 0
0.642664 0.0575723 0
0.754726 0.0649424 0
0.850156 0.0764935 0
0.844755 0.0711223 0
0.856748 0.0742962 0
0.862852 0.0747997 0
0.875441 0.0780804 0
0.882689 0.0811322 0
0.894438 0.0847944 0
0.906157 0.0885786 0
0.917052 0.0925612 0
0 0 0
0 0 0
0 0 0
0 0 0
0 0 0
0 0 0
0 0 0
0 0 0
0 0 0
0 0 0
0 0 0
0.0173648 0.011017 0.00852979
0.0431983 0.0221714 0.0157473
0.0728771 0.0306706 0.0196841
0.104845 0.0369421 0.0209201
0.143435 0.0433356 0.0209354
0.18703 0.0487221 0.0184634
0.241367 0.0534981 0.0140383
0.316365 0.0566873 0.00613413
0.408865 0.0580453 0
0.496345 0.0590066 0
0.579721 0.0607462 0
0.663844 0.0610971 0
0.77763 0.0706493 0
0.86717 0.0835584 0
0.864073 0.0775464 0
0.87602 0.0809796 0
0.882429 0.0815595 0
0.89044 0.0850843 0
0.901274 0.0883955 0
0.912215 0.0923323 0
0.916899 0.0925612 0
0.923186 0.096437 0
0 0 0
0 0 0
0 0 0
0 0 0
0 0 0
0 0 0
0 0 0
0 0 0
0 0 0
0 0 0
0 0 0
0.0188144 0.0117647 0.00906386
0.0456397 0.0228428 0.0161288
0.075761 0.0311131 0.0198062
0.11014 0.0381628 0.0210422
0.150713 0.0445563 0.0199283
0.193042 0.049836 0.0180209
0.250278 0.0552377 0.0123751
0.328344 0.0584573 0.00456245
0.423636 0.0599527 0
0.513909 0.0617838 0
0.59382 0.0626383 0
0.680827 0.0640116 0
0.792996 0.0742962 0
0.88188 0.0885786 0
0.883406 0.0844282 0
0.894545 0.0881819 0
0.897169 0.0887922 0
0.907561 0.092134 0
0.917876 0.0961776 0
0.92726 0.100359 0
0.928191 0.100389 0
0.938018 0.104784 0
0 0 0
0 0 0
0 0 0
0 0 0
0 0 0
0 0 0
0 0 0
0 0 0
0 0 0
0 0 0
0 0 0
0.0188144 0.012192 0.009308
0.0473182 0.0242618 0.0168154
0.0792401 0.0328832 0.0204013
0.11397 0.0390784 0.0211185
0.15552 0.0451209 0.0196384
0.199145 0.05066 0.0170443
0.258167 0.0563363 0.01149
0.343603 0.0609598 0.00169375
0.442405 0.0623636 0
0.526741 0.0635843 0
0.611795 0.0648966 0
0.697261 0.0676127 0
0.813809 0.0804608 0
0.898192 0.095552 0
0.899779 0.0918135 0
0.904204 0.0933394 0
0.912123 0.0958877 0
0.921752 0.100038 0
0.928344 0.101396 0
0.933318 0.104463 0
0.941314 0.109346 0
0.944656 0.109667 0
0 0 0
0 0 0
0 0 0
0 0 0
0 0 0
0 0 0
0 0 0
0 0 0
0 0 0
0 0 0
0 0 0
0.01738 0.0119936 0.00907912
0.0456855 0.0245823 0.0168917
0.075349 0.0325628 0.0203403
0.115053 0.0403906 0.0214237
0.158968 0.0464332 0.0196078
0.205905 0.0514839 0.0157168
0.267292 0.0567483 0.00987259
0.359625 0.0617075 0
0.458534 0.0649729 0
0.545098 0.066804 0
0.634211 0.068864 0
0.718929 0.072221 0
0.83357 0.0870832 0
0.907744 0.100374 0
0.916411 0.0997635 0
0.919509 0.100618 0
0.926802 0.104112 0
0.929137 0.104692 0
0.937484 0.108843 0
0.943191 0.114321 0
0.946319 0.114656 0
0.94873 0.119982 0
0 0 0
0 0 0
0 0 0
0 0 0
0 0 0
0 0 0
0 0 0
0 0 0
0 0 0
0 0 0
0 0 0
0.0185702 0.0137789 0.0101167
0.045594 0.0259251 0.0174563
0.0770123 0.0348974 0.021149
0.115709 0.0419776 0.0218204
0.160693 0.0482948 0.0198215
0.211429 0.0533913 0.0153201
0.27602 0.0579385 0.00764477
0.372946 0.063508 0
0.481346 0.0679179 0
0.565179 0.0695506 0
0.655955 0.0737469 0
0.745037 0.0776226 0
0.851209 0.0931563 0
0.921752 0.10782 0
0.928832 0.108171 0
0.932586 0.108339 0
0.93695 0.110613 0
0.939651 0.113787 0
0.943709 0.115938 0
0.947707 0.119707 0
0.950195 0.12517 0
0.953933 0.125612 0
0 0 0
0 0 0
0 0 0
0 0 0
0 0 0
0 0 0
0 0 0
0 0 0
0 0 0
0 0 0
0.00492866 0.00477607 0.0037232
0.0210269 0.0171969 0.0120241
0.0459449 0.0289769 0.0186923
0.0794995 0.0382239 0.0221866
0.12015 0.0455482 0.0224613
0.166049 0.0505684 0.0197147
0.217502 0.0558022 0.0148318
0.284077 0.060441 0.00656138
0.384817 0.0635996 0
0.494942 0.0690318 0
0.592187 0.0738384 0
0.6804 0.0776684 0
0.765927 0.0836042 0
0.871321 0.10074 0
0.931716 0.11632 0
0.935012 0.113161 0
0.938781 0.115877 0
0.941375 0.118837 0
0.945296 0.12137 0
0.946487 0.124559 0
0.950484 0.126818 0
0.95407 0.130663 0
0.956329 0.136248 0
0 0 0
0 0 0
0 0 0
0 0 0
0 0 0
0 0 0
0 0 0
0 0 0
0 0 0
0 0 0
0.00949111 0.0101625 0.00747692
0.0286259 0.0247196 0.0164645
0.0512703 0.0352178 0.021149
0.0878614 0.0456092 0.024033
0.129198 0.0516213 0.0231174
0.180331 0.0576028 0.0192111
0.229145 0.0612955 0.0137331
0.296757 0.0645609 0.00468452
0.402197 0.067689 0
0.505486 0.0699168 0
0.604471 0.0751354 0
0.704646 0.0821698 0
0.794049 0.0912184 0
0.890455 0.108888 0
0.936538 0.123018 0
0.940032 0.121126 0
0.942657 0.123812 0
0.946456 0.126665 0
0.949828 0.129839 0
0.951614 0.132265 0
0.954955 0.135805 0
0.957366 0.141405 0
0.961089 0.141894 0
0 0 0
0 0 0
0 0 0
0 0 0
0 0 0
0 0 0
0 0 0
0 0 0
0 0 0
1.5259e-05 1.5259e-05 1.5259e-05
0.00988785 0.0167239 0.012253
0.0345617 0.0326848 0.0211032
0.0654154 0.0468299 0.0254826
0.0983597 0.0563668 0.025864
0.147356 0.0637369 0.0232395
0.198459 0.0664988 0.0177462
0.252796 0.0698863 0.0103304
0.323461 0.0725567 0.000228885
0.428031 0.0733349 0
0.533837 0.0758373 0
0.620218 0.0762341 0
0.725383 0.0858015 0
0.823865 0.100496 0
0.908278 0.119432 0
0.942473 0.13254 0
0.94406 0.128985 0
0.948302 0.134752 0
0.951049 0.135927 0
0.95378 0.140734 0
0.957824 0.144793 0
0.960693 0.147005 0
0.963088 0.152712 0
0.966751 0.153201 0
0.000976577 0.0015259 0.00137331
0.000976577 0.0015259 0.00137331
0.0009308 0.00144961 0.00128176
0.0009308 0.00141909 0.0012665
0.0009308 0.00141909 0.0012665
0.00108339 0.00177005 0.00155642
0.00192264 0.00369268 0.00309758
0.00192264 0.00369268 0.00309758
0.00308232 0.00646983 0.00537118
0.00492866 0.0107118 0.00877394
0.00978103 0.0211185 0.0161593
0.0241855 0.0429999 0.0267033
0.0765698 0.0602274 0.0301671
0.122301 0.0719615 0.0281682
0.165713 0.0795758 0.0234379
0.22565 0.0827039 0.0137942
0.283513 0.0834669 0.00476081
0.357885 0.0835584 0
0.471763 0.0841688 0
0.575326 0.0856794 0
0.656779 0.0847791 0
0.735302 0.0864118 0
0.839734 0.104128 0
0.920424 0.133761 0
0.948592 0.145022 0
0.954726 0.151781 0
0.963363 0.169406 0
0.967041 0.174411 0
0.969024 0.175372 0
0.971283 0.1785 0
0.975341 0.181521 0
0.977447 0.18706 0
0.979706 0.187381 0
0.00747692 0.0199435 0.0159609
0.00747692 0.0199435 0.0159609
0.00715648 0.0187686 0.0150301
0.00715648 0.0187533 0.0150149
0.00715648 0.0187533 0.0150149
0.00706493 0.0185855 0.014725
0.00729381 0.0196078 0.0153506
0.00729381 0.0196078 0.0153506
0.00732433 0.0196689 0.0154574
0.00846876 0.0235447 0.0183566
0.0118868 0.032578 0.0247349
0.018143 0.0468452 0.0319829
0.046067 0.0790875 0.0376593
0.139147 0.0912032 0.0316014
0.200198 0.0981918 0.0197452
0.256703 0.103746 0.00840772
0.322499 0.106294 0
0.40885 0.103059 0
0.526864 0.100832 0
0.62385 0.100679 0
0.709468 0.10074 0
0.779736 0.100435 0
0.841917 0.101106 0
0.929168 0.140093 0
0.955612 0.159289 0
0.970886 0.190219 0
0.977493 0.208103 0
0.979019 0.208316 0
0.982803 0.208865 0
0.983154 0.21474 0
0.986877 0.215274 0
0.98677 0.215167 0
0.990631 0.218097 0
0.0107576 0.0401465 0.030457
0.0106966 0.0388647 0.0297246
0.0105898 0.0387274 0.0292973
0.010544 0.0386511 0.0290227
0.0105135 0.0386206 0.0289616
0.0104219 0.0384833 0.0285191
0.0103761 0.0384222 0.028336
0.0103456 0.0383764 0.0281834
0.0102693 0.0387884 0.0280461
0.0105745 0.0414893 0.029984
0.0125277 0.0475624 0.0340734
0.0160372 0.0584268 0.0397192
0.0259251 0.0802472 0.0455787
0.0863966 0.121462 0.0451057
0.226688 0.124086 0.0176852
0.30338 0.129732 0
0.360586 0.134813 0
0.467124 0.135119 0
0.593164 0.129412 0
0.691814 0.12697 0
0.76669 0.124941 0
0.830198 0.122972 0
0.886839 0.122805 0
0.933883 0.130297 0
0.963134 0.17055 0
0.979049 0.213611 0
0.983154 0.221454 0
0.984863 0.225345 0
0.985336 0.225422 0
0.988586 0.22591 0
0.988815 0.22594 0
0.992325 0.226459 0
0.992416 0.229053 0
0.00968948 0.0658732 0.0460059
0.00968948 0.0658732 0.0460059
0.00987259 0.0639963 0.0446632
0.00987259 0.0639963 0.0446632
0.00987259 0.0639963 0.0446632
0.00981155 0.0627451 0.0430762
0.00976577 0.0621195 0.0422675
0.00952163 0.0628672 0.0420539
0.00967422 0.0608835 0.0407263
0.00926223 0.0634775 0.0417182
0.010605 0.0657511 0.0435492
0.012665 0.0761883 0.0487221
0.0170443 0.0940108 0.0540169
0.034287 0.125353 0.0525063
0.140948 0.172488 0.0414893
0.330343 0.160861 0
0.414221 0.166674 0
0.506218 0.172244 0
0.64477 0.17435 0
0.749249 0.169558 0
0.817716 0.165072 0
0.869841 0.165286 0
0.914519 0.162173 0
0.949554 0.155337 0
0.964324 0.15845 0
0.982528 0.21622 0
0.984222 0.213642 0
0.986053 0.216571 0
0.986053 0.216571 0
0.989975 0.220264 0
0.990066 0.22034 0
0.99205 0.223392 0
0.993896 0.223667 0
0.0009308 0.10071 0.0638285
0.00172427 0.0987259 0.0633707
0.00158694 0.0986496 0.0624857
0.00158694 0.0986496 0.0624857
0.00125124 0.098497 0.0607614
0.00263981 0.0945754 0.0592966
0.00231937 0.0944228 0.0576791
0.00209049 0.094316 0.0565347
0.00273136 0.0923629 0.0557107
0.00247196 0.0922408 0.05449
0.00393683 0.0939193 0.0551156
0.00462348 0.103471 0.0589609
0.00657664 0.116869 0.0630961
0.0122072 0.14403 0.0635691
0.0491188 0.189593 0.0455329
0.218769 0.233021 0.0227054
0.442863 0.212146 0
0.575616 0.218112 0
0.665095 0.230121 0
0.761975 0.243244 0
0.835431 0.232685 0
0.888304 0.221332 0
0.930983 0.214389 0
0.969451 0.209308 0
0.975753 0.179339 0
0.98616 0.214359 0
0.989334 0.219364 0
0.991196 0.219654 0
0.993072 0.220661 0
0.993164 0.222873 0
0.993408 0.222904 0
0.997009 0.226429 0
0.997009 0.226429 0
0 0.151263 0.0828717
0 0.148974 0.0827955
0 0.148974 0.0827955
0 0.148943 0.0814069
0 0.146944 0.0801251
0 0.144015 0.0774548
0 0.143999 0.076585
0 0.139132 0.074052
0 0.139071 0.0716716
0 0.136141 0.0700084
0 0.136065 0.0678569
0 0.14136 0.0675822
0 0.15349 0.069688
0 0.175433 0.0705119
0 0.219547 0.0621805
0.0742046 0.273518 0.0168612
0.316091 0.314229 0.000747692
0.579599 0.280278 0
0.697917 0.297093 0
0.768231 0.316014 0
0.843473 0.326909 0
0.901167 0.311772 0
0.946334 0.288899 0
0.982269 0.272969 0
0.99353 0.250751 0
0.999069 0.259693 0
1 0.265873 0
1 0.26598 0
1 0.267872 0
1 0.267872 0
1 0.271122 0
1 0.271656 0
1 0.271656 0
0 0.222705 0.102296
0 0.222705 0.102296
0 0.222705 0.102296
0 0.222797 0.0986496
0 0.21709 0.0992905
0 0.217716 0.0960708
0 0.217823 0.0922866
0 0.21181 0.0896315
0 0.211902 0.0859846
0 0.205921 0.0835279
0 0.203082 0.0808118
0 0.200168 0.0754559
0 0.209216 0.0741436
0 0.226841 0.0719921
0 0.260761 0.0677348
0 0.32256 0.0397345
0.148684 0.376913 0
0.407065 0.413886 0.00889601
0.699229 0.367819 0
0.793423 0.386694 0
0.847013 0.402823 0
0.90338 0.418982 0
0.950164 0.397757 0
0.986389 0.364828 0
1 0.327993 0
1 0.325795 0
1 0.335576 0
1 0.335576 0
1 0.335821 0
1 0.335821 0
1 0.335744 0
1 0.333471 0
1 0.333471 0
0 0.332326 0.119692
0 0.332326 0.119692
0 0.329931 0.120531
0 0.330098 0.118074
0 0.327306 0.115465
0 0.326711 0.110628
0 0.323888 0.108186
0 0.321462 0.103136
0 0.320134 0.0978714
0 0.315114 0.093843
0 0.314076 0.0873274
0 0.306172 0.0795605
0 0.300984 0.069337
0 0.308461 0.0637064
0 0.33611 0.0577859
0 0.380377 0.0503243
0 0.444617 0.0298772
0.265431 0.482307 0.0300755
0.520043 0.514443 0.0269932
0.795499 0.460426 0
0.869657 0.478126 0
0.91191 0.494072 0
0.955749 0.510094 0
0.990539 0.487831 0
1 0.440894 0
1 0.420676 0
1 0.427939 0
1 0.42707 0
1 0.425681 0
1 0.423438 0
1 0.420447 0
1 0.418082 0
1 0.418082 0
0 0.45565 0.160388
0 0.455894 0.16054
0 0.453285 0.153445
0 0.452964 0.153002
0 0.453376 0.153231
0 0.454246 0.145022
0 0.452338 0.141878
0 0.450599 0.137926
0 0.450111 0.130083
0 0.451225 0.119341
0 0.446128 0.109972
0 0.44715 0.0996719
0 0.440925 0.0869764
0 0.426963 0.0675975
0 0.437675 0.0541543
0 0.462272 0.0611734
0 0.506111 0.0754864
0.118776 0.563958 0.0479133
0.376089 0.59498 0.0682689
0.654459 0.631434 0.0571145
0.875196 0.566766 0
0.92845 0.579858 0
0.963439 0.592264 0
0.992355 0.607309 0
1 0.58291 0
1 0.559197 0
1 0.568215 0
1 0.566125 0
1 0.560952 0
1 0.555749 0
1 0.5505 0
1 0.545205 0
1 0.540215 0
0 0.560952 0.22388
0 0.561532 0.218601
0 0.561578 0.218265
0 0.561898 0.218463
0 0.562295 0.215579
0 0.560143 0.211963
0 0.559701 0.207858
0 0.560327 0.202182
0 0.561059 0.195727
0 0.562387 0.187579
0 0.563836 0.17641
0 0.559747 0.162905
0 0.559991 0.145769
0 0.557244 0.13286
0 0.550408 0.107698
0 0.55407 0.0868544
0 0.585611 0.0986038
0 0.64065 0.106004
0.281926 0.691127 0.0772106
0.523461 0.727672 0.120562
0.767208 0.745388 0.0958267
0.932692 0.669337 0.00280766
0.973495 0.677272 0.000503548
0.993042 0.684642 0.00233463
1 0.696696 0.016556
1 0.72108 0.0716106
1 0.725353 0.0793011
1 0.722087 0.0737621
1 0.718227 0.0720989
1 0.713787 0.0652781
1 0.708675 0.0598001
1 0.708492 0.05832
1 0.703532 0.0534981
0 0.665949 0.282887
0 0.666575 0.277348
0 0.667063 0.277302
0 0.663005 0.275227
0 0.663218 0.275319
0 0.663737 0.270787
0 0.66421 0.266712
0 0.663462 0.260441
0 0.664118 0.254765
0 0.664698 0.249775
0 0.666285 0.237797
0 0.667582 0.226383
0 0.664805 0.212238
0 0.664759 0.194827
0 0.665049 0.177264
0 0.657893 0.154772
0 0.667659 0.125002
0 0.714977 0.136751
0.170077 0.780652 0.121843
0.429831 0.809003 0.132494
0.677043 0.827756 0.202045
0.841169 0.821363 0.186892
0.961807 0.756085 0.0710765
0.9823 0.758495 0.076585
0.988754 0.767849 0.101732
0.981643 0.808988 0.226261
0.982269 0.812284 0.238071
0.98378 0.809644 0.230503
0.98381 0.809644 0.229801
0.983841 0.809644 0.228717
0.985611 0.809842 0.226169
0.987457 0.807233 0.222995
0.987961 0.805997 0.221286
0 0.761456 0.341939
0 0.761639 0.342016
0 0.761639 0.342016
0 0.762478 0.334646
0 0.763058 0.334051
0 0.763058 0.334051
0 0.764187 0.325795
0 0.764187 0.325795
0 0.765164 0.317433
0 0.766644 0.309056
0 0.76762 0.300496
0 0.766537 0.291951
0 0.765789 0.280324
0 0.765743 0.265705
0 0.767285 0.251667
0 0.767697 0.233936
0 0.765545 0.198611
0 0.772091 0.14995
0 0.83154 0.164736
0.296468 0.873976 0.151095
0.584039 0.870832 0.22771
0.775845 0.880537 0.326284
0.884413 0.867048 0.30277
0.96614 0.816159 0.178775
0.969589 0.833341 0.253681
0.963088 0.861723 0.395087
0.961868 0.864836 0.407843
0.962417 0.864912 0.408484
0.96379 0.865095 0.410056
0.96379 0.865095 0.410056
0.96379 0.865095 0.410056
0.964004 0.865125 0.406271
0.965194 0.862943 0.401801
0 0.832624 0.408652
0 0.833402 0.401801
0 0.833417 0.401587
0 0.833417 0.401587
0 0.833814 0.401709
0 0.834867 0.394675
0 0.834867 0.394675
0 0.832471 0.388968
0 0.831357 0.387381
0 0.831052 0.380209
0 0.831769 0.377081
0 0.832593 0.36994
0 0.833982 0.358083
0 0.835142 0.348043
0 0.833692 0.332738
0 0.833341 0.313741
0 0.834577 0.289906
0 0.831464 0.252628
0 0.835233 0.17496
0.0498817 0.89778 0.184207
0.387213 0.914107 0.19942
0.67628 0.897612 0.314931
0.837064 0.903746 0.419547
0.917845 0.880629 0.356756
0.954162 0.87628 0.435203
0.94934 0.910109 0.689265
0.949111 0.912428 0.706523
0.949126 0.912581 0.706874
0.949035 0.912581 0.710201
0.949035 0.912581 0.710201
0.950378 0.912886 0.714305
0.950362 0.912886 0.715129
0.950484 0.915343 0.720699
0 0.852232 0.45156
0 0.852399 0.450034
0 0.852399 0.450034
0 0.852995 0.450248
0 0.852995 0.450248
0 0.852567 0.443137
0 0.852567 0.443137
0 0.85301 0.439216
0 0.853941 0.436347
0 0.854505 0.431266
0 0.855116 0.426017
0 0.855528 0.422278
0 0.852262 0.412161
0 0.852003 0.403647
0 0.853788 0.389456
0 0.852033 0.370977
0 0.851789 0.347204
0 0.850813 0.308385
0 0.867857 0.3149
0.0407111 0.903548 0.308492
0.31107 0.924498 0.286931
0.626627 0.907195 0.362768
0.816236 0.908843 0.488502
0.907958 0.913405 0.545556
0.951675 0.879744 0.408484
0.949615 0.931777 0.818036
0.951537 0.934585 0.830762
0.951553 0.93463 0.83267
0.951553 0.93463 0.832975
0.951614 0.934859 0.8336
0.951782 0.93518 0.834241
0.952926 0.935576 0.837324
0.953506 0.937362 0.84062
0 0.855955 0.457328
0 0.855955 0.457328
0 0.856504 0.457527
0 0.857313 0.450523
0 0.857313 0.450523
0 0.857313 0.450523
0 0.858091 0.443473
0 0.858564 0.44361
0 0.85948 0.436637
0 0.859907 0.432853
0 0.855787 0.429343
0 0.85658 0.422324
0 0.857389 0.415244
0 0.858 0.403906
0 0.857664 0.390982
0 0.856275 0.372457
0 0.854246 0.341238
0 0.857954 0.299809
0 0.874876 0.326787
0.0594644 0.911223 0.312932
0.334127 0.927657 0.301656
0.643748 0.907698 0.37586
0.819059 0.908843 0.494301
0.908309 0.915694 0.557839
0.947616 0.886397 0.448859
0.949752 0.93228 0.819013
0.951553 0.93463 0.83267
0.9523 0.936965 0.838926
0.9523 0.936965 0.838926
0.9523 0.936965 0.838926
0.952377 0.937011 0.839445
0.953506 0.937362 0.84062
0.953506 0.937407 0.842512
0 0.861494 0.457725
0 0.861585 0.457755
0 0.862074 0.457938
0 0.862074 0.457938
0 0.862638 0.452873
0 0.862852 0.450889
0 0.862943 0.450919
0 0.86424 0.443976
0 0.86424 0.443976
