webgpu/resources/luts/Hypnosis.cube
TITLE "Generated by Resolve"
LUT_3D_SIZE 9
0 0 0
0 0 0
0 0 0
0.0428931 0.0211795 0.0152743
0.17525 0.044419 0.0187686
0.453223 0.0524147 0
0.781079 0.0573281 0
0.820233 0.0623484 0
0.860548 0.0713207 0
0 0 0
0 0 0
0 0 0
0.0431983 0.0221714 0.0157473
0.18703 0.0487221 0.0184634
0.496345 0.0590066 0
0.86717 0.0835584 0
0.89044 0.0850843 0
0.923186 0.096437 0
0 0 0
0 0 0
0 0 0
0.045594 0.0259251 0.0174563
0.211429 0.0533913 0.0153201
0.565179 0.0695506 0
0.921752 0.10782 0
0.939651 0.113787 0
0.953933 0.125612 0
0.000976577 0.0015259 0.00137331
0.0009308 0.00141909 0.0012665
0.00308232 0.00646983 0.00537118
0.0765698 0.0602274 0.0301671
0.283513 0.0834669 0.00476081
0.656779 0.0847791 0
0.948592 0.145022 0
0.969024 0.175372 0
0.979706 0.187381 0
0.0009308 0.10071 0.0638285
0.00125124 0.098497 0.0607614
0.00273136 0.0923629 0.0557107
0.00657664 0.116869 0.0630961
0.442863 0.212146 0
0.835431 0.232685 0
0.975753 0.179339 0
0.993072 0.220661 0
0.997009 0.226429 0
0 0.45565 0.160388
0 0.453376 0.153231
0 0.450111 0.130083
0 0.440925 0.0869764
0 0.506111 0.0754864
0.875196 0.566766 0
1 0.58291 0
1 0.560952 0
1 0.540215 0
0 0.832624 0.408652
0 0.833814 0.401709
0 0.831357 0.387381
0 0.833982 0.358083
0 0.834577 0.289906
0.387213 0.914107 0.19942
0.954162 0.87628 0.435203
0.949035 0.912581 0.710201
0.950484 0.915343 0.720699
0 0.866178 0.465278
0 0.867536 0.458351
0 0.864927 0.444022
0 0.867247 0.422919
0 0.864668 0.34902
0.321767 0.931441 0.318517
0.946395 0.893126 0.471565
0.951537 0.934508 0.827436
0.953475 0.937224 0.835599
0 0.881422 0.481239
0 0.883482 0.467994
0 0.884825 0.459968
0 0.884611 0.433692
0 0.883436 0.360861
0.300664 0.93959 0.355825
0.941909 0.903563 0.513863
0.952255 0.93666 0.826947
0.953445 0.936873 0.821118
0 0 0
0 0 0
0 0 0
0.0431525 0.0204471 0.0153506
0.16936 0.0419623 0.0208896
0.426612 0.0472877 0.000762951
0.745693 0.0501106 0
0.789578 0.0542611 0
0.823819 0.0592966 0
0 0 0
0 0 0
0 0 0
0.0407874 0.0215763 0.0161288
0.182879 0.0471962 0.019852
0.473396 0.054551 0
0.826841 0.0684062 0
0.857053 0.0717327 0
0.900221 0.0847639 0
0 0 0
0 0 0
0 0 0
0.0515755 0.028397 0.0191653
0.220447 0.0550851 0.0156558
0.554589 0.0673686 0
0.905837 0.0984054 0
0.922484 0.0998398 0
0.946899 0.114702 0
0.0024567 0.00479133 0.00422675
0.00231937 0.00451667 0.00393683
0.00334173 0.00706493 0.00593576
0.0940261 0.0699931 0.0331579
0.292058 0.083299 0.00550851
0.668345 0.0863966 0
0.942763 0.133822 0
0.966323 0.167559 0
0.975341 0.179934 0
0 0.110979 0.0742809
0 0.107149 0.0705119
0.00111391 0.098436 0.06009
0.00610361 0.116075 0.0650645
0.463371 0.218921 0
0.840223 0.230198 0
0.97612 0.180957 0
0.99379 0.23209 0
0.997574 0.234897 0
0 0.464149 0.191867
0 0.462303 0.18436
0 0.458839 0.164889
0 0.451606 0.104707
0 0.504967 0.0843214
0.880812 0.569879 0
1 0.579293 0
1 0.553338 0
1 0.535134 0
0 0.834607 0.435798
0 0.835981 0.429068
0 0.833097 0.416007
0 0.835904 0.391241
0 0.836194 0.311879
0.369741 0.912825 0.201709
0.954818 0.877836 0.450874
0.948821 0.916564 0.738476
0.950195 0.917815 0.745922
0 0.868574 0.493446
0 0.869795 0.48658
0 0.867216 0.472908
0 0.86949 0.451637
0 0.866407 0.382055
0.30721 0.931029 0.347036
0.945983 0.894728 0.48246
0.953124 0.9393 0.845762
0.95433 0.939742 0.848997
0 0.884443 0.503075
0 0.88574 0.496254
0 0.887144 0.488411
0 0.8851 0.461906
0 0.884962 0.394827
0.289036 0.939391 0.379751
0.94168 0.90602 0.526406
0.953704 0.940826 0.843854
0.954223 0.939345 0.835401
0 0 0
0 0 0
0 0 0
0.0493477 0.0216068 0.0191348
0.166186 0.0388952 0.024567
0.397131 0.0415198 0.0101472
0.72987 0.046067 0
0.773236 0.0491646 0
0.792523 0.0513771 0
0 0 0
0 0 0
0 0 0
0.0471656 0.0222171 0.019028
0.171527 0.0419928 0.0242008
0.4215 0.0457771 0.00631724
0.769162 0.0544289 0
0.793851 0.0544747 0
0.849332 0.0657816 0
0 0 0
0 0 0
0 0 0
0.0480354 0.0324865 0.0261234
0.220157 0.0618448 0.0237125
0.535729 0.0651102 0
0.861448 0.0796674 0
0.873655 0.0784009 0
0.919539 0.093019 0
0.00724804 0.0176089 0.0168612
0.00695811 0.0166781 0.0157931
0.00717174 0.0174411 0.0162509
0.103349 0.082002 0.0452888
0.327657 0.091371 0.00712596
0.677195 0.0886854 0
0.93669 0.123003 0
0.957687 0.151629 0
0.969894 0.164157 0
0 0.128969 0.0995651
0 0.124269 0.0934462
0 0.120073 0.0868238
0.00213626 0.126482 0.0767681
0.56109 0.267079 0
0.851225 0.222248 0
0.972763 0.173724 0
0.994659 0.253742 0
1 0.254505 0
0 0.472358 0.241154
0 0.471901 0.236988
0 0.471794 0.218814
0 0.467094 0.156893
0 0.497749 0.0934157
0.893614 0.587945 0
1 0.574228 0
1 0.54902 0.00294499
1 0.530343 0
0 0.836515 0.464652
0 0.837293 0.463203
0 0.83917 0.45124
0 0.837812 0.43035
0 0.837964 0.354421
0.341253 0.916426 0.205615
0.953262 0.882017 0.477028
0.948775 0.919646 0.762371
0.950347 0.922118 0.772335
0 0.867079 0.522362
0 0.868208 0.516564
0 0.869642 0.507301
0 0.871 0.487785
0 0.868055 0.421256
0.297429 0.931075 0.382239
0.945602 0.895674 0.493874
0.954101 0.941848 0.858747
0.95584 0.943694 0.864271
0 0.886427 0.53698
0 0.887526 0.531151
0 0.889311 0.518288
0 0.886702 0.497581
0 0.885969 0.432944
0.28098 0.938689 0.419959
0.941405 0.908385 0.543313
0.953658 0.942992 0.85565
0.955093 0.941833 0.848493
0 0 0
0 0 0
0 0 0
0.0690166 0.0285039 0.0344091
0.184619 0.0401007 0.0417487
0.412619 0.0420539 0.0196994
0.734508 0.0458228 0.00277714
0.776028 0.049012 0.00410468
0.795636 0.0512093 0.000534066
0 0 0
0 0 0
0 0 0
0.0679026 0.0295109 0.0349432
0.185916 0.0414893 0.0407263
0.418555 0.0429389 0.0166323
0.752865 0.049424 0
0.786404 0.0517891 0.000946059
0.811444 0.0543679 0
0.000564584 0.000640879 0.000671397
0 0 0
0 0 0
0.0663767 0.0361791 0.0392615
0.189929 0.0465705 0.0380255
0.442939 0.0465248 0.0122225
0.783246 0.0561227 0
0.815915 0.0593729 0
0.842802 0.0627146 0
0.0119173 0.0421912 0.049897
0.0117189 0.0397498 0.047425
0.0110933 0.0343938 0.0404212
0.0436866 0.0703441 0.0741131
0.283696 0.114076 0.0623178
0.732525 0.135958 0
0.947982 0.157397 0
0.945098 0.126513 0
0.959274 0.142687 0
0 0.161028 0.153826
0 0.158938 0.150195
0 0.150072 0.138293
0 0.154437 0.135775
0.44744 0.266056 0.0396429
0.863432 0.245914 0
0.980713 0.217334 0
0.99498 0.291493 0
1 0.294606 0
0 0.479713 0.307927
0 0.48159 0.308263
0 0.484703 0.298283
0 0.493263 0.275746
0 0.515175 0.185946
0.926558 0.651286 0.0158083
1 0.566079 0
1 0.543542 0.0117342
1 0.524834 0.00715648
0 0.839582 0.511467
0 0.840284 0.510094
0 0.841657 0.499962
0 0.843946 0.480125
0 0.840787 0.415656
0.282795 0.916686 0.210666
0.952621 0.887266 0.516106
0.949416 0.925887 0.800305
0.951186 0.928664 0.810956
0 0.868376 0.568322
0 0.872084 0.56228
0 0.870497 0.555428
0 0.872862 0.535134
0 0.872602 0.478248
0.25388 0.92961 0.415808
0.944289 0.903471 0.553155
0.95697 0.948287 0.88275
0.958526 0.949599 0.886793
0 0.887892 0.585122
0 0.888914 0.578683
0 0.89044 0.56524
0 0.887098 0.546471
0 0.887922 0.491493
0.238987 0.936706 0.455985
0.942275 0.913802 0.597025
0.956039 0.948409 0.877455
0.957122 0.946746 0.870054
0.00689708 0.0161898 0.027039
0 0 0
0 0 0
0.0376135 0.0212863 0.0323491
0.217746 0.0475013 0.0772717
0.462348 0.042298 0.0710765
0.759518 0.0439002 0.0676432
0.801984 0.0475013 0.072221
0.821683 0.051133 0.0598001
0.011017 0.036408 0.0637369
0.00561532 0.0123598 0.0204013
0 0 0
0.0288243 0.0182345 0.0272526
0.21706 0.0484627 0.0768902
0.464698 0.0429847 0.0686809
0.77557 0.0490272 0.052842
0.817823 0.0526741 0.0597848
0.829313 0.0552987 0.0410163
0.010605 0.0651865 0.102876
0.0107576 0.0634775 0.10222
0.0118563 0.0358434 0.0610666
0.0278782 0.0229191 0.0326543
0.238743 0.0563821 0.0838483
0.487633 0.0448005 0.0667887
0.784649 0.0525063 0.0337072
0.822614 0.0557565 0.0431067
0.835355 0.0587472 0.0258335
0.00167849 0.100847 0.149432
0.00230411 0.0990311 0.147616
0.0027924 0.0997635 0.151797
0.0209506 0.0876936 0.143938
0.297139 0.0955062 0.10486
0.627237 0.0812238 0.0491951
0.84239 0.0701305 0.00224308
0.844495 0.0652934 0.00993362
0.867552 0.0703593 0.00323491
0 0.200946 0.265888
0 0.201846 0.267247
0 0.202106 0.268971
0 0.19826 0.262623
0.190784 0.260761 0.262272
0.745342 0.314214 0.111788
0.978836 0.370245 0.0935836
0.989822 0.361044 0.09337
0.99646 0.371176 0.0912947
0 0.496422 0.411902
0 0.499657 0.412284
0 0.505669 0.412512
0 0.510323 0.402625
0 0.525429 0.390585
0.870939 0.630182 0.135668
1 0.561456 0.0391089
1 0.540398 0.0902724
1 0.526802 0.0775464
0 0.84445 0.594507
0 0.845075 0.588952
0 0.845838 0.583413
0 0.847395 0.568795
0 0.858366 0.505913
0.15053 0.913314 0.369848
0.949615 0.903853 0.621317
0.952514 0.937636 0.85211
0.954467 0.940154 0.860716
0 0.874189 0.643305
0 0.874861 0.639612
0 0.875563 0.633433
0 0.876738 0.620539
0 0.881346 0.55761
0.180438 0.920821 0.506661
0.943236 0.914961 0.675975
0.962936 0.958877 0.914214
0.96405 0.959411 0.916396
0 0.890684 0.65507
0 0.891432 0.649851
0 0.892302 0.642908
0 0.891081 0.629725
0 0.895705 0.57348
0.168917 0.927031 0.531365
0.942153 0.92546 0.713512
0.96022 0.955825 0.903929
0.960876 0.954177 0.897704
0.0144198 0.0459907 0.115541
0.0130312 0.0277867 0.0675517
0.0099794 0.0117494 0.0259861
0.0407721 0.0267491 0.0601511
0.197086 0.0534218 0.136904
0.56228 0.0533455 0.186938
0.879057 0.0668498 0.221805
0.91783 0.0771038 0.232258
0.932342 0.0815595 0.227497
0.0122988 0.0691997 0.173983
0.0156863 0.0496529 0.125048
0.0131228 0.0201877 0.0467536
0.0349737 0.0254368 0.0565042
0.191272 0.0564279 0.139315
0.575525 0.0550546 0.191028
0.894926 0.0742809 0.21796
0.928695 0.0834363 0.234455
0.9346 0.0858473 0.221805
0 0.167773 0.376623
0 0.140078 0.33901
0.0151217 0.0808576 0.203067
0.0360266 0.0388495 0.0881056
0.189807 0.0656138 0.152514
0.603418 0.0584878 0.202853
0.911192 0.0821088 0.220706
0.932906 0.0910048 0.229618
0.939315 0.0917678 0.219348
0 0.21651 0.397345
0 0.219471 0.405066
0 0.232654 0.440726
0 0.17847 0.406378
0.200168 0.104662 0.224613
0.715755 0.0959335 0.232013
0.922103 0.0912947 0.21915
0.945052 0.121111 0.225132
0.948898 0.121614 0.212909
0 0.29369 0.463416
0 0.297856 0.471366
0 0.307027 0.488838
0 0.332326 0.530495
0 0.316564 0.564462
0.775235 0.23975 0.28191
0.960281 0.235828 0.210803
0.969696 0.230442 0.205447
0.973861 0.229496 0.187213
0 0.502525 0.593851
0 0.508309 0.600443
0 0.516426 0.607248
0 0.540948 0.627771
0 0.564157 0.646281
0.547295 0.638819 0.582589
0.991409 0.65069 0.386252
0.997086 0.641794 0.376242
1 0.631601 0.357412
0 0.860441 0.742626
0 0.862135 0.743267
0 0.863127 0.743023
0 0.866819 0.7355
0 0.875257 0.712886
0.226276 0.897963 0.701305
0.947417 0.91899 0.757549
0.955123 0.944183 0.876997
0.957351 0.947021 0.885161
0 0.891051 0.776623
0 0.891478 0.77229
0 0.891707 0.771847
0 0.892164 0.765438
0 0.894636 0.7402
0.180865 0.905852 0.709056
0.942687 0.929046 0.780514
0.966217 0.96379 0.927443
0.967575 0.964797 0.929335
0 0.904936 0.784726
0 0.905241 0.783062
0 0.905409 0.779904
0 0.905837 0.773556
0 0.907988 0.746288
0.178973 0.912627 0.720348
0.943618 0.938399 0.805646
0.963241 0.960601 0.91693
0.962875 0.957595 0.908782
0.043061 0.0539406 0.192706
0.0547341 0.0518654 0.189899
0.0754864 0.0511788 0.197742
0.114458 0.0542458 0.223285
0.198398 0.0636759 0.274815
0.546181 0.071107 0.39736
0.926741 0.091722 0.477729
0.960006 0.144839 0.483726
0.972992 0.156222 0.486595
0.0347295 0.0637675 0.227665
0.0452583 0.0608072 0.217807
0.0646067 0.0581521 0.214954
0.107744 0.0598306 0.235889
0.196887 0.0679332 0.284932
0.55375 0.078294 0.406744
0.933471 0.102785 0.480491
0.965606 0.156573 0.485786
0.977569 0.169329 0.488563
0.0184024 0.101335 0.361013
0.029984 0.0864118 0.310323
0.0378729 0.0887922 0.315755
0.0853285 0.0815137 0.295583
0.194583 0.0803082 0.317067
0.562371 0.092958 0.424826
0.940063 0.11928 0.490135
0.972259 0.179751 0.490471
0.983474 0.189807 0.491096
0 0.372534 0.77496
0 0.356558 0.772274
0 0.220005 0.649744
0.000762951 0.180499 0.569039
0.191928 0.123201 0.435523
0.575982 0.127611 0.461891
0.948135 0.136385 0.498238
0.982727 0.223423 0.499001
0.991791 0.235019 0.500404
0 0.489906 0.776486
0 0.49041 0.779614
0 0.494972 0.787625
0 0.499519 0.80415
0 0.338506 0.776303
0.571008 0.23003 0.541024
0.97995 0.251759 0.522499
0.990936 0.303471 0.511498
0.997909 0.31223 0.50901
0 0.598093 0.811154
0 0.600641 0.812802
0 0.604593 0.816754
0 0.610758 0.82298
0 0.638514 0.84773
0.278279 0.59617 0.841947
0.985718 0.508904 0.57026
0.99411 0.493675 0.558709
1 0.499809 0.560967
0 0.8804 0.932754
0 0.880705 0.933974
0 0.885527 0.934783
0 0.885832 0.937819
0.0342107 0.903761 0.949706
0.152209 0.922164 0.957015
0.970596 0.976135 0.962554
0.977661 0.979339 0.966812
0.979492 0.98027 0.967773
0 0.91046 0.946242
0 0.913481 0.946487
0 0.914519 0.946578
0.000228885 0.914611 0.949264
0.0467079 0.92549 0.953384
0.144564 0.936461 0.957153
0.949676 0.970047 0.949859
0.984817 0.98764 0.976684
0.987106 0.988983 0.978698
0 0.925261 0.950454
0.00477607 0.928862 0.953124
0.0105592 0.928847 0.953948
0.0163577 0.928832 0.953887
0.0664683 0.936568 0.956176
0.156741 0.942824 0.958251
0.938247 0.96463 0.939147
0.982635 0.985519 0.972869
0.985031 0.986831 0.974624
0.0579232 0.0566415 0.215732
0.0738537 0.0556497 0.220356
0.100267 0.0565805 0.238941
0.151446 0.0601205 0.277638
0.245914 0.0735485 0.352865
0.578653 0.0858167 0.472663
0.944839 0.124819 0.546548
0.970443 0.174868 0.555993
0.978622 0.181659 0.557626
0.0485237 0.0648508 0.242985
0.0618753 0.063508 0.242908
0.0882887 0.0653086 0.261128
0.144717 0.0682689 0.299031
0.246937 0.0809796 0.370245
0.580316 0.0945296 0.481682
0.946639 0.131746 0.547845
0.972107 0.186343 0.557229
0.98349 0.194324 0.559258
0.0282597 0.0901808 0.332525
0.0396887 0.085069 0.314931
0.0475013 0.0986038 0.362219
0.119509 0.0939803 0.36495
0.245579 0.0946365 0.405158
0.591134 0.10956 0.500771
0.951949 0.143297 0.550118
0.977249 0.204852 0.559152
0.988525 0.215793 0.56112
0 0.28484 0.735012
0 0.232776 0.675578
0 0.163714 0.547036
0.00972 0.175738 0.579477
0.236942 0.132662 0.499596
0.604685 0.142535 0.529458
0.956481 0.157641 0.558877
0.98204 0.239826 0.561654
0.992615 0.250965 0.562234
0 0.528344 0.826658
0 0.526223 0.827375
0 0.523461 0.828122
0 0.508202 0.825101
0.00411994 0.318074 0.777646
0.61033 0.235859 0.580362
0.978225 0.264622 0.568948
0.989868 0.313741 0.566567
0.996521 0.327138 0.566995
0 0.638987 0.854795
0 0.640253 0.855314
0 0.642298 0.855833
0 0.642878 0.857984
0 0.652995 0.868727
0.280064 0.561868 0.836011
0.983322 0.490745 0.595895
0.992798 0.504356 0.598947
0.999039 0.515404 0.604807
0 0.880751 0.9458
0 0.884535 0.94966
0 0.88481 0.950362
0 0.886152 0.950683
0.000656138 0.895491 0.955932
0.0961471 0.914748 0.965408
0.971557 0.977386 0.966049
0.978424 0.980423 0.97052
0.978698 0.979675 0.969558
0 0.903899 0.95462
0 0.904051 0.955184
0 0.904753 0.958389
0 0.908354 0.958648
0.0243076 0.912993 0.962219
0.118364 0.926223 0.968933
0.899031 0.952651 0.942168
0.989181 0.992386 0.984771
0.991592 0.99382 0.986938
0 0.916014 0.962371
0 0.919402 0.962463
0.0021973 0.919905 0.962463
0.00788891 0.919936 0.962432
0.0403601 0.925216 0.965789
0.137499 0.935256 0.970672
0.864363 0.947021 0.937041
0.987198 0.991211 0.982666
0.992401 0.994934 0.987854
0.0592813 0.0590219 0.228122
0.0733043 0.0575113 0.22768
0.0996872 0.0584726 0.246113
0.151614 0.0600748 0.280766
0.246159 0.0734569 0.356939
0.574182 0.0872206 0.484916
0.94583 0.130205 0.56022
0.970993 0.180484 0.569345
0.982879 0.187823 0.565087
0.0459297 0.0665293 0.250767
0.0607004 0.0654917 0.252079
0.0852827 0.0649729 0.261646
0.143359 0.0682078 0.301808
0.247242 0.0808576 0.376059
0.576913 0.0978408 0.495232
0.948043 0.13727 0.561532
0.975357 0.192386 0.570871
0.98378 0.199237 0.572412
0.0241245 0.0930343 0.343725
0.0377966 0.0849775 0.31696
0.0452888 0.098146 0.362799
0.115724 0.0934005 0.366659
0.244999 0.0938277 0.409247
0.581353 0.113146 0.508141
0.952789 0.148821 0.563684
0.977447 0.209812 0.572213
0.988647 0.221546 0.574136
0 0.291417 0.750576
0 0.237888 0.689067
0 0.166735 0.560067
0.00489815 0.18526 0.604761
0.235004 0.132631 0.504311
0.596185 0.145754 0.543038
0.959594 0.1635 0.570275
0.983764 0.245899 0.573877
0.992447 0.253101 0.574975
0 0.533776 0.831174
0 0.531411 0.831632
0 0.526757 0.832532
0 0.513573 0.829419
0 0.323857 0.785107
0.59794 0.233005 0.586816
0.977905 0.270481 0.579171
0.987549 0.319478 0.578836
0.996399 0.327031 0.579812
0 0.645594 0.861143
0 0.645594 0.861143
0 0.648386 0.864317
0 0.64892 0.864851
0 0.658259 0.874449
0.261067 0.552331 0.836759
0.980346 0.486336 0.603723
0.989593 0.502571 0.610712
0.998917 0.515282 0.617761
0 0.880964 0.953109
0 0.881239 0.953368
0 0.884901 0.953979
0 0.88513 0.954177
0 0.892439 0.960632
0.0919661 0.911284 0.96936
0.969436 0.976516 0.965545
0.976608 0.978775 0.969451
0.97908 0.980056 0.970977
0 0.900404 0.96144
0 0.904173 0.961807
0 0.904311 0.961883
0 0.904936 0.96199
0.0220951 0.912581 0.966079
0.117754 0.925429 0.972229
0.882292 0.948608 0.940826
0.988846 0.992432 0.985397
0.993011 0.995514 0.989273
0 0.91606 0.965805
0 0.916136 0.96582
0 0.916197 0.96582
0.00474556 0.916243 0.965805
0.0387121 0.923476 0.96878
0.132708 0.932265 0.972274
0.820615 0.942611 0.940368
0.986068 0.991836 0.983658
0.994186 0.997009 0.990845
