webgpu/resources/luts/justyndigitalphotography.cube
#Created by: Adobe Photoshop Export Color Lookup Plugin
#Copyright: (C) 2017 Andrey Lapardin. vk.com-3dluts
TITLE "Andrey Lapardin. vk.com-3dluts"
#LUT size
LUT_3D_SIZE 8
#data domain
#LUT data points
DOMAIN_MIN 0.000000 0.000000 0.000000
DOMAIN_MAX 0.903226 0.903226 0.903226
0.042664 0.047668 0.050446
0.105560 0.051270 0.054352
0.235138 0.052643 0.060638
0.411407 0.053772 0.064484
0.602997 0.054901 0.065582
0.741882 0.054077 0.067688
0.830017 0.049103 0.073700
0.891663 0.049103 0.088409
0.041199 0.116882 0.061127
0.104675 0.120880 0.054596
0.234711 0.127411 0.060455
0.410217 0.117950 0.064056
0.597839 0.102325 0.065735
0.734985 0.106049 0.068726
0.829498 0.125000 0.073303
0.891541 0.170441 0.086029
0.041840 0.228180 0.077240
0.094940 0.219330 0.062744
0.227203 0.226563 0.053406
0.415070 0.233582 0.058075
0.595032 0.238312 0.060150
0.729126 0.238373 0.065247
0.828217 0.245483 0.076721
0.886261 0.265686 0.095154
0.041290 0.377045 0.095673
0.100800 0.364624 0.082214
0.146454 0.363953 0.086243
0.410614 0.381317 0.055054
0.598846 0.381195 0.055420
0.722687 0.379242 0.061584
0.829346 0.378235 0.070618
0.886444 0.389069 0.094757
0.040344 0.541290 0.138153
0.106659 0.537018 0.117554
0.147552 0.516388 0.128906
0.312683 0.525360 0.097656
0.572296 0.530792 0.058014
0.719330 0.513397 0.058441
0.823303 0.514801 0.063660
0.889954 0.523346 0.102600
0.040283 0.665588 0.202606
0.107971 0.665466 0.189331
0.153992 0.653717 0.180817
0.257660 0.643860 0.181793
0.496002 0.654480 0.132813
0.692261 0.653809 0.062256
0.819275 0.645477 0.061218
0.892212 0.653290 0.061157
0.190247 0.775482 0.292694
0.263245 0.776123 0.284546
0.324036 0.776123 0.272308
0.369080 0.759705 0.271545
0.496185 0.762390 0.253357
0.653229 0.768311 0.198273
0.793640 0.766724 0.100098
0.893494 0.767944 0.062103
0.287781 0.878204 0.374420
0.359802 0.879456 0.370483
0.427063 0.879913 0.363068
0.465820 0.871735 0.361511
0.546967 0.867279 0.361572
0.667419 0.872528 0.333527
0.774689 0.872223 0.296204
0.890015 0.874146 0.210785
0.045288 0.051178 0.122101
0.102448 0.052612 0.123901
0.230499 0.048523 0.126678
0.401672 0.050446 0.123749
0.579041 0.053040 0.130310
0.719269 0.053436 0.123474
0.824188 0.050934 0.121368
0.887421 0.071136 0.133301
0.042969 0.111969 0.121490
0.118134 0.129089 0.136230
0.239441 0.137543 0.141968
0.413269 0.135651 0.140442
0.597534 0.136627 0.133392
0.730774 0.152466 0.124359
0.829224 0.173767 0.121399
0.884735 0.206512 0.139465
0.044861 0.222717 0.151337
0.112488 0.232483 0.160309
0.241364 0.246002 0.144592
0.426880 0.256927 0.142365
0.606140 0.258484 0.136017
0.736938 0.258179 0.129761
0.832336 0.274231 0.127258
0.882629 0.305145 0.142792
0.043854 0.371521 0.188354
0.104828 0.375854 0.184784
0.175079 0.378540 0.177612
0.443573 0.399536 0.131714
0.610535 0.402740 0.136749
0.732910 0.399445 0.148682
0.838257 0.395691 0.139832
0.885681 0.409027 0.151306
0.041016 0.535461 0.232269
0.107391 0.539276 0.215912
0.159088 0.538116 0.203522
0.367188 0.543518 0.185242
0.599854 0.544342 0.123688
0.730011 0.532043 0.142365
0.830536 0.534332 0.166473
0.888885 0.538025 0.185089
0.081268 0.658539 0.283264
0.166351 0.667938 0.274597
0.241394 0.667175 0.256927
0.348511 0.658600 0.260406
0.532745 0.666595 0.219147
0.713715 0.666443 0.145203
0.828735 0.659485 0.144073
0.892090 0.659302 0.187866
0.213867 0.768646 0.351410
0.299255 0.784729 0.353516
0.371460 0.784210 0.336792
0.424774 0.774475 0.336426
0.523346 0.769257 0.330353
0.673645 0.774902 0.286438
0.810730 0.772705 0.198944
0.894592 0.770203 0.153015
0.291962 0.869446 0.418091
0.379059 0.880615 0.426544
0.449982 0.881317 0.416016
0.508148 0.876465 0.409882
0.559631 0.863068 0.425232
0.668976 0.865417 0.402649
0.789185 0.869293 0.360229
0.894928 0.874756 0.289642
0.042389 0.057800 0.232300
0.096405 0.058258 0.239258
0.215912 0.047180 0.247284
0.399323 0.046631 0.261414
0.591949 0.047760 0.256317
0.727234 0.048737 0.233643
0.825256 0.046936 0.232300
0.887756 0.086823 0.208099
0.043915 0.130096 0.218475
0.124237 0.144592 0.239471
0.242126 0.140411 0.248047
0.406677 0.142090 0.257538
0.588593 0.115540 0.250214
0.721680 0.151825 0.249329
0.826447 0.184937 0.238464
0.880371 0.217712 0.223175
0.048065 0.217133 0.219025
0.119263 0.237122 0.235107
0.250763 0.260834 0.250854
0.435547 0.257202 0.245880
0.611237 0.263519 0.242493
0.737823 0.282379 0.243927
0.827332 0.312012 0.251404
0.873901 0.348267 0.272980
0.051117 0.367188 0.246002
0.110687 0.378571 0.255615
0.237396 0.405182 0.268372
0.447968 0.421143 0.241730
0.615936 0.416412 0.242401
0.737549 0.416016 0.250854
0.835693 0.422974 0.258667
0.884705 0.440277 0.277344
0.052460 0.524048 0.280273
0.151550 0.531830 0.298859
0.261353 0.549133 0.301758
0.394531 0.553345 0.292908
0.612335 0.561768 0.239685
0.736633 0.551910 0.248932
0.823608 0.556061 0.286469
0.887878 0.562805 0.311279
0.160950 0.650574 0.346802
0.247040 0.653687 0.357819
0.333099 0.669586 0.352631
0.410645 0.667358 0.355713
0.564209 0.676788 0.324738
0.726410 0.672272 0.269775
0.819855 0.671051 0.297058
0.891785 0.679291 0.330658
0.246704 0.762970 0.416656
0.316193 0.763336 0.420258
0.402191 0.775635 0.418793
0.465485 0.774567 0.411469
0.556946 0.774384 0.411316
0.692749 0.779419 0.372681
0.816254 0.777405 0.330475
0.897461 0.779968 0.323730
0.308380 0.866302 0.482941
0.374146 0.854401 0.476990
0.464722 0.855194 0.486328
0.530548 0.855103 0.471924
0.593597 0.867523 0.488739
0.684998 0.868896 0.469635
0.797058 0.871765 0.441498
0.901093 0.876099 0.384552
0.041260 0.078369 0.365112
0.093933 0.071899 0.380615
0.200287 0.065216 0.402069
0.402649 0.043457 0.418549
0.587006 0.043701 0.434967
0.731293 0.043701 0.424805
0.826569 0.044067 0.382477
0.887085 0.050964 0.356750
0.041718 0.158844 0.348297
0.146210 0.159943 0.378235
0.255737 0.163025 0.396332
0.418457 0.141113 0.411377
0.579681 0.151672 0.425995
0.717407 0.180054 0.423462
0.825409 0.176514 0.391693
0.878906 0.227234 0.380341
0.048218 0.247559 0.336823
0.148956 0.266876 0.356781
0.278137 0.285400 0.388367
0.448639 0.269775 0.396881
0.605438 0.287689 0.397736
0.726776 0.299530 0.388672
0.816406 0.346832 0.402405
0.874939 0.377411 0.408295
0.052856 0.359741 0.333221
0.108551 0.385071 0.356934
0.267639 0.414368 0.383148
0.443329 0.425598 0.388092
0.604950 0.422150 0.381836
0.724457 0.432587 0.387054
0.814880 0.463562 0.413391
0.886047 0.484344 0.425659
0.055939 0.529572 0.370880
0.143188 0.540985 0.386780
0.331085 0.548889 0.405548
0.440735 0.559692 0.419281
0.600677 0.567505 0.397491
0.720245 0.563660 0.405792
0.808777 0.577881 0.435333
0.894958 0.583130 0.436249
0.166473 0.648712 0.416107
0.284576 0.655243 0.433899
0.384583 0.659973 0.445923
0.469421 0.671082 0.459686
0.570068 0.676239 0.456238
0.719879 0.681183 0.416077
0.814240 0.684509 0.428925
0.891296 0.696991 0.461639
0.267059 0.756653 0.474609
0.348969 0.760193 0.491028
0.420990 0.754425 0.489410
0.512390 0.762726 0.501495
0.577789 0.770325 0.513092
0.699738 0.778961 0.490173
0.821991 0.780426 0.446594
0.897614 0.787964 0.465424
0.330658 0.859589 0.538391
0.397858 0.851471 0.545837
0.463165 0.848846 0.538757
0.558502 0.856995 0.552704
0.617920 0.865540 0.561737
0.698273 0.873230 0.561676
0.807373 0.875366 0.526459
0.904297 0.877869 0.495697
0.038818 0.110596 0.521332
0.117157 0.098175 0.531403
0.198547 0.100250 0.563385
0.378387 0.057953 0.573669
0.561066 0.044281 0.584778
0.726654 0.042053 0.614014
0.829437 0.097382 0.586884
0.888123 0.154083 0.557434
0.038116 0.187988 0.514587
0.188751 0.183929 0.536072
0.279846 0.192444 0.556702
0.395874 0.199890 0.567444
0.558075 0.173035 0.579559
0.708496 0.186798 0.598907
0.816895 0.253693 0.591919
0.879333 0.282196 0.567749
0.046021 0.287903 0.492523
0.195190 0.301422 0.517212
0.311920 0.319336 0.548523
0.441254 0.317352 0.551727
0.588898 0.315948 0.562531
0.697693 0.363068 0.571655
0.793884 0.404602 0.576935
0.872925 0.409882 0.566681
0.053925 0.390625 0.481476
0.199646 0.411346 0.503845
0.332764 0.439606 0.528931
0.464264 0.456482 0.544006
0.600647 0.452454 0.552307
0.709991 0.467987 0.549561
0.804230 0.481232 0.546539
0.885651 0.500031 0.544647
0.058563 0.513824 0.477386
0.175720 0.530670 0.498962
0.335938 0.553101 0.529236
0.464661 0.565735 0.542511
0.587433 0.570953 0.539764
0.707336 0.572571 0.541138
0.807465 0.582184 0.547302
0.894714 0.598938 0.562561
0.123474 0.652008 0.512451
0.259094 0.660065 0.526672
0.377441 0.668915 0.544250
0.495575 0.673615 0.563690
0.583679 0.679688 0.569305
0.709290 0.688019 0.556732
0.808014 0.693359 0.564240
0.889221 0.706055 0.588165
0.241150 0.759277 0.554108
0.333466 0.759888 0.559052
0.424469 0.764343 0.577515
0.529083 0.762054 0.582397
0.606598 0.777191 0.603394
0.691315 0.784607 0.602325
0.815033 0.790558 0.571777
0.899353 0.794250 0.582977
0.305878 0.859039 0.600647
0.391907 0.857269 0.605469
0.480591 0.855438 0.616913
0.555817 0.852509 0.610474
0.648041 0.862976 0.629700
0.708679 0.871277 0.649994
0.810822 0.877594 0.633759
0.909363 0.879486 0.599792
0.038208 0.155701 0.654388
0.165527 0.141815 0.658356
0.268188 0.145691 0.686218
0.384308 0.137268 0.697968
0.535492 0.105896 0.699615
0.690674 0.060181 0.708557
0.830109 0.096832 0.750793
0.889496 0.185944 0.719116
0.098389 0.224915 0.654846
0.246338 0.222931 0.666931
0.338501 0.229492 0.682739
0.407562 0.259064 0.693970
0.534851 0.253265 0.696442
0.684235 0.232788 0.705475
0.819672 0.252655 0.737885
0.880157 0.309326 0.710999
0.152374 0.338776 0.644135
0.265381 0.347046 0.653870
0.359589 0.360443 0.677887
0.452728 0.365784 0.679749
0.560059 0.377625 0.681244
0.684448 0.378906 0.691528
0.789063 0.399323 0.707123
0.864319 0.440857 0.700592
0.179779 0.431580 0.622498
0.285217 0.450195 0.634216
0.381622 0.476440 0.664307
0.480957 0.493988 0.674927
0.587860 0.490143 0.673370
0.699677 0.492432 0.676910
0.779999 0.528564 0.684326
0.877563 0.541962 0.682098
0.187805 0.531616 0.617065
0.293457 0.546936 0.631165
0.387604 0.571350 0.656219
0.490479 0.584747 0.661072
0.597778 0.595459 0.668915
0.705658 0.594543 0.674561
0.799347 0.604889 0.681274
0.893585 0.607574 0.672089
0.182922 0.636261 0.614319
0.284332 0.646698 0.623383
0.387543 0.666870 0.652344
0.494507 0.675507 0.663666
0.596741 0.687653 0.673828
0.701019 0.691956 0.670532
0.803864 0.698029 0.677795
0.894287 0.708496 0.684662
0.207733 0.761383 0.649628
0.306854 0.764221 0.653503
0.405090 0.770966 0.669434
0.518219 0.773193 0.675598
0.619781 0.784393 0.693878
0.700043 0.791077 0.699707
0.807526 0.797607 0.693390
0.894958 0.804596 0.700745
0.266785 0.862427 0.680389
0.353699 0.863007 0.684113
0.448029 0.864868 0.692688
0.550079 0.866119 0.701691
0.651672 0.862488 0.700836
0.731262 0.878632 0.719818
0.805695 0.885895 0.730652
0.908600 0.886108 0.709473
0.158417 0.225372 0.769775
0.275757 0.214661 0.771881
0.375610 0.211121 0.783813
0.431976 0.227173 0.800934
0.546814 0.204285 0.801056
0.676331 0.182434 0.798370
0.800690 0.160980 0.803741
0.887878 0.183380 0.840363
0.211853 0.281342 0.771332
0.315063 0.284546 0.780792
0.410614 0.284149 0.785919
0.455872 0.315460 0.797485
0.548279 0.321259 0.797455
0.670837 0.308960 0.794769
0.792633 0.293915 0.799469
0.879089 0.311737 0.825867
0.243622 0.399780 0.767151
0.326233 0.399170 0.768127
0.418091 0.405548 0.774261
0.489349 0.412323 0.783081
0.564148 0.427917 0.787628
0.668762 0.427856 0.788910
0.782288 0.419250 0.792694
0.866638 0.437836 0.799927
0.259186 0.484253 0.755219
0.337708 0.496552 0.757813
0.422028 0.516388 0.769287
0.509949 0.533539 0.772888
0.594208 0.525726 0.771118
0.688416 0.531708 0.772583
0.782593 0.533112 0.778290
0.860962 0.551056 0.790070
0.268402 0.569550 0.740845
0.345459 0.580658 0.745239
0.425476 0.599915 0.757874
0.515869 0.616058 0.766144
0.608215 0.628571 0.774261
0.704285 0.622803 0.775391
0.796539 0.624054 0.777405
0.873962 0.651428 0.782990
0.264771 0.658325 0.737061
0.342987 0.665558 0.740601
0.427521 0.682190 0.757599
0.517822 0.696472 0.765656
0.612518 0.705048 0.771118
0.713074 0.713226 0.780670
0.803101 0.714478 0.783875
0.890503 0.724152 0.790070
0.249084 0.750519 0.739563
0.332703 0.753632 0.739807
0.425995 0.763947 0.753571
0.522156 0.774048 0.765900
0.618195 0.785065 0.777618
0.711700 0.795135 0.785278
0.804871 0.801086 0.785797
0.896851 0.812134 0.798126
0.227417 0.863617 0.766144
0.318756 0.865753 0.769623
0.421112 0.868958 0.776093
0.526062 0.872955 0.784088
0.636902 0.874359 0.789185
0.738525 0.881897 0.797119
0.817932 0.895447 0.808563
0.903595 0.898132 0.809418
0.283691 0.307373 0.867493
0.363403 0.302338 0.868195
0.449219 0.295471 0.870514
0.505402 0.306824 0.886597
0.576752 0.307922 0.887787
0.681549 0.281189 0.884857
0.797455 0.242584 0.881592
0.866608 0.225342 0.883087
0.295013 0.352112 0.868225
0.377106 0.354004 0.868683
0.462463 0.348267 0.867737
0.522583 0.361237 0.876801
0.577850 0.375641 0.890930
0.680115 0.362946 0.886261
0.793640 0.344513 0.881256
0.866150 0.333557 0.878876
0.302795 0.446136 0.865417
0.376343 0.448578 0.859192
0.469177 0.458527 0.841095
0.538757 0.456329 0.858368
0.590240 0.465210 0.878143
0.673462 0.465515 0.878448
0.783051 0.454681 0.873260
0.866913 0.444122 0.872589
0.301208 0.537537 0.863617
0.374329 0.544128 0.853851
0.463226 0.556274 0.842163
0.544891 0.563721 0.855896
0.616150 0.554504 0.862671
0.688049 0.559937 0.864044
0.778381 0.559692 0.862610
0.869598 0.552002 0.866821
0.310669 0.613464 0.851593
0.381683 0.619751 0.845184
0.458038 0.634338 0.835815
0.538818 0.651093 0.851044
0.626556 0.659851 0.861572
0.707733 0.648468 0.857819
0.791473 0.652405 0.857574
0.878113 0.654572 0.862122
0.306091 0.688690 0.842712
0.379028 0.693085 0.837799
0.458221 0.703766 0.839050
0.539886 0.721008 0.852661
0.631439 0.732849 0.858978
0.723297 0.742340 0.864563
0.806305 0.738220 0.866089
0.888885 0.741333 0.866669
0.291718 0.774048 0.844086
0.370850 0.773560 0.839813
0.454865 0.779541 0.843353
0.542603 0.791412 0.853302
0.635437 0.803375 0.860870
0.727600 0.812958 0.871124
0.819641 0.821777 0.879395
0.897461 0.824371 0.880981
0.269562 0.858124 0.847107
0.350281 0.859955 0.848907
0.438995 0.863708 0.851074
0.533997 0.869385 0.855835
0.632599 0.877228 0.867310
0.729797 0.886414 0.878632
0.822662 0.895996 0.884094
0.909149 0.906464 0.890289
