webgpu/resources/luts/justyndigitalphotography.cube
#Created by: Adobe Photoshop Export Color Lookup Plugin
#Copyright: (C) 2017 Andrey Lapardin. vk.com-3dluts
TITLE "Andrey Lapardin. vk.com-3dluts"
#LUT size
LUT_3D_SIZE 32
#data domain
DOMAIN_MIN 0.0 0.0 0.0
DOMAIN_MAX 1.0 1.0 1.0
#LUT data points
0.042664 0.047668 0.050446
0.054565 0.049683 0.052277
0.067627 0.050568 0.053009
0.082703 0.050964 0.053375
0.105560 0.051270 0.054352
0.131531 0.051819 0.055573
0.163696 0.052612 0.057343
0.199066 0.052887 0.059143
0.235138 0.052643 0.060638
0.274261 0.052765 0.061859
0.317078 0.052704 0.062927
0.362915 0.053314 0.063812
0.411407 0.053772 0.064484
0.461578 0.054138 0.065002
0.511780 0.054474 0.065247
0.559479 0.054718 0.065369
0.602997 0.054901 0.065582
0.642151 0.054993 0.065887
0.677795 0.054932 0.066315
0.710846 0.054657 0.066895
0.741882 0.054077 0.067688
0.771790 0.053192 0.068634
0.797058 0.052002 0.069916
0.814453 0.050629 0.071564
0.830017 0.049103 0.073700
0.845612 0.047455 0.076385
0.861206 0.045746 0.079712
0.876740 0.043945 0.083466
0.891663 0.049103 0.088409
0.906372 0.060883 0.094055
0.921051 0.073578 0.100464
0.935364 0.105347 0.107819
0.044525 0.058777 0.051849
0.054596 0.059052 0.051971
0.067688 0.061157 0.052765
0.085785 0.062561 0.053436
0.109375 0.063660 0.054688
0.137421 0.064697 0.056030
0.169098 0.065918 0.057678
0.202271 0.066956 0.059235
0.237244 0.067322 0.060608
0.275208 0.066437 0.061737
0.317261 0.064423 0.062866
0.362366 0.064697 0.063782
0.410400 0.064819 0.064453
0.460632 0.065277 0.064911
0.510925 0.065674 0.065094
0.558716 0.066010 0.065155
0.602203 0.066315 0.065247
0.641357 0.066498 0.065460
0.677002 0.066559 0.065887
0.709869 0.066437 0.066406
0.740723 0.066010 0.067108
0.770416 0.065308 0.068024
0.796112 0.064301 0.069214
0.814484 0.063049 0.070831
0.830048 0.061615 0.072815
0.845673 0.060028 0.075470
0.861237 0.059143 0.078827
0.876740 0.064362 0.082611
0.891724 0.071991 0.087463
0.906403 0.081604 0.093109
0.921082 0.105469 0.099487
0.935394 0.133179 0.106934
0.045288 0.071747 0.051849
0.056671 0.072052 0.052063
0.067657 0.072266 0.052368
0.087769 0.076508 0.053375
0.113434 0.079102 0.054413
0.140564 0.081329 0.056458
0.170593 0.083344 0.057953
0.202637 0.084900 0.059265
0.237152 0.085815 0.060425
0.274963 0.085510 0.061523
0.316650 0.083679 0.062592
0.361694 0.079956 0.063599
0.409454 0.075592 0.064423
0.459229 0.075409 0.064941
0.509247 0.075897 0.065186
0.556885 0.076385 0.065308
0.600433 0.076813 0.065460
0.639801 0.077209 0.065674
0.675751 0.077515 0.066132
0.708649 0.077698 0.066620
0.739197 0.077698 0.067139
0.768738 0.077454 0.067841
0.795410 0.076935 0.068939
0.814514 0.076141 0.070343
0.830078 0.075073 0.072266
0.845673 0.080597 0.074799
0.861267 0.086853 0.078217
0.876740 0.091980 0.082001
0.891785 0.099396 0.086823
0.906433 0.118011 0.092468
0.921082 0.140106 0.098816
0.935394 0.162476 0.106323
0.042053 0.093506 0.056519
0.054382 0.094727 0.056946
0.066620 0.095428 0.057129
0.084229 0.096619 0.054352
0.111603 0.099915 0.054474
0.140503 0.102814 0.055206
0.168884 0.104340 0.057739
0.200531 0.105591 0.059448
0.235992 0.106049 0.060364
0.274353 0.105499 0.061401
0.316467 0.103516 0.062408
0.361633 0.099854 0.063446
0.409485 0.094666 0.064331
0.458923 0.090302 0.064941
0.508423 0.088013 0.065277
0.555664 0.087494 0.065491
0.598938 0.087738 0.065765
0.638000 0.087982 0.066162
0.673706 0.088257 0.066620
0.706604 0.088440 0.067261
0.737335 0.088318 0.067902
0.766937 0.088226 0.068542
0.794586 0.089325 0.069366
0.814423 0.095154 0.070587
0.829926 0.102356 0.072235
0.845490 0.109863 0.074524
0.861084 0.114075 0.077667
0.876587 0.120117 0.081482
0.891846 0.136475 0.085968
0.906433 0.154846 0.091797
0.921082 0.172882 0.098389
0.935394 0.192230 0.106140
0.041199 0.116882 0.061127
0.054077 0.117828 0.060486
0.066895 0.118317 0.059357
0.081848 0.118408 0.056671
0.104675 0.120880 0.054596
0.139069 0.124603 0.053741
0.171692 0.126373 0.055237
0.202148 0.126770 0.057953
0.234711 0.127411 0.060455
0.273071 0.127563 0.061584
0.316193 0.125916 0.062408
0.362030 0.122742 0.063293
0.410217 0.117950 0.064056
0.459564 0.112274 0.064606
0.508698 0.106262 0.064972
0.555237 0.102631 0.065277
0.597839 0.102325 0.065735
0.636536 0.103149 0.066345
0.671814 0.104065 0.067078
0.704407 0.105225 0.067902
0.734985 0.106049 0.068726
0.764679 0.106995 0.069580
0.793060 0.108917 0.070587
0.814056 0.115082 0.071747
0.829498 0.125000 0.073303
0.844971 0.133392 0.075409
0.860535 0.143188 0.078339
0.876038 0.155182 0.081970
0.891541 0.170441 0.086029
0.906525 0.185669 0.091278
0.921143 0.201019 0.097900
0.935425 0.218658 0.105835
0.041199 0.141083 0.065521
0.055023 0.141479 0.063293
0.068115 0.140961 0.061249
0.081665 0.140411 0.058380
0.101959 0.143341 0.056519
0.128632 0.144318 0.054901
0.170258 0.147827 0.053711
0.204773 0.148987 0.055573
0.237701 0.149689 0.058258
0.274506 0.150330 0.060455
0.314880 0.150330 0.062653
0.361633 0.148590 0.063141
0.410248 0.145325 0.063690
0.460114 0.140564 0.063965
0.509247 0.135468 0.064178
0.555420 0.130768 0.064484
0.597229 0.128357 0.065002
0.635071 0.127472 0.065796
0.670044 0.127350 0.066833
0.702423 0.128204 0.068024
0.732910 0.130341 0.069244
0.762604 0.133789 0.070557
0.791138 0.139038 0.071838
0.813629 0.146332 0.073364
0.828857 0.156006 0.075134
0.844208 0.165833 0.077393
0.859589 0.175659 0.080444
0.875031 0.187347 0.084381
0.890442 0.200592 0.088837
0.905975 0.214874 0.093781
0.921234 0.229584 0.100037
0.935669 0.247070 0.108124
0.041656 0.167480 0.069580
0.055939 0.167206 0.066193
0.069580 0.165283 0.062744
0.081757 0.164276 0.060089
0.097687 0.166595 0.058502
0.123505 0.168762 0.056976
0.157257 0.168304 0.055145
0.206696 0.172211 0.053070
0.241730 0.173431 0.055389
0.278351 0.174622 0.057953
0.318207 0.175415 0.060577
0.362152 0.175110 0.062683
0.410309 0.173706 0.063568
0.460724 0.171143 0.063324
0.509888 0.168304 0.063080
0.555634 0.165436 0.063141
0.597198 0.162842 0.063568
0.634552 0.161163 0.064423
0.669037 0.160187 0.065674
0.701233 0.160187 0.067200
0.731415 0.161407 0.068848
0.760834 0.164429 0.070679
0.789032 0.169067 0.072510
0.813232 0.175476 0.074554
0.828308 0.183197 0.076843
0.843384 0.191833 0.079437
0.858521 0.201477 0.082550
0.873718 0.211639 0.086456
0.888947 0.222534 0.091187
0.904297 0.234741 0.096375
0.919708 0.248291 0.102509
0.934784 0.265778 0.109863
0.041840 0.197235 0.073822
0.056458 0.196075 0.069672
0.070557 0.192993 0.064423
0.082947 0.191254 0.061768
0.093994 0.192108 0.060608
0.114197 0.194092 0.059265
0.148773 0.196747 0.056946
0.191071 0.195770 0.054413
0.245697 0.200195 0.051971
0.283173 0.200867 0.055176
0.323151 0.201996 0.057800
0.365417 0.202820 0.060669
0.411682 0.203003 0.062500
0.460754 0.202606 0.063110
0.509827 0.202179 0.062622
0.555481 0.201721 0.061829
0.596802 0.200989 0.061798
0.634186 0.200165 0.062561
0.668427 0.199707 0.063782
0.700256 0.199890 0.065460
0.730377 0.200867 0.067413
0.759399 0.202728 0.069580
0.787292 0.205383 0.071991
0.811890 0.209167 0.074585
0.828094 0.213989 0.077423
0.842804 0.219666 0.080658
0.857635 0.226532 0.084351
0.872498 0.234406 0.088654
0.887390 0.243347 0.093628
0.902466 0.253448 0.098907
0.917603 0.264709 0.105194
0.932648 0.280212 0.112335
0.041840 0.228180 0.077240
0.056732 0.226166 0.071198
0.071289 0.222809 0.065765
0.083954 0.220428 0.062988
0.094940 0.219330 0.062744
0.105865 0.221100 0.061462
0.132690 0.223999 0.059509
0.177612 0.227844 0.056824
0.227203 0.226563 0.053406
0.287201 0.231384 0.053040
0.328339 0.231873 0.053619
0.370697 0.232635 0.055511
0.415070 0.233582 0.058075
0.460388 0.234863 0.060913
0.507782 0.236359 0.061371
0.553375 0.237610 0.060577
0.595032 0.238312 0.060150
0.632660 0.238525 0.060455
0.667175 0.238495 0.061523
0.699158 0.238342 0.063171
0.729126 0.238373 0.065247
0.758026 0.238953 0.067627
0.785645 0.240234 0.070282
0.810638 0.242340 0.073364
0.828217 0.245483 0.076721
0.842651 0.249573 0.080566
0.857147 0.254364 0.084869
0.871674 0.260071 0.089905
0.886261 0.265686 0.095154
0.901001 0.273590 0.101135
0.915802 0.282898 0.107819
0.930664 0.296326 0.115021
0.041748 0.261841 0.082153
0.056885 0.259247 0.074371
0.072021 0.255890 0.068024
0.085022 0.252075 0.066864
0.095947 0.249268 0.068512
0.106659 0.250671 0.066620
0.118835 0.253448 0.064117
0.156952 0.257507 0.060852
0.212372 0.262177 0.056427
0.268860 0.260834 0.054535
0.330170 0.265503 0.053406
0.375885 0.266022 0.054535
0.420319 0.266815 0.055359
0.465424 0.268311 0.056091
0.509399 0.270081 0.056915
0.551117 0.272064 0.059174
0.592529 0.273529 0.058990
0.630402 0.274261 0.058380
0.665070 0.274261 0.059174
0.697052 0.273743 0.060852
0.727112 0.273224 0.062866
0.756012 0.272980 0.065338
0.783630 0.273193 0.068115
0.810120 0.274323 0.071411
0.828766 0.276581 0.075073
0.842926 0.279663 0.079315
0.857117 0.283600 0.084076
0.871338 0.288177 0.089630
0.885651 0.292603 0.095612
0.900085 0.298920 0.102173
0.914703 0.306824 0.109436
0.929352 0.318390 0.117340
0.041626 0.298126 0.087036
0.057007 0.295624 0.079346
0.072693 0.292267 0.072662
0.086273 0.288513 0.071228
0.097290 0.284882 0.074219
0.107635 0.283020 0.075714
0.119171 0.285400 0.073364
0.136353 0.289459 0.069519
0.187256 0.294525 0.063202
0.251984 0.299835 0.057281
0.312866 0.298584 0.056274
0.377014 0.303192 0.053223
0.426483 0.303864 0.053528
0.471527 0.305084 0.053864
0.514862 0.306305 0.054413
0.555573 0.307495 0.055481
0.593353 0.308655 0.057373
0.628967 0.309753 0.058685
0.663788 0.309967 0.058472
0.695831 0.309662 0.058502
0.726074 0.309052 0.060699
0.755005 0.308380 0.063202
0.782440 0.307892 0.066071
0.808746 0.307953 0.069305
0.829376 0.309143 0.073151
0.843536 0.311310 0.077606
0.857513 0.314484 0.082642
0.871460 0.318359 0.088440
0.885498 0.322998 0.095123
0.899719 0.328613 0.102295
0.914154 0.335480 0.110016
0.928650 0.345398 0.118591
0.041473 0.336578 0.091125
0.057037 0.334137 0.083527
0.073334 0.330933 0.076630
0.087646 0.327484 0.074463
0.098938 0.323456 0.079437
0.108948 0.319824 0.084137
0.119934 0.319611 0.084656
0.132568 0.323303 0.080750
0.161377 0.328583 0.073975
0.225586 0.334503 0.065155
0.296844 0.340302 0.058380
0.360992 0.339050 0.056396
0.427063 0.343842 0.054108
0.477570 0.344452 0.054382
0.519958 0.344696 0.054504
0.559692 0.344513 0.054657
0.596619 0.344360 0.054871
0.630707 0.344574 0.055725
0.663025 0.344849 0.058228
0.694214 0.345001 0.059937
0.724762 0.344696 0.059967
0.754089 0.344208 0.061279
0.781769 0.343689 0.064362
0.808228 0.343384 0.067841
0.829865 0.343933 0.071838
0.844391 0.345428 0.076508
0.858185 0.348175 0.081879
0.871948 0.351898 0.088074
0.885803 0.356567 0.095184
0.899811 0.362000 0.102936
0.914124 0.368561 0.111206
0.928467 0.377380 0.120483
0.041290 0.377045 0.095673
0.056946 0.374847 0.088470
0.073822 0.371887 0.081207
0.088989 0.368561 0.078278
0.100800 0.364624 0.082214
0.110565 0.360382 0.089447
0.120880 0.356628 0.095215
0.132965 0.358978 0.093140
0.146454 0.363953 0.086243
0.196136 0.370270 0.076630
0.271484 0.376678 0.065277
0.345245 0.382935 0.058380
0.410614 0.381317 0.055054
0.475769 0.385193 0.054962
0.523651 0.384308 0.055176
0.562500 0.382782 0.055267
0.598846 0.381195 0.055420
0.632538 0.379913 0.055664
0.663818 0.379181 0.056061
0.693573 0.378998 0.057831
0.722687 0.379242 0.061584
0.751801 0.379059 0.062744
0.779633 0.378662 0.062866
0.806122 0.378265 0.066498
0.829346 0.378235 0.070618
0.845276 0.379089 0.075287
0.859009 0.381104 0.080811
0.872711 0.384521 0.087311
0.886444 0.389069 0.094757
0.900330 0.394623 0.103088
0.914581 0.401184 0.112061
0.928680 0.409454 0.121918
0.041077 0.422455 0.104156
0.056793 0.420868 0.097626
0.074066 0.418274 0.090637
0.090118 0.415222 0.085907
0.102661 0.410706 0.086487
0.112488 0.404968 0.093750
0.122040 0.399872 0.101746
0.133392 0.396545 0.104828
0.146545 0.400879 0.099396
0.167908 0.406921 0.089752
0.240387 0.413635 0.077301
0.321075 0.420074 0.064209
0.395416 0.425903 0.059021
0.459351 0.423492 0.055450
0.520325 0.425354 0.055817
0.564606 0.422424 0.055969
0.600342 0.419342 0.056030
0.633759 0.416534 0.056122
0.664978 0.414307 0.056396
0.694458 0.413055 0.057068
0.722565 0.412964 0.058105
0.750397 0.413330 0.061737
0.777130 0.413757 0.065704
0.803802 0.413666 0.065979
0.828766 0.413818 0.070160
0.846161 0.414520 0.075073
0.859894 0.415955 0.080750
0.873535 0.418518 0.087433
0.887268 0.422455 0.095306
0.901154 0.427704 0.104095
0.915405 0.434143 0.113678
0.929321 0.441986 0.124207
0.040802 0.465729 0.114929
0.056458 0.464172 0.109253
0.073975 0.461761 0.102722
0.090851 0.459961 0.096710
0.104401 0.456757 0.094513
0.114563 0.451172 0.098511
0.123627 0.445129 0.105743
0.134033 0.439697 0.111877
0.146606 0.438538 0.111847
0.160828 0.443665 0.103760
0.202850 0.449921 0.091736
0.293030 0.455933 0.077362
0.370178 0.461243 0.064789
0.441528 0.465912 0.059296
0.501801 0.462585 0.056335
0.558685 0.462128 0.056641
0.599854 0.457397 0.056732
0.632935 0.453094 0.056732
0.664185 0.449402 0.056854
0.693939 0.447021 0.057220
0.722290 0.445892 0.057739
0.749603 0.445892 0.059418
0.775391 0.446686 0.063141
0.800903 0.447510 0.066620
0.826019 0.448364 0.070709
0.846497 0.449127 0.075348
0.860718 0.450256 0.081238
0.874390 0.452179 0.088043
0.888184 0.455231 0.096069
0.902161 0.459900 0.105255
0.916504 0.465942 0.115387
0.930328 0.473267 0.126556
0.040558 0.504822 0.126068
0.056122 0.503540 0.120880
0.073700 0.501587 0.114777
0.091125 0.499847 0.108948
0.105774 0.498505 0.104401
0.116730 0.493561 0.105072
0.125641 0.486908 0.111115
0.135132 0.481293 0.117126
0.146851 0.476501 0.121735
0.160736 0.478668 0.117584
0.181061 0.484009 0.107483
0.257782 0.489532 0.093872
0.342651 0.494385 0.078125
0.414612 0.498566 0.065613
0.481812 0.502167 0.059540
0.539093 0.498474 0.057220
0.593048 0.495972 0.057465
0.630524 0.489288 0.057495
0.661804 0.484436 0.057495
0.691925 0.480988 0.057648
0.720673 0.478912 0.058044
0.748291 0.478271 0.058624
0.774353 0.478638 0.060120
0.799225 0.479767 0.063080
0.823486 0.481232 0.067993
0.845367 0.482819 0.074707
0.861481 0.484192 0.082489
0.875214 0.485718 0.089630
0.889069 0.488098 0.097626
0.903229 0.491791 0.106903
0.917755 0.497162 0.117493
0.931549 0.503723 0.129272
0.040344 0.541290 0.138153
0.055756 0.540527 0.133453
0.073364 0.539154 0.128021
0.091187 0.537750 0.122559
0.106659 0.537018 0.117554
0.118896 0.535309 0.115021
0.128021 0.529297 0.118683
0.136871 0.522125 0.123993
0.147552 0.516388 0.128906
0.160797 0.512390 0.130890
0.175629 0.516205 0.123138
0.218292 0.520874 0.111969
0.312683 0.525360 0.097656
0.387543 0.529144 0.081268
0.454590 0.532379 0.067413
0.517975 0.535126 0.060486
0.572296 0.530792 0.058014
0.623566 0.526886 0.058258
0.660034 0.520813 0.058319
0.690277 0.516479 0.058319
0.719330 0.513397 0.058441
0.747986 0.512726 0.058807
0.774200 0.512451 0.059357
0.799194 0.513275 0.060394
0.823303 0.514801 0.063660
0.845764 0.516632 0.069092
0.862122 0.518677 0.077515
0.875977 0.521271 0.094208
0.889954 0.523346 0.102600
0.904266 0.526428 0.112030
0.918945 0.531036 0.122925
0.933441 0.537018 0.135925
0.040192 0.574341 0.151062
0.055511 0.573853 0.146851
0.073059 0.572815 0.141846
0.091095 0.571777 0.136780
0.107239 0.571106 0.132080
0.120605 0.570862 0.127808
0.130585 0.566711 0.128845
0.139038 0.560272 0.133667
0.148773 0.554962 0.137878
0.161102 0.550476 0.141998
0.175507 0.549988 0.139862
0.207855 0.553772 0.130890
0.285583 0.557831 0.119110
0.364807 0.561371 0.104340
0.432159 0.564301 0.086975
0.494629 0.566528 0.070770
0.554474 0.568481 0.061859
0.605377 0.563538 0.058807
0.654663 0.558777 0.059052
0.689514 0.553528 0.059082
0.718811 0.549744 0.059052
0.747742 0.548126 0.059113
0.774109 0.546997 0.059448
0.799072 0.547119 0.059967
0.823151 0.548279 0.060913
0.846191 0.550049 0.063385
0.862701 0.552094 0.068848
0.876648 0.554657 0.080505
0.890778 0.558289 0.106018
0.905182 0.561676 0.119659
0.920013 0.565521 0.130676
0.934448 0.570801 0.144318
0.040131 0.605865 0.165802
0.055359 0.606232 0.162750
0.072845 0.606964 0.159607
0.090973 0.606354 0.155090
0.107605 0.605927 0.150726
0.121796 0.605896 0.146393
0.132965 0.604309 0.143951
0.141449 0.596466 0.146484
0.150330 0.590179 0.150146
0.161652 0.585205 0.153198
0.175446 0.581177 0.155243
0.202179 0.583282 0.149139
0.258850 0.587006 0.139221
0.342865 0.590454 0.127075
0.410461 0.593384 0.112183
0.472473 0.595703 0.094147
0.531372 0.597565 0.075073
0.587982 0.599243 0.063202
0.636108 0.594299 0.059448
0.683258 0.590210 0.059692
0.716949 0.585693 0.059723
0.745758 0.582397 0.059692
0.772400 0.580505 0.059753
0.797729 0.579926 0.060059
0.822052 0.580658 0.060547
0.845520 0.582306 0.061035
0.862946 0.584534 0.062592
0.877197 0.587036 0.068146
0.891357 0.590149 0.084442
0.905853 0.594452 0.115173
0.920715 0.599396 0.140137
0.935181 0.604248 0.154907
0.040161 0.636719 0.183624
0.055328 0.636810 0.180511
0.072754 0.636932 0.177032
0.090881 0.636688 0.173004
0.107849 0.636353 0.169037
0.122650 0.636169 0.164795
0.134796 0.636078 0.160980
0.143768 0.630676 0.162354
0.152069 0.623474 0.165497
0.162445 0.618683 0.167053
0.175507 0.614777 0.169434
0.204132 0.613068 0.168274
0.249298 0.616028 0.160095
0.329041 0.619354 0.149506
0.394348 0.622345 0.136963
0.454437 0.624695 0.122040
0.511871 0.626495 0.103333
0.567078 0.627899 0.080719
0.620300 0.629303 0.064636
0.665131 0.624481 0.059967
0.709595 0.621277 0.060303
0.743011 0.617249 0.060394
0.770752 0.614563 0.060394
0.796356 0.613373 0.060486
0.820953 0.613373 0.060699
0.844666 0.614624 0.061035
0.863129 0.616699 0.061310
0.877655 0.619324 0.061615
0.891815 0.622131 0.066772
0.906281 0.625916 0.093201
0.921021 0.630676 0.127655
0.935486 0.636658 0.161285
0.040283 0.665588 0.202606
0.055389 0.665771 0.199860
0.072754 0.665710 0.196564
0.090820 0.665649 0.193115
0.107971 0.665466 0.189331
0.123291 0.664642 0.184418
0.136139 0.664673 0.180511
0.145966 0.661621 0.178925
0.153992 0.653717 0.180817
0.163574 0.649139 0.183624
0.186676 0.645874 0.185303
0.217316 0.643158 0.186340
0.257660 0.643860 0.181793
0.325256 0.647003 0.172363
0.384674 0.649994 0.161194
0.441101 0.652557 0.148132
0.496002 0.654480 0.132813
0.549225 0.655914 0.113861
0.600952 0.657135 0.090485
0.650696 0.658325 0.068970
0.692261 0.653809 0.062256
0.734589 0.651581 0.060974
0.767151 0.648254 0.061188
0.794373 0.645996 0.061249
0.819275 0.645477 0.061218
0.843384 0.646118 0.061249
0.863129 0.647888 0.061310
0.878082 0.650360 0.061371
0.892212 0.653290 0.061157
0.906464 0.656525 0.069305
0.921021 0.660675 0.104370
0.935425 0.665497 0.144318
0.040466 0.693024 0.222748
0.055511 0.693329 0.220428
0.072784 0.693390 0.217560
0.090851 0.693359 0.214447
0.108093 0.693207 0.211151
0.124084 0.693024 0.207245
0.139709 0.692993 0.203491
0.151794 0.692230 0.200623
0.161285 0.684845 0.200623
0.179688 0.678436 0.202026
0.207153 0.675171 0.202209
0.235840 0.672546 0.203369
0.276703 0.670624 0.203186
0.330811 0.673096 0.195557
0.382294 0.676178 0.185333
0.433319 0.678955 0.173523
0.484497 0.681213 0.159790
0.535095 0.682983 0.144196
0.585114 0.684326 0.125549
0.633453 0.685516 0.102570
0.679657 0.686707 0.078461
0.718536 0.682587 0.066315
0.758209 0.681366 0.061737
0.790466 0.678711 0.062012
0.817780 0.676971 0.061981
0.842194 0.677155 0.061768
0.863037 0.678528 0.061523
0.878479 0.680817 0.061432
0.892578 0.683655 0.061310
0.906677 0.686829 0.061035
0.920929 0.690765 0.081818
0.935242 0.694580 0.123932
0.102142 0.721832 0.247833
0.120178 0.722137 0.245758
0.140228 0.722168 0.243103
0.160797 0.722198 0.240295
0.180267 0.722015 0.237213
0.198547 0.721771 0.233582
0.214844 0.721680 0.229797
0.229156 0.721832 0.226593
0.236938 0.717468 0.226349
0.236603 0.710052 0.226349
0.246979 0.705994 0.226807
0.272156 0.703369 0.226105
0.312805 0.701263 0.226318
0.352203 0.701233 0.223053
0.393799 0.703918 0.214478
0.437561 0.706757 0.203705
0.483063 0.709229 0.191254
0.529541 0.711151 0.177094
0.576263 0.712616 0.160828
0.622284 0.713715 0.142212
0.666534 0.714569 0.119812
0.709015 0.715363 0.093109
0.744690 0.711639 0.073853
0.782074 0.711304 0.062531
0.814270 0.709320 0.062744
0.841736 0.707855 0.062531
0.863159 0.708832 0.062073
0.878784 0.710785 0.061676
0.892975 0.713531 0.061432
0.907013 0.716827 0.061279
0.921082 0.720367 0.066528
0.935242 0.723511 0.101196
0.152161 0.748535 0.269745
0.169373 0.748840 0.267944
0.188690 0.748993 0.265686
0.208466 0.749054 0.263184
0.227173 0.748962 0.260468
0.244904 0.748779 0.257141
0.261475 0.748657 0.253723
0.275848 0.748871 0.250641
0.286804 0.747498 0.248962
0.291199 0.740845 0.249939
0.301727 0.735962 0.250977
0.316528 0.733215 0.249573
0.344696 0.731201 0.249481
0.376526 0.729584 0.249390
0.410767 0.731171 0.243561
0.448242 0.733887 0.234283
0.488220 0.736359 0.223297
0.530029 0.738434 0.210449
0.572968 0.739990 0.195465
0.615967 0.741089 0.178802
0.657715 0.741852 0.160370
0.697998 0.742340 0.139038
0.736237 0.742767 0.112854
0.769501 0.739655 0.082672
0.805511 0.739990 0.066040
0.837585 0.738647 0.063263
0.863037 0.737427 0.062805
0.878906 0.738922 0.062195
0.893311 0.741364 0.061676
0.907440 0.744568 0.061340
0.921539 0.747864 0.061188
0.935547 0.750366 0.084473
0.190247 0.775482 0.292694
0.207062 0.775940 0.291290
0.225677 0.776123 0.289246
0.244934 0.776215 0.287048
0.263245 0.776123 0.284546
0.280762 0.775940 0.281372
0.297363 0.775757 0.277954
0.311951 0.775787 0.274841
0.324036 0.776123 0.272308
0.330627 0.770905 0.272949
0.337402 0.764954 0.273712
0.349640 0.761627 0.273102
0.369080 0.759705 0.271545
0.397156 0.758209 0.271515
0.427032 0.757721 0.269897
0.460175 0.759979 0.262604
0.496185 0.762390 0.253357
0.534332 0.764526 0.242310
0.574097 0.766296 0.229431
0.614227 0.767517 0.214600
0.653229 0.768311 0.198273
0.691040 0.768768 0.180328
0.726868 0.768921 0.160339
0.761658 0.769073 0.135803
0.793640 0.766724 0.100098
0.828644 0.767700 0.075775
0.859955 0.767181 0.063477
0.878937 0.765961 0.062836
0.893494 0.767944 0.062103
0.907837 0.770844 0.061493
0.922089 0.773895 0.061096
0.936127 0.775787 0.067871
0.217255 0.801147 0.312866
0.233582 0.801605 0.311615
0.252106 0.801819 0.309875
0.271301 0.801971 0.307953
0.289581 0.801971 0.305725
0.307404 0.801880 0.303040
0.324432 0.801697 0.299896
0.339508 0.801788 0.296936
0.352112 0.802124 0.294525
0.360840 0.799713 0.294037
0.366119 0.793304 0.294983
0.377319 0.789642 0.295837
0.392242 0.787750 0.293793
0.416412 0.786438 0.293427
0.443909 0.785339 0.293427
0.473541 0.786163 0.289459
0.506439 0.788330 0.281677
0.541534 0.790344 0.272400
0.578583 0.792114 0.261292
0.616272 0.793518 0.248657
0.653076 0.794464 0.234772
0.688232 0.794952 0.219757
0.721405 0.794983 0.203491
0.753601 0.794922 0.184753
0.786255 0.795013 0.161041
0.817657 0.793610 0.125336
0.852142 0.795105 0.091553
0.878113 0.795288 0.063416
0.893555 0.793701 0.062683
0.908112 0.796173 0.061829
0.922516 0.798798 0.061157
0.936707 0.800262 0.061218
0.240112 0.826508 0.332245
0.256226 0.826965 0.331177
0.274719 0.827240 0.329742
0.293854 0.827423 0.328064
0.312408 0.827545 0.326263
0.330292 0.827484 0.323822
0.347687 0.827454 0.321167
0.363495 0.827545 0.318542
0.376740 0.827881 0.316315
0.387390 0.827881 0.314880
0.391022 0.821228 0.314484
0.400269 0.816833 0.315796
0.414398 0.814850 0.315430
0.433655 0.813751 0.313965
0.459381 0.812805 0.314209
0.486572 0.812134 0.313690
0.516937 0.813904 0.307556
0.549713 0.815765 0.299591
0.584381 0.817474 0.290222
0.619904 0.818909 0.279480
0.654846 0.819977 0.267578
0.688141 0.820557 0.255310
0.719055 0.820679 0.242615
0.748749 0.820496 0.228241
0.778839 0.820374 0.210510
0.810211 0.820648 0.186981
0.841919 0.820374 0.152313
0.874542 0.822266 0.111389
0.893524 0.822968 0.063202
0.908142 0.821350 0.062347
0.922729 0.822845 0.061523
0.937042 0.823914 0.061401
0.262268 0.851837 0.352051
0.278381 0.852356 0.351288
0.296936 0.852692 0.350159
0.316315 0.852997 0.348938
0.335083 0.853210 0.347595
0.353455 0.853394 0.345917
0.371368 0.853516 0.343903
0.388031 0.853760 0.341827
0.402313 0.854187 0.340118
0.414612 0.854980 0.338867
0.421600 0.851501 0.338654
0.427277 0.845856 0.338501
0.438782 0.842926 0.338531
0.453796 0.841400 0.336426
0.476837 0.840485 0.336548
