webgpu/resources/luts/justyndigitalphotography.cube
#Created by: Adobe Photoshop Export Color Lookup Plugin
#Copyright: (C) 2017 Andrey Lapardin. vk.com-3dluts
TITLE "Andrey Lapardin. vk.com-3dluts"
#LUT size
LUT_3D_SIZE 5
#data domain
#LUT data points
DOMAIN_MIN 0.000000 0.000000 0.000000
DOMAIN_MAX 0.903226 0.903226 0.903226
0.042664 0.047668 0.050446
0.199066 0.052887 0.059143
0.511780 0.054474 0.065247
0.771790 0.053192 0.068634
0.891663 0.049103 0.088409
0.041840 0.197235 0.073822
0.191071 0.195770 0.054413
0.509827 0.202179 0.062622
0.759399 0.202728 0.069580
0.887390 0.243347 0.093628
0.040802 0.465729 0.114929
0.134033 0.439697 0.111877
0.501801 0.462585 0.056335
0.749603 0.445892 0.059418
0.888184 0.455231 0.096069
0.040466 0.693024 0.222748
0.151794 0.692230 0.200623
0.382294 0.676178 0.185333
0.718536 0.682587 0.066315
0.892578 0.683655 0.061310
0.287781 0.878204 0.374420
0.412140 0.879639 0.364899
0.497375 0.868530 0.360321
0.697540 0.873199 0.324402
0.890015 0.874146 0.210785
0.042572 0.055328 0.203308
0.181244 0.050201 0.212341
0.499237 0.048340 0.220276
0.751312 0.049500 0.206085
0.887695 0.083618 0.178345
0.047028 0.187439 0.193848
0.210236 0.224091 0.220673
0.526062 0.223846 0.214752
0.762512 0.255554 0.212036
0.872406 0.315765 0.236420
0.050659 0.451355 0.245361
0.176025 0.473328 0.256836
0.538055 0.492615 0.203064
0.760895 0.481354 0.228760
0.886017 0.492889 0.259644
0.174286 0.682098 0.351929
0.314819 0.697418 0.346344
0.471832 0.698303 0.339325
0.748962 0.699097 0.253601
0.894196 0.702087 0.292419
0.302826 0.867218 0.466858
0.442963 0.855957 0.471619
0.556763 0.861145 0.462921
0.708557 0.868011 0.445709
0.899902 0.875549 0.357880
0.040253 0.093018 0.443665
0.150513 0.085266 0.484009
0.489441 0.043579 0.508911
0.757538 0.042450 0.513550
0.887299 0.093506 0.453583
0.045166 0.243866 0.412537
0.255829 0.266266 0.470734
0.524384 0.251129 0.489502
0.733643 0.330841 0.500214
0.871094 0.353882 0.480225
0.055573 0.440002 0.403229
0.253204 0.484406 0.454834
0.522400 0.502655 0.466614
0.737762 0.510864 0.470520
0.893066 0.541382 0.492645
0.187714 0.677734 0.473663
0.369873 0.691498 0.502319
0.535919 0.699432 0.527649
0.741241 0.712341 0.494476
0.892487 0.726135 0.522980
0.322876 0.857941 0.566315
0.459900 0.851318 0.579834
0.602844 0.859375 0.588196
0.727875 0.873505 0.603119
0.905579 0.879150 0.548401
0.047729 0.170441 0.685364
0.286407 0.154846 0.703857
0.462952 0.146545 0.726105
0.720062 0.083588 0.734283
0.889435 0.183136 0.751617
0.171234 0.330902 0.682068
0.350372 0.335175 0.703125
0.495819 0.360138 0.713623
0.708435 0.357025 0.724030
0.864075 0.411682 0.726563
0.211182 0.491302 0.651611
0.374084 0.528381 0.681946
0.544373 0.556335 0.696320
0.727905 0.550415 0.703369
0.880096 0.589813 0.706451
0.207825 0.665070 0.647095
0.372589 0.688416 0.674774
0.550903 0.708405 0.698975
0.727173 0.719360 0.700073
0.894470 0.734406 0.713196
0.256134 0.863129 0.701691
0.417694 0.865417 0.711456
0.599060 0.867096 0.724396
0.752380 0.883820 0.742554
0.906830 0.889862 0.736542
0.283691 0.307373 0.867493
0.428253 0.296539 0.868896
0.535004 0.311829 0.888214
0.710205 0.271790 0.884064
0.866608 0.225342 0.883087
0.301880 0.421143 0.866699
0.448517 0.433594 0.840881
0.558472 0.437256 0.874390
0.702576 0.436920 0.879395
0.866638 0.415771 0.874176
0.305176 0.572540 0.857788
0.437408 0.591827 0.836700
0.584290 0.614380 0.860107
0.720428 0.605682 0.859619
0.872864 0.604645 0.864685
0.302582 0.709259 0.842224
0.437866 0.718262 0.837646
0.587280 0.746429 0.857727
0.747620 0.761993 0.866974
0.890839 0.761719 0.869751
0.269562 0.858124 0.847107
0.416168 0.862488 0.850372
0.583069 0.873016 0.860992
0.753845 0.888977 0.880859
0.909149 0.906464 0.890289
