webgpu/resources/luts/LateAfternoonWanderlust.cube
TITLE "Generated by Resolve"
LUT_3D_SIZE 33
0 0 0
0 0 0
0 0 0
0 0 0
0 0 0
0 0 0
0.027451 0 0
0.0609293 0 0
0.0949569 0 0
0.13019 0 0
0.16614 0 0
0.203723 0 0
0.241245 0 0
0.278416 0 0
0.314885 0 0
0.351629 0 0
0.386969 0 0
0.420432 0 0
0.454398 0 0
0.489601 0 0
0.526879 0 0
0.564416 0 0
0.602121 0 0
0.639826 0 0
0.677043 0 0
0.713741 0 0
0.749737 0 0
0.784665 0 0
0.819074 0 0
0.852476 0 0
0.885496 0 0
0.918196 0 0
0.950271 0 0
0 0 0
0 0 0
0 0 0
0 0 0
0 0 0
0 0 0
0.0263066 0 0
0.060029 0 0
0.0941024 0 0
0.128878 0 0
0.164996 0 0
0.20177 0 0
0.239338 0 0
0.276753 0 0
0.313558 0 0
0.349935 0 0
0.385336 0 0
0.418601 0 0
0.452415 0 0
0.487526 0 0
0.524361 0 0
0.561791 0 0
0.599435 0 0
0.637064 0 0
0.674601 0 0
0.711299 0 0
0.747097 0 0
0.782361 0 0
0.816602 0 0
0.85034 0 0
0.88336 0 0
0.916121 0 0
0.948455 0 0
0 0 0
0 0 0
0 0 0
0 0 0
0 0 0
0 0 0
0.0256046 0 0
0.0583047 0 0
0.0924239 0 0
0.127123 0 0
0.163119 0 0
0.200198 0 0
0.237903 0 0
0.274876 0 0
0.311513 0 0
0.347738 0 0
0.383246 0 0
0.416403 0 0
0.450324 0 0
0.485023 0 0
0.521752 0 0
0.559167 0 0
0.59678 0 0
0.634714 0 0
0.671977 0 0
0.708583 0 0
0.744579 0 0
0.779873 0 0
0.814328 0 0
0.848432 0 0
0.881712 0 0
0.91426 0 0
0.946746 0 0
0 0.00807202 0
0 0.00746166 0
0 0.00683604 0
0 0.00633249 0
0 0.00518807 0
0 0.00466926 0
0.0247501 0.00390631 0
0.0578622 0.00328069 0
0.0917983 0.00254826 0
0.126131 0.00144961 0
0.161547 0.000396735 0
0.198398 0 0
0.235737 0 0
0.272709 0 0
0.309255 0 0
0.345418 0 0
0.381308 0 0
0.414328 0 0
0.447898 0 0
0.482353 0 0
0.518944 0 0
0.556268 0 0
0.594186 0 0
0.631876 0 0
0.669261 0 0
0.706081 0 0
0.742321 0 0
0.777691 0 0
0.812757 0 0
0.846616 0 0
0.88011 0 0
0.912871 0 0
0.945556 0 0
0 0.0330053 0
0 0.0321508 0
0 0.0315404 0
0 0.0311589 0
0 0.030457 0
0 0.0296788 0
0.022797 0.0288396 0
0.0559701 0.027863 0
0.0894179 0.0267948 0
0.124163 0.0255894 0
0.159609 0.024094 0
0.196521 0.0222324 0
0.233555 0.0201877 0
0.270298 0.0178683 0
0.306844 0.0153353 0
0.343328 0.0128481 0
0.378973 0.0102083 0
0.412116 0.00746166 0
0.445716 0.00471504 0
0.480049 0.00236515 0
0.516548 0 0
0.554238 0 0
0.591608 0 0
0.629404 0 0
0.66714 0 0
0.704173 0 0
0.740734 0 0
0.776318 0 0
0.811414 0 0
0.845548 0 0
0.879286 0 0
0.91249 0 0
0.945586 0 0
0 0.0578622 0
0 0.0571756 0
0 0.0565499 0
0 0.0560159 0
0 0.0551156 0
0 0.0542306 0
0.0205081 0.0533303 0
0.0535592 0.0523232 0
0.0873884 0.0513466 0
0.121508 0.0500191 0
0.156909 0.0484016 0
0.193393 0.0465858 0
0.230503 0.0445411 0
0.267338 0.0423743 0
0.304006 0.0399329 0
0.340261 0.0372931 0
0.375998 0.0346532 0
0.40943 0.0319524 0
0.443137 0.0292363 0
0.477684 0.0265965 0
0.514199 0.0238346 0
0.551629 0.0209812 0
0.589517 0.018143 0
0.627558 0.0154116 0
0.665217 0.0128634 0
0.702739 0.0106355 0
0.7393 0.00843824 0
0.775448 0.00642405 0
0.810651 0.0047303 0
0.845289 0.00328069 0
0.879194 0.00248722 0
0.913054 0.0016022 0
0.946059 0.000762951 0
0 0.0827039 0
0 0.0820478 0
0 0.0812085 0
0 0.0803845 0
0 0.0795605 0
0 0.0785534 0
0.0182345 0.0776837 0
0.0511177 0.0767987 0
0.084596 0.0756237 0
0.118624 0.0743267 0
0.153933 0.0727245 0
0.190265 0.0709392 0
0.227787 0.0689708 0
0.264576 0.0668345 0
0.301213 0.0643931 0
0.337545 0.0618296 0
0.373526 0.059205 0
0.406989 0.0566415 0
0.440833 0.0541695 0
0.475242 0.051545 0
0.511879 0.0488136 0
0.549294 0.046128 0
0.58735 0.0434272 0
0.625589 0.0408026 0
0.663996 0.0385443 0
0.701457 0.0363317 0
0.738293 0.0343328 0
0.774762 0.0324865 0
0.810285 0.0309453 0
0.845563 0.0298314 0
0.879835 0.0288396 0
0.913695 0.0280003 0
0.947097 0.0273442 0
0 0.107408 0
0 0.106538 0
0 0.105653 0
0 0.104753 0
0 0.103914 0
0 0.102953 0
0.0156405 0.102083 0
0.0484169 0.101091 0
0.08159 0.0999771 0
0.115801 0.0986648 0
0.150805 0.0971847 0
0.187594 0.095613 0
0.224842 0.0936599 0
0.261692 0.0914931 0
0.298268 0.089189 0
0.334737 0.086717 0
0.371008 0.0842908 0
0.405035 0.0819104 0
0.438727 0.079469 0
0.473121 0.076936 0
0.509834 0.074342 0
0.547601 0.0717784 0
0.585992 0.0694285 0
0.624613 0.0670634 0
0.663035 0.0647593 0
0.700938 0.0626688 0
0.738247 0.0608377 0
0.775113 0.0592203 0
0.811215 0.0580911 0
0.846479 0.0570687 0
0.881209 0.0562448 0
0.915343 0.0556802 0
0.949386 0.0552682 0
0 0.131914 0
0 0.131014 0
0 0.130114 0
0 0.129198 0
0 0.128542 0
0 0.127565 0
0.0123751 0.126574 0
0.0453651 0.125566 0
0.078584 0.124529 0
0.112612 0.1234 0
0.148074 0.122103 0
0.184298 0.1205 0
0.221668 0.118669 0
0.258732 0.116609 0
0.295476 0.114458 0
0.332235 0.1122 0
0.368719 0.109941 0
0.403021 0.107576 0
0.436912 0.105318 0
0.471412 0.102998 0
0.508278 0.100587 0
0.546487 0.0982986 0
0.58526 0.0960555 0
0.623987 0.0938735 0
0.662745 0.0918288 0
0.701045 0.0899519 0
0.738705 0.088304 0
0.776287 0.0871138 0
0.81265 0.0860609 0
0.84831 0.0852979 0
0.883513 0.0847028 0
0.917967 0.0844129 0
0.95259 0.0844892 0
0 0.156588 0
0 0.155688 0
0 0.154772 0
0 0.154101 0
0 0.153323 0
0 0.152331 0
0.00895705 0.1514 0
0.0417792 0.150515 0
0.0753185 0.149538 0
0.109575 0.148653 0
0.144671 0.147417 0
0.180957 0.145953 0
0.218708 0.144213 0
0.25597 0.142321 0
0.293385 0.140475 0
0.330159 0.138384 0
0.366751 0.136202 0
0.401404 0.13402 0
0.435615 0.131884 0
0.470497 0.129824 0
0.507485 0.127901 0
0.5458 0.125765 0
0.584741 0.123629 0
0.623957 0.121614 0
0.663188 0.119783 0
0.702113 0.118273 0
0.740429 0.117037 0
0.777981 0.115908 0
0.814878 0.115068 0
0.851026 0.114611 0
0.886625 0.114412 0
0.921904 0.114595 0
0.956588 0.114946 0
0 0.181582 0
0 0.18088 0
0 0.180072 0
0 0.179248 0
0 0.178531 0
0 0.177676 0
0.00485237 0.176837 0
0.0383154 0.176226 0
0.0717327 0.175418 0
0.106111 0.174426 0
0.141299 0.173342 0
0.17789 0.17203 0
0.215488 0.170611 0
0.253315 0.169146 0
0.2907 0.167285 0
0.327901 0.165347 0
0.364858 0.163378 0
0.399817 0.161486 0
0.434333 0.15964 0
0.469596 0.1579 0
0.506996 0.155947 0
0.54551 0.154101 0
0.584894 0.15227 0
0.624521 0.150515 0
0.664271 0.149004 0
0.703716 0.147829 0
0.742367 0.146792 0
0.780362 0.146044 0
0.817761 0.145525 0
0.854429 0.145312 0
0.8907 0.145739 0
0.926329 0.146166 0
0.961501 0.146822 0
0 0.207126 0
0 0.206394 0
0 0.205661 0
0 0.204974 0
0 0.204425 0
0 0.203632 0
0.000656138 0.203174 0
0.0341192 0.202518 0
0.0679942 0.201846 0
0.102327 0.201129 0
0.137926 0.200198 0
0.174456 0.19913 0
0.212726 0.198093 0
0.250629 0.196674 0
0.288289 0.195102 0
0.325673 0.193423 0
0.362936 0.191669 0
0.398764 0.190188 0
0.4336 0.188571 0
0.469001 0.186954 0
0.506706 0.18529 0
0.545647 0.183673 0
0.585412 0.182177 0
0.625864 0.181003 0
0.665949 0.179797 0
0.705608 0.178775 0
0.744732 0.178012 0
0.783337 0.177584 0
0.821256 0.177584 0
0.858579 0.177996 0
0.895171 0.178424 0
0.931044 0.179202 0
0.966659 0.180301 0
0 0.233219 0
0 0.232547 0
0 0.231907 0
0 0.231327 0
0 0.231083 0
0 0.230594 0
0 0.230076 0
0.0301976 0.229618 0
0.0641642 0.22916 0
0.09897 0.228611 0
0.134768 0.228199 0
0.171466 0.227466 0
0.209873 0.226429 0
0.248112 0.225238 0
0.286198 0.223926 0
0.324117 0.222522 0
0.361837 0.221347 0
0.397787 0.219898 0
0.432944 0.218555 0
0.468727 0.217273 0
0.50692 0.215976 0
0.546288 0.214725 0
0.586816 0.213733 0
0.627405 0.212665 0
0.668101 0.21181 0
0.708415 0.21117 0
0.747997 0.210788 0
0.786969 0.210742 0
0.825513 0.211261 0
0.863127 0.211933 0
0.900038 0.212909 0
0.93666 0.214008 0
0.972671 0.215366 0
0 0.260121 0
0 0.259632 0
0 0.25919 0
0 0.25893 0
0 0.258747 0
0 0.258427 0
0 0.258183 0
0.0261082 0.257954 0
0.0604562 0.25771 0
0.0954757 0.257633 0
0.131441 0.257313 0
0.168688 0.256764 0
0.207263 0.256077 0
0.245914 0.255177 0
0.284352 0.254124 0
0.322957 0.253254 0
0.361028 0.252171 0
0.397299 0.251133 0
0.432837 0.250111 0
0.468971 0.249119 0
0.507897 0.248386 0
0.547814 0.247562 0
0.588617 0.246723 0
0.629725 0.24596 0
0.670817 0.245411 0
0.711315 0.245228 0
0.751858 0.245624 0
0.791302 0.246006 0
0.829953 0.246647 0
0.868147 0.247547 0
0.905562 0.248859 0
0.942321 0.250523 0
0.979019 0.252598 0
0 0.287877 0
0 0.287556 0
0 0.287556 0
0 0.287419 0
0 0.287404 0
0 0.287343 0
0 0.287266 0
0.0224765 0.28748 0
0.0573281 0.287678 0
0.0924849 0.287724 0
0.128847 0.287602 0
0.166201 0.287388 0
0.205112 0.287022 0
0.24448 0.286702 0
0.283497 0.286122 0
0.322194 0.285313 0
0.360662 0.28452 0
0.39733 0.283864 0
0.433387 0.283268 0
0.470237 0.282918 0
0.509285 0.282322 0
0.549722 0.281788 0
0.591089 0.281361 0
0.632807 0.281102 0
0.674189 0.281025 0
0.715694 0.281407 0
0.756237 0.281804 0
0.796231 0.282536 0
0.835325 0.283635 0
0.873533 0.284977 0
0.911116 0.286503 0
0.948333 0.28864 0
0.98497 0.290593 0
0 0.316655 0
0 0.316762 0
0 0.316747 0
0 0.316823 0
0 0.317082 0
0 0.317311 0
0 0.317693 0
0.0197757 0.318151 0
0.0545968 0.318563 0
0.0903639 0.318944 0
0.126909 0.319265 0
0.16466 0.319417 0
0.204105 0.319539 0
0.243824 0.319493 0
0.283223 0.319219 0
0.322423 0.318868 0
0.361334 0.318441 0
0.398291 0.31809 0
0.43508 0.318151 0
0.472221 0.318013 0
0.511788 0.317906 0
0.55288 0.317708 0
0.59469 0.317556 0
0.637064 0.317845 0
0.67924 0.318227 0
0.720806 0.31873 0
0.761334 0.319509 0
0.801343 0.320485 0
0.840665 0.321691 0
0.879393 0.323537 0
0.917098 0.325307 0
0.954116 0.327169 0
0.990509 0.329244 0
0 0.34641 0
0 0.346654 0
0 0.34699 0
0 0.347372 0
0 0.347845 0
0 0.348699 0
0 0.34934 0
0.0178225 0.350042 0
0.0531014 0.35079 0
0.0891432 0.351507 0
0.126162 0.352285 0
0.164645 0.353079 0
0.204425 0.353475 0
0.244404 0.353643 0
0.284169 0.353704 0
0.323857 0.353719 0
0.363409 0.353933 0
0.401099 0.354147 0
0.43798 0.354253 0
0.475349 0.354467 0
0.51574 0.354635 0
0.557336 0.354879 0
0.599695 0.355367 0
0.642329 0.355779 0
0.684504 0.356237 0
0.726207 0.356909 0
0.767102 0.357839 0
0.807141 0.358984 0
0.846799 0.360571 0
0.885115 0.362249 0
0.922621 0.364172 0
0.959792 0.366232 0
0.996582 0.36846 0
0 0.37702 0
0 0.377554 0
0 0.37821 0
0 0.379004 0
0 0.380133 0
0 0.381064 0
0 0.381994 0
0.0172122 0.383139 0
0.0531472 0.384314 0
0.0895399 0.385519 0
0.127138 0.386786 0
0.165988 0.387671 0
0.206348 0.388495 0
0.246876 0.389166 0
0.287083 0.389639 0
0.327184 0.390112 0
0.366995 0.390723 0
0.4047 0.391165 0
0.441886 0.39176 0
0.480201 0.392142 0
0.520897 0.392554 0
0.56321 0.393256 0
0.605676 0.393683 0
0.648219 0.394202 0
0.690547 0.394766 0
0.732403 0.395468 0
0.773373 0.396704 0
0.81355 0.398199 0
0.852995 0.399725 0
0.891539 0.401526 0
0.929274 0.403632 0
0.966598 0.405905 0
1 0.408698 0
0 0.408804 0
0 0.409705 0
0 0.410681 0
0 0.4121 0
0 0.413321 0
0 0.414786 0
0 0.416083 0
0.0183566 0.417548 0
0.0548409 0.419455 0
0.0921798 0.420981 0
0.130114 0.422507 0
0.169299 0.423804 0
0.210056 0.424933 0
0.250935 0.425971 0
0.291936 0.4271 0
0.332296 0.427848 0
0.372351 0.428473 0
0.409689 0.429145 0
0.447288 0.429816 0
0.485908 0.430594 0
0.527642 0.431266 0
0.569589 0.431754 0
0.612207 0.432212 0
0.655055 0.432776 0
0.697276 0.4336 0
0.739498 0.434669 0
0.780713 0.436057 0
0.820935 0.437583 0
0.860349 0.439399 0
0.899016 0.441444 0
0.936797 0.443778 0
0.974456 0.446433 0
1 0.44921 0
0 0.441749 0
0 0.443336 0
0 0.44477 0
0 0.446204 0
0 0.447837 0
0 0.449714 0
0 0.451545 0
0.0218662 0.453712 0
0.0583963 0.45565 0
0.0957809 0.457557 0
0.134493 0.459373 0
0.174365 0.461067 0
0.215641 0.462547 0
0.256748 0.464134 0
0.297505 0.465141 0
0.33817 0.465965 0
0.37818 0.466804 0
0.415488 0.467536 0
0.453056 0.468406 0
0.492592 0.469322 0
0.533974 0.469963 0
0.576638 0.470542 0
0.619303 0.471244 0
0.662333 0.471992 0
0.705379 0.473289 0
0.74725 0.47451 0
0.788449 0.475944 0
0.828733 0.477653 0
0.868284 0.479576 0
0.906996 0.481971 0
0.945083 0.484703 0
0.982681 0.487266 0
1 0.489998 0
0 0.476219 0
0 0.477913 0
0 0.479789 0
0 0.481788 0
0 0.483833 0
0 0.485924 0
0 0.488441 0
0.0259861 0.490745 0
0.0632944 0.493034 0
0.100999 0.495262 0
0.139757 0.497322 0
0.180453 0.499413 0
0.221958 0.501045 0
0.263005 0.502388 0
0.303578 0.503517 0
0.344076 0.504433 0
0.383993 0.505226 0
0.421714 0.506462 0
0.459648 0.507393 0
0.499413 0.508247 0
0.541375 0.50901 0
0.5841 0.509834 0
0.627497 0.510689 0
0.670863 0.512016 0
0.713588 0.51313 0
0.755779 0.514412 0
0.796704 0.516106 0
0.837034 0.517983 0
0.876738 0.520165 0
0.915496 0.522774 0
0.953704 0.525216 0
0.991012 0.527962 0
1 0.5308 0
0 0.511788 0
0 0.513848 0
0 0.51603 0
0 0.518288 0
0 0.521065 0
0 0.52369 0
0 0.526009 0
0.031342 0.528527 0
0.0686656 0.531014 0
0.107073 0.533303 0
0.146456 0.53576 0
0.186938 0.537682 0
0.228428 0.539284 0
0.269429 0.540688 0
0.310353 0.541909 0
0.35079 0.543038 0
0.3906 0.544381 0
0.428397 0.545419 0
0.466682 0.546517 0
0.507271 0.54757 0
0.549615 0.548501 0
0.59266 0.549416 0
0.636622 0.550713 0
0.679728 0.551888 0
0.722545 0.55317 0
0.764736 0.554589 0
0.805859 0.556283 0
0.846448 0.558648 0
0.885939 0.56083 0
0.924483 0.563272 0
0.962386 0.56582 0
0.999588 0.568551 0
1 0.571405 0
0 0.548302 0
0 0.550744 0
0 0.553277 0
0 0.556023 0
0 0.558785 0
0 0.561456 0
0.00047303 0.564019 0
0.0377203 0.566598 0
0.0751202 0.569146 0
0.113863 0.571832 0
0.153231 0.57409 0
0.19411 0.576135 0
0.235737 0.577874 0
0.277028 0.57937 0
0.318257 0.581033 0
0.359167 0.582391 0
0.398077 0.583642 0
0.436393 0.584772 0
0.4748 0.586007 0
0.516289 0.587121 0
0.559258 0.588556 0
0.602747 0.589578 0
0.646311 0.590677 0
0.689662 0.591852 0
0.732326 0.59324 0
0.774411 0.594812 0
0.8159 0.596963 0
0.856107 0.598947 0
0.895354 0.60119 0
0.933654 0.603662 0
0.971466 0.606241 0
1 0.609003 0.0009308
1 0.612039 0.00309758
0 0.585687 0
0 0.588418 0
0 0.591333 0
0 0.594079 0
0 0.59678 0
0 0.599512 0
0.00724804 0.602167 0
0.0448463 0.605051 0
0.0827497 0.60795 0
0.121355 0.610513 0
0.161257 0.612863 0
0.20264 0.615045 0
0.244312 0.616983 0
0.286168 0.61883 0
0.32723 0.620462 0
0.368139 0.62179 0
0.406607 0.623163 0
0.445212 0.62443 0
0.48426 0.625757 0
0.52665 0.627192 0
0.569619 0.628351 0
0.613306 0.629404 0
0.656947 0.630594 0
0.700328 0.6318 0
0.742824 0.633234 0
0.78526 0.635126 0
0.826185 0.636957 0
0.866331 0.638941 0.000518807
0.905303 0.641184 0.0019379
0.943374 0.643595 0.00347906
0.981384 0.646448 0.00553903
1 0.649073 0.00724804
1 0.651637 0.0091249
0 0.623453 0
0 0.626444 0
0 0.629145 0
0 0.631968 0
0 0.634958 0
0 0.637705 0
0.0155337 0.640742 0
0.0534676 0.643824 0
0.0916915 0.646708 0
0.130785 0.649454 0
0.171176 0.651896 0
0.212726 0.6542 0
0.254734 0.656565 0
0.296391 0.658259 0
0.337423 0.659892 0
0.378363 0.661295 0
0.416327 0.662684 0
0.455283 0.66421 0
0.49546 0.665721 0
0.537926 0.66688 9.15541e-05
0.581033 0.668009 0.000671397
0.624994 0.669001 0.00134279
0.668589 0.670192 0.0019379
0.712276 0.671672 0.00274662
0.754894 0.673121 0.00375372
0.796567 0.674678 0.004654
0.837232 0.676448 0.00572213
0.877134 0.67837 0.0071107
0.915846 0.680552 0.00851453
0.954116 0.683192 0.0102998
0.991455 0.685573 0.0120241
1 0.687984 0.013611
1 0.69041 0.0154421
0 0.661433 0
0 0.664347 0
0 0.667247 0
0 0.670222 0
0 0.673442 0
0 0.676692 0
0.0257267 0.679789 0
0.0639048 0.68275 0
0.102312 0.68574 0
0.141649 0.688594 0
0.182727 0.691249 0
0.224872 0.693858 0
0.266255 0.695888 0.000427253
0.307866 0.697581 0.00177005
0.348882 0.699229 0.00283818
0.389075 0.700694 0.00375372
0.427497 0.702296 0.00477607
0.466514 0.703761 0.00587472
0.5075 0.705028 0.00662242
0.550225 0.706172 0.00724804
0.593668 0.70724 0.00781262
0.637537 0.708247 0.00852979
0.681575 0.709514 0.00921645
0.724697 0.710796 0.00993362
0.767132 0.712093 0.0107881
0.808606 0.713558 0.0117342
0.848981 0.715221 0.0127565
0.888502 0.717021 0.0140536
0.927321 0.719371 0.015671
0.964858 0.721553 0.0171206
1 0.723751 0.0187991
1 0.725994 0.0203098
1 0.728267 0.0218509
0 0.699474 0
0 0.702556 0
0 0.70573 0
0 0.708858 0
0 0.712444 0
0 0.715526 0
0.0373541 0.718761 0
0.0756695 0.721904 0
0.114549 0.724926 0.000656138
0.154314 0.727855 0.00282292
0.196017 0.730678 0.00508125
0.237629 0.733059 0.00680552
0.279103 0.735088 0.00822461
0.3205 0.736797 0.00959792
0.361563 0.738338 0.0106355
0.401114 0.740124 0.011841
0.439796 0.741466 0.0126955
0.478859 0.742763 0.0137179
0.520729 0.743893 0.014374
0.563561 0.74493 0.0149691
0.607385 0.745983 0.0155489
0.651606 0.747082 0.0163729
0.695171 0.748012 0.016846
0.737835 0.749065 0.0174411
0.779873 0.75024 0.0181125
0.821118 0.751522 0.019089
0.861418 0.753231 0.0202029
0.900603 0.755093 0.0214389
0.938781 0.756909 0.022858
0.975998 0.758907 0.0242161
1 0.760983 0.0256352
1 0.762966 0.0272068
1 0.765286 0.0283818
0 0.737896 0
0 0.741054 0
0 0.744671 0
0 0.747936 0
0 0.751293 0
0.012665 0.754467 0.00177005
0.0505684 0.757733 0.00424201
0.0888685 0.760967 0.00672923
0.12845 0.764385 0.00946059
