webgpu/resources/luts/LateAfternoonWanderlust.cube
TITLE "Generated by Resolve"
LUT_3D_SIZE 9
0 0 0
0 0 0
0.0949569 0 0
0.241245 0 0
0.386969 0 0
0.526879 0 0
0.677043 0 0
0.819074 0 0
0.950271 0 0
0 0.0330053 0
0 0.030457 0
0.0894179 0.0267948 0
0.233555 0.0201877 0
0.378973 0.0102083 0
0.516548 0 0
0.66714 0 0
0.811414 0 0
0.945586 0 0
0 0.131914 0
0 0.128542 0
0.078584 0.124529 0
0.221668 0.118669 0
0.368719 0.109941 0
0.508278 0.100587 0
0.662745 0.0918288 0
0.81265 0.0860609 0
0.95259 0.0844892 0
0 0.233219 0
0 0.231083 0
0.0641642 0.22916 0
0.209873 0.226429 0
0.361837 0.221347 0
0.50692 0.215976 0
0.668101 0.21181 0
0.825513 0.211261 0
0.972671 0.215366 0
0 0.34641 0
0 0.347845 0
0.0531014 0.35079 0
0.204425 0.353475 0
0.363409 0.353933 0
0.51574 0.354635 0
0.684504 0.356237 0
0.846799 0.360571 0
0.996582 0.36846 0
0 0.476219 0
0 0.483833 0
0.0632944 0.493034 0
0.221958 0.501045 0
0.383993 0.505226 0
0.541375 0.50901 0
0.713588 0.51313 0
0.876738 0.520165 0
1 0.5308 0
0 0.623453 0
0 0.634958 0
0.0916915 0.646708 0
0.254734 0.656565 0
0.416327 0.662684 0
0.581033 0.668009 0.000671397
0.754894 0.673121 0.00375372
0.915846 0.680552 0.00851453
1 0.69041 0.0154421
0 0.77641 0
0 0.790066 0.00823987
0.143404 0.803143 0.018677
0.307561 0.812329 0.025803
0.466026 0.8177 0.0293584
0.636545 0.820935 0.0315404
0.807157 0.823896 0.0334478
0.962264 0.828977 0.0371099
1 0.835752 0.0422065
0 0.929915 0.0378882
0.0529793 0.942626 0.0483406
0.207523 0.953536 0.0573739
0.366598 0.959045 0.0618143
0.522194 0.96083 0.0630045
0.692576 0.960525 0.06215
0.856718 0.960891 0.0620584
1 0.963912 0.0642863
1 0.968643 0.0679332
0 0 0.0733196
0 0 0.0712596
0.0957961 0 0.0683909
0.241825 0 0.0634012
0.38735 0 0.0553597
0.526787 0 0.0462196
0.677104 0 0.0365759
0.819211 0 0.0290227
0.950622 0 0.023743
0 0.0334936 0.0708934
0 0.0309453 0.0687114
0.0898299 0.0272221 0.0655528
0.2336 0.0205997 0.0600137
0.378988 0.0106355 0.0516976
0.516655 0 0.0423743
0.667491 0 0.0330205
0.812116 0 0.0262455
0.946517 0 0.0217594
0 0.13225 0.0650645
0 0.12871 0.0623789
0.079118 0.125002 0.059144
0.222232 0.119356 0.0547036
0.369528 0.110887 0.0476997
0.509361 0.101854 0.0404212
0.664408 0.0934462 0.0332341
0.815045 0.0881208 0.0287785
0.955398 0.0869306 0.027924
0 0.23389 0.0535134
0 0.231922 0.0523537
0.06598 0.230503 0.0514839
0.212055 0.228199 0.0496223
0.363973 0.223346 0.0464332
0.50988 0.218769 0.0430457
0.672236 0.215183 0.0397803
0.830304 0.215412 0.0389715
0.978088 0.220081 0.0414588
0 0.348348 0.0416876
0 0.35021 0.0442664
0.0568246 0.353796 0.0470893
0.209171 0.357015 0.0492866
0.368139 0.358099 0.0496986
0.52137 0.359625 0.0493019
0.690867 0.36141 0.0498054
0.852857 0.365835 0.0522011
1 0.374105 0.0578317
0 0.480003 0.0417639
0 0.488319 0.0475624
0.0691997 0.498161 0.0543374
0.22829 0.506294 0.0601968
0.389624 0.510689 0.0628519
0.548302 0.514702 0.0649424
0.720867 0.51902 0.067216
0.883894 0.526146 0.0714733
1 0.536995 0.0789197
0 0.628687 0.0554971
0 0.640558 0.0643015
0.0990311 0.652583 0.073518
0.262119 0.662318 0.0806439
0.423331 0.668727 0.084947
0.588785 0.674022 0.0882582
0.762417 0.678965 0.0911269
0.922881 0.686381 0.0961318
1 0.696056 0.102937
0 0.782483 0.0850385
0 0.796216 0.0961624
0.151263 0.809308 0.106523
0.315282 0.818112 0.113741
0.472877 0.823255 0.117617
0.643641 0.826215 0.119417
0.81326 0.828641 0.120974
0.967987 0.833707 0.124758
1 0.84007 0.129793
0 0.935821 0.126528
0.0602884 0.948241 0.136858
0.214649 0.95877 0.145571
0.372992 0.963836 0.149722
0.528267 0.96524 0.150713
0.698421 0.964614 0.150027
0.861708 0.964538 0.14966
1 0.967681 0.152132
1 0.972183 0.156161
0 0 0.160204
0 0 0.158038
0.0962387 0 0.155291
0.241733 0 0.149798
0.387472 0 0.141924
0.526589 0 0.132525
0.677012 0 0.122744
0.81915 0 0.114794
0.950729 0 0.109041
0 0.0339513 0.157671
0 0.03122 0.155047
0.0901808 0.0273747 0.151873
0.233494 0.0208133 0.146105
0.378744 0.0108186 0.137713
0.516701 0.000335698 0.12845
0.667704 0 0.118822
0.812802 0 0.111742
0.947692 0 0.107378
0 0.132372 0.151263
0 0.128908 0.148379
0.0794537 0.125338 0.145342
0.22266 0.119936 0.140856
0.370077 0.111574 0.133913
0.510491 0.10312 0.126802
0.666148 0.0950637 0.119905
0.817288 0.0900587 0.115434
0.958679 0.0895247 0.114626
0 0.234318 0.139757
0 0.232822 0.138842
0.0677501 0.231815 0.138231
0.214221 0.229969 0.136873
0.366506 0.225635 0.133227
0.513085 0.221622 0.129976
0.676219 0.218616 0.127153
0.835172 0.21912 0.126986
0.983917 0.22472 0.130831
0 0.350027 0.128389
0 0.352773 0.130983
0.0608072 0.35697 0.134173
0.21387 0.360784 0.137041
0.373037 0.362417 0.137881
0.52723 0.36437 0.13875
0.697002 0.36643 0.139406
0.859007 0.370871 0.141817
1 0.379751 0.147723
0 0.483986 0.129274
0 0.49308 0.136233
0.0754406 0.503075 0.143923
0.234211 0.51107 0.149706
0.395331 0.515999 0.152773
0.555138 0.520302 0.155093
0.728252 0.524788 0.157641
0.890944 0.532113 0.162158
1 0.542931 0.169909
0 0.63389 0.145159
0 0.646036 0.154421
0.105974 0.658366 0.163867
0.269184 0.66807 0.171298
0.430014 0.674647 0.175921
0.59649 0.679805 0.179339
0.769543 0.684581 0.182422
0.929503 0.691844 0.18764
1 0.701183 0.194736
0 0.788449 0.175845
0.00418097 0.802228 0.187366
0.158938 0.815076 0.198047
0.322271 0.823758 0.205341
0.479515 0.828458 0.209354
0.65066 0.830961 0.211551
0.819486 0.833021 0.213382
0.973449 0.837797 0.21767
1 0.8439 0.223117
0 0.941375 0.218341
0.0671244 0.953506 0.228626
0.220813 0.963363 0.237354
0.378607 0.968231 0.241871
0.533898 0.9691 0.243442
0.703502 0.968048 0.243076
0.866239 0.96788 0.243641
1 0.970901 0.246845
1 0.97499 0.25182
0 0 0.258
0 0 0.255283
0.095552 0 0.252277
0.24097 0 0.246281
0.386572 0 0.237827
0.525414 0 0.228061
0.675883 0 0.218112
0.818097 0 0.209689
0.949874 0 0.20351
0 0.0336156 0.254185
0 0.0306249 0.251011
0.0892653 0.0267796 0.247288
0.232425 0.020264 0.241001
0.377813 0.0102083 0.232227
0.515541 0.000183108 0.222614
0.667094 0 0.213199
0.81268 0 0.205783
0.948211 0 0.20148
0 0.131716 0.246021
0 0.128496 0.242786
0.078996 0.125048 0.239384
0.222583 0.119875 0.234852
0.370092 0.111925 0.227771
0.511025 0.103899 0.220722
0.667338 0.0962997 0.214023
0.819135 0.0916915 0.209689
0.961318 0.0917372 0.209354
0 0.234318 0.23357
0 0.233234 0.232609
0.0688487 0.232624 0.231998
0.215686 0.231205 0.230732
0.368597 0.227558 0.227634
0.515984 0.224125 0.224628
0.679973 0.221683 0.222309
0.839612 0.222751 0.222736
0.988861 0.228901 0.227253
0 0.351522 0.222507
0 0.354849 0.225345
0.0643626 0.359701 0.229023
0.217639 0.363973 0.232258
0.377523 0.3664 0.233997
0.532296 0.368643 0.235111
0.702052 0.370626 0.236271
0.864469 0.375555 0.239612
1 0.384771 0.246571
0 0.487617 0.224903
0 0.497276 0.23267
0.0806897 0.507576 0.240803
0.239628 0.515572 0.247181
0.400412 0.520714 0.251148
0.56112 0.5252 0.25449
0.733837 0.52958 0.257679
0.896956 0.537301 0.263798
1 0.54815 0.272801
0 0.63859 0.242786
0 0.650965 0.253544
0.112276 0.663417 0.264393
0.275349 0.673182 0.272908
0.435569 0.679728 0.278599
0.602579 0.684764 0.283085
0.775296 0.689128 0.287022
0.9346 0.696284 0.293706
1 0.705242 0.301976
0 0.793591 0.278523
0.0108339 0.807248 0.291524
0.164706 0.81976 0.303441
0.328176 0.82826 0.312276
0.48481 0.832624 0.317128
0.655695 0.834669 0.320424
0.823804 0.836393 0.323217
0.977157 0.840803 0.328389
1 0.846586 0.335164
0 0.945907 0.326757
0.0723888 0.95761 0.339239
0.225666 0.966949 0.349187
0.382895 0.971283 0.354925
0.537728 0.971862 0.35697
0.707103 0.970367 0.357168
0.869291 0.970108 0.358511
1 0.972992 0.362753
1 0.976822 0.368521
0 0 0.373709
0 0 0.370993
0.0934157 0 0.367315
0.23917 0 0.361196
0.384634 0 0.351507
0.523293 0 0.340642
0.673472 0 0.32932
0.815854 0 0.319814
0.947906 0 0.313069
0 0.0320897 0.369085
0 0.02916 0.365896
0.0869154 0.0253147 0.361318
0.230442 0.0187381 0.354696
0.375784 0.00888075 0.344839
0.513512 0 0.333989
0.665309 0 0.323583
0.811231 0 0.315602
0.947692 0 0.311131
0 0.130098 0.359731
0 0.127108 0.356252
0.0773632 0.123873 0.352651
0.22092 0.119051 0.347387
0.369039 0.111421 0.339925
0.510689 0.103731 0.332326
0.66743 0.0966812 0.325048
0.819974 0.0925765 0.320668
0.962982 0.0932021 0.320943
0 0.233494 0.346197
0 0.232837 0.345312
0.0686351 0.232654 0.344808
0.216037 0.23154 0.343526
0.36965 0.228611 0.340658
0.517861 0.225818 0.337881
0.682673 0.223941 0.335897
0.842985 0.22565 0.337163
0.992309 0.232212 0.342885
0 0.352209 0.334829
0 0.356115 0.338216
0.0666667 0.361517 0.342916
0.220569 0.366552 0.34728
0.380957 0.369543 0.349798
0.536187 0.372015 0.351751
0.70605 0.374014 0.35314
0.868467 0.3794 0.35761
1 0.388846 0.365789
0 0.490379 0.33933
0 0.500542 0.348486
0.0843061 0.510887 0.357809
0.243687 0.519234 0.365316
0.404532 0.52459 0.370138
0.566003 0.529229 0.374197
0.738827 0.533715 0.378058
0.901717 0.541558 0.385046
1 0.552331 0.39501
0 0.642283 0.360967
0 0.655009 0.372747
0.116884 0.667277 0.384665
0.280324 0.677424 0.394385
0.44033 0.683833 0.4009
0.607401 0.688457 0.40557
0.77995 0.692927 0.410285
0.938735 0.699855 0.417044
1 0.708553 0.425711
0 0.797879 0.400656
0.0158541 0.811521 0.414755
0.170138 0.823682 0.427497
0.332891 0.831861 0.4365
0.489342 0.835813 0.441611
0.659586 0.837308 0.444038
0.827405 0.839002 0.446921
0.979995 0.843122 0.452201
1 0.848646 0.459052
0 0.949538 0.451606
0.076585 0.960861 0.46392
0.229572 0.969787 0.473793
0.386069 0.973648 0.479026
0.540993 0.973907 0.480735
0.709911 0.972091 0.480797
0.871687 0.971832 0.482628
1 0.974655 0.487388
1 0.978103 0.493599
0 0 0.497612
0 0 0.494759
0.0913863 0 0.491112
0.236866 0 0.484779
0.382437 0 0.474891
0.520623 0 0.4636
0.670985 0 0.451682
0.813336 0 0.441718
0.945922 0 0.434684
0 0.0304265 0.492424
0 0.0274357 0.488731
0.0844739 0.0235447 0.484138
0.227466 0.0169528 0.476967
0.373327 0.00738537 0.467048
0.51136 0 0.456046
0.6636 0 0.445319
0.81004 0 0.437125
0.946975 0 0.432746
0 0.128328 0.482139
0 0.12546 0.478508
0.0755016 0.122484 0.474784
0.219059 0.117845 0.469474
0.367773 0.110811 0.462119
0.509972 0.103456 0.454704
0.666957 0.0966201 0.447288
0.820645 0.0932784 0.443549
0.964477 0.0945449 0.444556
0 0.232456 0.468421
0 0.232105 0.467613
0.068452 0.232486 0.467506
0.216388 0.231891 0.46656
0.37055 0.229496 0.464118
0.519493 0.227283 0.461891
0.685069 0.225879 0.460563
0.846021 0.228473 0.462928
0.995956 0.235203 0.469306
0 0.352789 0.457771
0 0.357321 0.461784
0.0686961 0.363241 0.467124
0.223484 0.368887 0.47216
0.383871 0.372396 0.475517
0.539788 0.375097 0.478019
0.710109 0.377218 0.479957
0.87274 0.383001 0.485222
1 0.392767 0.493828
0 0.493065 0.464485
0 0.5037 0.474464
0.0879988 0.513863 0.483925
0.247868 0.522576 0.492073
0.408453 0.528267 0.497475
0.570474 0.532921 0.501884
0.743832 0.537636 0.506325
0.906172 0.545602 0.513436
1 0.556268 0.523125
0 0.645869 0.487877
0 0.658701 0.500298
0.121401 0.671336 0.51194
0.28542 0.681361 0.521508
0.444953 0.687709 0.527962
0.61236 0.692058 0.532708
0.784375 0.696391 0.537591
0.942412 0.703105 0.544442
1 0.711223 0.552789
0 0.801846 0.527504
0.0204929 0.815213 0.540383
0.175036 0.827405 0.55256
0.337331 0.835157 0.561181
0.493446 0.838727 0.566445
0.663508 0.839841 0.569512
0.830533 0.84123 0.573175
0.982345 0.845151 0.578958
1 0.850111 0.585931
0 0.952789 0.575219
0.0799725 0.9635 0.586603
0.23299 0.972305 0.596689
0.388952 0.975677 0.602472
0.543496 0.975387 0.604883
0.712322 0.973663 0.606424
0.873732 0.973281 0.609186
1 0.975677 0.614496
1 0.979538 0.621103
0 0 0.623636
0 0 0.62092
0.0892653 0 0.617365
0.234363 0 0.610971
0.380224 0 0.601633
0.518135 0 0.590997
0.668132 0 0.580026
0.810849 0 0.570947
0.943725 0 0.564584
0 0.0287327 0.617929
0 0.0256046 0.614359
0.0821698 0.0216526 0.609781
0.225086 0.0151217 0.602914
0.37084 0.00588998 0.593347
0.50927 0 0.583535
0.661509 0 0.5738
0.808759 0 0.566705
0.946303 0 0.562951
0 0.126528 0.607614
0 0.123919 0.603967
0.073518 0.121004 0.600458
0.21767 0.116793 0.595712
0.366873 0.110216 0.58909
0.509361 0.10341 0.582483
0.667384 0.0969711 0.576181
0.821607 0.0942092 0.573327
0.966232 0.0960555 0.574884
0 0.231479 0.594736
0 0.23154 0.594079
0.0684215 0.232151 0.593927
0.21706 0.232471 0.593759
0.371862 0.230716 0.59205
0.521569 0.229068 0.590661
0.688106 0.228214 0.590127
0.849668 0.231373 0.59324
0.999603 0.238437 0.599893
0 0.353521 0.585748
0 0.358755 0.590021
0.0710307 0.365225 0.595499
0.226825 0.371603 0.601175
0.387015 0.375494 0.6047
0.543191 0.377997 0.607279
0.714092 0.380804 0.610361
0.877226 0.386969 0.615869
1 0.39704 0.624903
0 0.496086 0.594324
0 0.506996 0.603967
0.0918746 0.51725 0.613474
0.252232 0.526268 0.621622
0.412726 0.532219 0.62742
0.575357 0.536919 0.63212
0.748837 0.542031 0.637217
0.911345 0.549935 0.644694
1 0.560494 0.654246
0 0.649805 0.618204
0 0.662806 0.630411
0.126787 0.675578 0.642512
0.290455 0.685725 0.652277
0.449607 0.691981 0.658976
0.617487 0.696178 0.663844
0.789227 0.700221 0.66865
0.946548 0.706691 0.675364
1 0.714397 0.683497
0 0.806226 0.658549
0.0259403 0.819303 0.671824
0.180209 0.831434 0.684291
0.342077 0.838819 0.692851
0.497627 0.841871 0.69752
0.668086 0.84271 0.700359
0.834287 0.843915 0.703273
0.985214 0.847623 0.708492
1 0.852491 0.714397
0 0.956344 0.706996
0.0842603 0.966827 0.718212
0.237049 0.975204 0.727825
0.392203 0.978271 0.732555
0.547066 0.977661 0.734112
0.715938 0.975814 0.734508
0.876829 0.975509 0.736095
1 0.977768 0.740017
1 0.981933 0.745708
0 0 0.741054
0 0 0.738308
0.0885176 0 0.735271
0.233234 0 0.729061
0.379049 0 0.719997
0.516686 0 0.709804
0.666499 0 0.699092
0.809903 0 0.690593
0.942931 0 0.684733
0 0.0280003 0.736141
0 0.0247807 0.732906
0.0807355 0.0208591 0.728588
0.223835 0.0144198 0.722515
0.369726 0.00537118 0.713542
0.5084 0 0.704402
0.661006 0 0.695277
0.808988 0 0.688792
0.947219 0 0.685802
0 0.125841 0.727245
0 0.123369 0.724453
0.0730602 0.120714 0.721462
0.217609 0.116884 0.717754
0.367285 0.110735 0.711727
0.510201 0.104387 0.705852
0.669062 0.0986343 0.70045
0.824308 0.096437 0.698238
0.969726 0.0988937 0.700236
0 0.231693 0.71696
0 0.232197 0.717098
0.0698711 0.233295 0.717769
0.219226 0.234241 0.718379
0.374624 0.233158 0.717372
0.5252 0.231907 0.716442
0.692515 0.231998 0.716304
0.854749 0.235462 0.71928
1 0.242603 0.725368
0 0.35555 0.710552
0 0.361257 0.715297
0.0748913 0.368688 0.721492
0.231708 0.375677 0.727337
0.391562 0.379797 0.73077
0.548516 0.382422 0.732784
0.719997 0.385626 0.735348
0.883284 0.392172 0.740688
1 0.402197 0.748898
0 0.500267 0.720348
0 0.511055 0.729564
0.0972152 0.522011 0.738933
0.258228 0.531289 0.746853
0.418494 0.537438 0.752056
0.58201 0.542306 0.756085
0.755886 0.547478 0.760327
0.917601 0.55555 0.76704
1 0.565728 0.775555
0 0.654963 0.743297
0 0.668009 0.754818
0.133455 0.681224 0.766308
0.297414 0.691173 0.775464
0.455604 0.697002 0.780835
0.624506 0.701259 0.784878
0.795514 0.705135 0.788602
0.952117 0.71136 0.794202
1 0.718761 0.801053
0 0.81178 0.78172
0.0326696 0.824811 0.793866
0.187228 0.83653 0.805203
0.348379 0.843503 0.812482
0.503502 0.846067 0.815915
0.673686 0.846769 0.817578
0.839399 0.847654 0.819684
0.989899 0.851072 0.82388
1 0.855863 0.829297
0 0.961028 0.826322
0.0899825 0.971237 0.836576
0.242435 0.979187 0.844938
0.396902 0.981781 0.848569
0.552026 0.981033 0.849317
0.72079 0.979049 0.848859
0.8813 0.978775 0.849744
1 0.980804 0.853773
1 0.984848 0.858534
0 0 0.850599
0 0 0.847929
0.088426 0 0.844388
0.233051 0 0.838315
0.378653 0 0.829221
0.516274 0 0.819135
0.666224 0 0.808682
0.809995 0 0.800351
0.943465 0 0.79501
0 0.0280156 0.845502
0 0.0247807 0.842115
0.080415 0.0207218 0.837934
0.223743 0.0146181 0.83209
0.369802 0.00581369 0.823453
0.508827 0 0.81471
0.661982 0 0.806043
0.810666 0 0.800198
0.949432 0 0.79765
0 0.126055 0.836896
0 0.123827 0.834516
0.0739452 0.121447 0.832029
0.218952 0.118135 0.828702
0.368841 0.112428 0.823438
0.512489 0.106355 0.817853
0.672297 0.101411 0.813107
0.828534 0.0998398 0.811734
0.974899 0.102922 0.814191
0 0.233021 0.828336
0 0.233967 0.828977
0.0728008 0.235767 0.830152
0.222934 0.237247 0.831495
0.378927 0.236713 0.830945
0.530159 0.23624 0.830335
0.698894 0.236835 0.830823
0.861051 0.240665 0.83389
1 0.247868 0.839887
0 0.358846 0.823926
0 0.365209 0.828992
0.080705 0.37322 0.835767
0.237842 0.380774 0.841917
0.397055 0.384955 0.845014
0.555184 0.387945 0.847242
0.727199 0.391501 0.849867
0.890517 0.398352 0.855238
1 0.40853 0.863432
0 0.50547 0.834897
0 0.516396 0.844022
0.104356 0.527672 0.853452
0.265461 0.537285 0.861479
0.424842 0.543267 0.866377
0.589807 0.548501 0.870588
0.763409 0.55375 0.874434
0.92488 0.561425 0.880476
1 0.571649 0.889021
0 0.660838 0.857847
0 0.674342 0.869688
0.141558 0.687526 0.881239
0.304967 0.697475 0.889326
0.462394 0.703044 0.894408
0.631739 0.706935 0.89807
0.802365 0.71043 0.901503
0.957763 0.716014 0.906722
1 0.723339 0.91371
0 0.817731 0.895399
0.0406043 0.830762 0.907805
0.194675 0.842145 0.918853
0.355001 0.848615 0.925719
0.509621 0.850782 0.928725
0.680003 0.850904 0.930236
0.844831 0.851575 0.932021
0.994476 0.854673 0.936019
1 0.85948 0.941543
0 0.966003 0.939452
0.0961166 0.975921 0.949477
0.247868 0.983444 0.957046
0.401373 0.985367 0.960281
0.557229 0.984558 0.960998
0.72578 0.982437 0.96051
0.885786 0.981689 0.961212
1 0.984237 0.965301
1 0.987655 0.96939
