webgpu/resources/luts/LateAfternoonWanderlust.cube
TITLE "Generated by Resolve"
LUT_3D_SIZE 5
0 0 0
0.0949569 0 0
0.386969 0 0
0.677043 0 0
0.950271 0 0
0 0.131914 0
0.078584 0.124529 0
0.368719 0.109941 0
0.662745 0.0918288 0
0.95259 0.0844892 0
0 0.34641 0
0.0531014 0.35079 0
0.363409 0.353933 0
0.684504 0.356237 0
0.996582 0.36846 0
0 0.623453 0
0.0916915 0.646708 0
0.416327 0.662684 0
0.754894 0.673121 0.00375372
1 0.69041 0.0154421
0 0.929915 0.0378882
0.207523 0.953536 0.0573739
0.522194 0.96083 0.0630045
0.856718 0.960891 0.0620584
1 0.968643 0.0679332
0 0 0.160204
0.0962387 0 0.155291
0.387472 0 0.141924
0.677012 0 0.122744
0.950729 0 0.109041
0 0.132372 0.151263
0.0794537 0.125338 0.145342
0.370077 0.111574 0.133913
0.666148 0.0950637 0.119905
0.958679 0.0895247 0.114626
0 0.350027 0.128389
0.0608072 0.35697 0.134173
0.373037 0.362417 0.137881
0.697002 0.36643 0.139406
1 0.379751 0.147723
0 0.63389 0.145159
0.105974 0.658366 0.163867
0.430014 0.674647 0.175921
0.769543 0.684581 0.182422
1 0.701183 0.194736
0 0.941375 0.218341
0.220813 0.963363 0.237354
0.533898 0.9691 0.243442
0.866239 0.96788 0.243641
1 0.97499 0.25182
0 0 0.373709
0.0934157 0 0.367315
0.384634 0 0.351507
0.673472 0 0.32932
0.947906 0 0.313069
0 0.130098 0.359731
0.0773632 0.123873 0.352651
0.369039 0.111421 0.339925
0.66743 0.0966812 0.325048
0.962982 0.0932021 0.320943
0 0.352209 0.334829
0.0666667 0.361517 0.342916
0.380957 0.369543 0.349798
0.70605 0.374014 0.35314
1 0.388846 0.365789
0 0.642283 0.360967
0.116884 0.667277 0.384665
0.44033 0.683833 0.4009
0.77995 0.692927 0.410285
1 0.708553 0.425711
0 0.949538 0.451606
0.229572 0.969787 0.473793
0.540993 0.973907 0.480735
0.871687 0.971832 0.482628
1 0.978103 0.493599
0 0 0.623636
0.0892653 0 0.617365
0.380224 0 0.601633
0.668132 0 0.580026
0.943725 0 0.564584
0 0.126528 0.607614
0.073518 0.121004 0.600458
0.366873 0.110216 0.58909
0.667384 0.0969711 0.576181
0.966232 0.0960555 0.574884
0 0.353521 0.585748
0.0710307 0.365225 0.595499
0.387015 0.375494 0.6047
0.714092 0.380804 0.610361
1 0.39704 0.624903
0 0.649805 0.618204
0.126787 0.675578 0.642512
0.449607 0.691981 0.658976
0.789227 0.700221 0.66865
1 0.714397 0.683497
0 0.956344 0.706996
0.237049 0.975204 0.727825
0.547066 0.977661 0.734112
0.876829 0.975509 0.736095
1 0.981933 0.745708
0 0 0.850599
0.088426 0 0.844388
0.378653 0 0.829221
0.666224 0 0.808682
0.943465 0 0.79501
0 0.126055 0.836896
0.0739452 0.121447 0.832029
0.368841 0.112428 0.823438
0.672297 0.101411 0.813107
0.974899 0.102922 0.814191
0 0.358846 0.823926
0.080705 0.37322 0.835767
0.397055 0.384955 0.845014
0.727199 0.391501 0.849867
1 0.40853 0.863432
0 0.660838 0.857847
0.141558 0.687526 0.881239
0.462394 0.703044 0.894408
0.802365 0.71043 0.901503
1 0.723339 0.91371
0 0.966003 0.939452
0.247868 0.983444 0.957046
0.557229 0.984558 0.960998
0.885786 0.981689 0.961212
1 0.987655 0.96939
