webgpu/resources/luts/taşdemirrr_1.A006_04280540_S.cube
TITLE "Generated by Resolve"
LUT_3D_SIZE 9
0 0 0
0.0533761 0 0
0.109667 0 0
0.207614 0 0
0.338445 0 0
0.483253 0 0
0.631632 0 0
0.7673 0 0
0.886442 0 0
0 0.0533761 0
0.0533761 0.0533761 0
0.109728 0.0533761 0
0.208042 0.0533761 0
0.339025 0.0533761 0
0.483711 0.0533761 0
0.632349 0.0533761 0
0.76878 0.0533761 0
0.889632 0.0533761 0
0 0.128649 0
0.0533761 0.128603 0
0.10985 0.122698 1.5259e-05
0.203937 0.123796 0
0.334462 0.120867 0
0.482643 0.116854 0
0.635813 0.113878 0
0.776745 0.114778 0
0.901854 0.119768 0
0 0.22829 0
0.0533761 0.229389 0
0.108934 0.229007 0
0.20885 0.229648 7.62951e-05
0.337133 0.230426 0
0.481849 0.232319 0
0.637034 0.233936 0
0.781903 0.23949 0
0.911238 0.249454 0
0 0.348638 0
0.0533761 0.353735 0
0.106752 0.359289 0
0.203983 0.364385 0
0.344259 0.364904 9.15541e-05
0.493492 0.368002 0
0.643122 0.375158 0
0.784405 0.384558 0
0.911986 0.396277 0
0 0.48986 0
0.0533761 0.499443 0
0.106752 0.509209 0
0.203769 0.516884 0
0.345327 0.518471 0
0.501717 0.517998 0.000183108
0.657481 0.520653 0
0.797574 0.52961 0
0.922881 0.542626 0
0 0.644343 0
0.0533761 0.654917 0
0.106752 0.664881 0
0.205325 0.672511 0
0.347219 0.67422 0
0.504341 0.67425 7.62951e-05
0.665354 0.674525 0.000289921
0.81004 0.679774 0
0.93611 0.689632 0
0 0.796109 0
0.0533761 0.807111 0
0.110231 0.8177 0
0.218387 0.825177 0
0.361181 0.825849 0
0.517433 0.823941 0
0.676219 0.821653 0.000213626
0.820279 0.822416 0.000381476
0.945418 0.827237 0
0 0.943191 0
0.0533761 0.952926 0
0.125978 0.961578 0
0.239734 0.966186 0
0.381643 0.963333 0
0.535271 0.957595 0
0.6907 0.951385 0.000106813
0.831006 0.948394 0.000320439
0.953597 0.949111 0.000427253
0 0 0.0533761
0.0533761 0 0.0533761
0.109682 0 0.0533761
0.207675 0 0.0533761
0.338598 0 0.0533761
0.483177 0 0.0533761
0.631785 0 0.0533761
0.767376 0 0.0533761
0.886519 0 0.0533761
0 0.0533761 0.0533761
0.0533761 0.0533761 0.0533761
0.109773 0.0533761 0.0533761
0.208103 0.0533761 0.0533761
0.339086 0.0533761 0.0533761
0.483864 0.0533761 0.0533761
0.63267 0.0533761 0.0533761
0.769268 0.0533761 0.0533761
0.890562 0.0533761 0.0533761
0 0.128649 0.0533761
0.0533761 0.128603 0.0533761
0.109865 0.122759 0.0533913
0.204242 0.124056 0.0533761
0.334966 0.121309 0.0533761
0.483497 0.11751 0.0533761
0.637095 0.114961 0.0533761
0.778485 0.116213 0.0533761
0.904051 0.121569 0.0533761
0 0.228611 0.0533761
0.0533761 0.229969 0.0533761
0.109285 0.23003 0.0533761
0.210208 0.230991 0.0534524
0.339117 0.232151 0.0533761
0.484306 0.234531 0.0533761
0.639948 0.236683 0.0533761
0.785199 0.242618 0.0533761
0.914717 0.252827 0.0533761
0 0.350195 0.0533761
0.0533761 0.355795 0.0533761
0.106752 0.361761 0.0533761
0.206622 0.36733 0.0533761
0.347662 0.368139 0.0534676
0.497368 0.371344 0.0533761
0.647196 0.378546 0.0533761
0.788327 0.38793 0.0533761
0.915877 0.399451 0.0533761
0 0.493034 0.0533761
0.0533761 0.502907 0.0533761
0.106752 0.512749 0.0533761
0.206851 0.520439 0.0533761
0.348806 0.521965 0.0533761
0.505455 0.521492 0.0535592
0.66154 0.524193 0.0533761
0.801785 0.53312 0.0533761
0.927169 0.546227 0.0533761
0 0.647959 0.0533761
0.0533761 0.658396 0.0533761
0.106752 0.668421 0.0533761
0.208347 0.676158 0.0533761
0.350835 0.677882 0.0533761
0.508095 0.677821 0.0534524
0.669108 0.677958 0.0536507
0.813672 0.682963 0.0533761
0.939605 0.692576 0.0533761
0 0.799802 0.0533761
0.0533761 0.810819 0.0533761
0.111543 0.821317 0.0533761
0.221393 0.82858 0.0539712
0.36434 0.829007 0.0543221
0.520409 0.826871 0.0533761
0.678904 0.824048 0.0535744
0.82266 0.824491 0.0537423
0.947387 0.829023 0.0540932
0 0.946639 0.0545815
0.0533761 0.956069 0.062623
0.127825 0.964492 0.0699016
0.241703 0.968566 0.0738384
0.38349 0.965331 0.0713054
0.53695 0.959243 0.0662394
0.691981 0.952483 0.0606699
0.831998 0.949172 0.0580301
0.954253 0.94966 0.0585489
0 0 0.150408
0.0533761 0 0.150408
0.10753 0 0.150103
0.214389 0 0.133623
0.345876 0 0.106752
0.488792 0 0.106752
0.635248 0 0.106752
0.76939 0 0.106752
0.888273 0 0.106752
0 0.0533761 0.150347
0.0533761 0.0533761 0.150347
0.107576 0.0533761 0.150011
0.214786 0.0533761 0.133394
0.346334 0.0533761 0.106752
0.489387 0.0533761 0.106752
0.636469 0.0533761 0.106752
0.772366 0.0533761 0.106752
0.894209 0.0533761 0.106752
0 0.131746 0.142855
0.0533761 0.131685 0.142794
0.106752 0.132265 0.149142
0.209262 0.122927 0.13193
0.342443 0.119371 0.106752
0.49015 0.11635 0.106752
0.643305 0.114321 0.106752
0.785107 0.115953 0.106752
0.912291 0.121263 0.106752
0 0.233677 0.151385
0.0533761 0.23508 0.153445
0.106752 0.237201 0.148074
0.211337 0.232624 0.149096
0.341009 0.23473 0.122194
0.490532 0.236103 0.106767
0.648203 0.237934 0.106752
0.794888 0.243717 0.106752
0.926436 0.253437 0.106752
0 0.353597 0.127855
0.0533761 0.359976 0.134966
0.107057 0.366125 0.139528
0.209094 0.370367 0.145663
0.350835 0.37145 0.146807
0.499947 0.375433 0.130663
0.650813 0.382681 0.107607
0.793851 0.391257 0.106752
0.923156 0.402243 0.106752
0 0.496727 0.118837
0.0533761 0.507103 0.128923
0.106752 0.517143 0.137728
0.20972 0.524147 0.14519
0.351904 0.525368 0.146838
0.50901 0.525048 0.146746
0.664729 0.52813 0.138064
0.804303 0.537743 0.122194
0.929519 0.550927 0.111833
0 0.65182 0.119661
0.0533761 0.662333 0.12961
0.107179 0.672511 0.138369
0.2112 0.679805 0.14583
0.354177 0.681605 0.147768
0.51165 0.681468 0.148058
0.672557 0.681453 0.148302
0.816663 0.686305 0.147478
0.941711 0.695903 0.145525
0 0.803861 0.133303
0.0533761 0.814923 0.143954
0.111925 0.825422 0.151965
0.224002 0.831998 0.158618
0.367071 0.832197 0.159091
0.522957 0.829679 0.157214
0.681208 0.826444 0.154742
0.824598 0.82652 0.154986
0.948775 0.830732 0.156405
0 0.950118 0.162188
0.0533761 0.959655 0.169574
0.128618 0.96759 0.174472
0.243397 0.971008 0.178164
0.385077 0.967208 0.175204
0.538186 0.960739 0.169818
0.692958 0.953735 0.163867
0.832578 0.950118 0.160937
0.954589 0.950378 0.161257
0 0.0081178 0.262348
0.0533761 0.00810254 0.262287
0.106752 0 0.262348
0.203708 0 0.259831
0.349432 0 0.236408
0.498894 0 0.193683
0.646708 0 0.160586
0.781308 0 0.160128
0.900465 0 0.160128
0 0.0614633 0.262211
0.0533761 0.0614328 0.262074
0.106752 0.0533761 0.262272
0.204334 0.0533761 0.259678
0.349935 0.0533761 0.235966
0.499672 0.0533761 0.193378
0.648356 0.0533761 0.161288
0.784985 0.0533761 0.160128
0.907423 0.0533761 0.160128
0 0.152377 0.239078
0.0533761 0.152377 0.239078
0.106752 0.145174 0.261097
0.197436 0.122667 0.260441
0.352132 0.114534 0.2327
0.502495 0.113207 0.196262
0.656306 0.111391 0.168276
0.798642 0.112383 0.160128
0.926436 0.117952 0.160128
0 0.234546 0.238346
0.0533761 0.236561 0.239994
0.106752 0.242359 0.251957
0.178882 0.245686 0.262196
0.349386 0.234073 0.23592
0.503151 0.234257 0.207736
0.66215 0.236088 0.181598
0.809339 0.24213 0.167803
0.941878 0.251637 0.16173
0 0.354223 0.25951
0.0533761 0.359792 0.267842
0.106752 0.373449 0.267002
0.196994 0.378882 0.260395
0.35314 0.374319 0.261723
0.501183 0.379522 0.238163
0.656382 0.38526 0.206043
0.802441 0.392599 0.186831
0.933471 0.402914 0.178805
0 0.500237 0.246998
0.0533761 0.510079 0.259892
0.106752 0.522744 0.261357
0.207416 0.528969 0.260197
0.354284 0.528084 0.261646
0.511528 0.527794 0.261707
0.666209 0.531807 0.249683
0.805508 0.541772 0.229374
0.931548 0.554788 0.216876
0 0.654521 0.244617
0.0533761 0.664561 0.256687
0.10724 0.676875 0.259388
0.211185 0.684001 0.260853
0.356634 0.68452 0.262791
0.514214 0.684169 0.262928
0.674998 0.684077 0.262959
0.818387 0.688975 0.260777
0.942397 0.698573 0.256611
0 0.80592 0.25893
0.0533761 0.816419 0.271336
0.111055 0.829358 0.271321
0.224292 0.835462 0.273243
0.368872 0.83447 0.273411
0.524605 0.831556 0.271168
0.682445 0.828092 0.268299
0.825452 0.827634 0.268238
0.948898 0.831403 0.26894
0 0.9505 0.289967
0.0533761 0.960235 0.295247
0.12845 0.970428 0.292363
0.242969 0.972946 0.291585
0.385733 0.968338 0.288334
0.538491 0.961395 0.282536
0.692897 0.954009 0.276371
0.832181 0.949996 0.273091
0.953841 0.950011 0.273198
0 0.0251164 0.397833
0.0533761 0.0251011 0.397772
0.106752 0.010193 0.397833
0.166476 0 0.395422
0.336202 0 0.387243
0.491691 0 0.367895
0.651804 0 0.328344
0.791241 0 0.296193
0.912093 0 0.276799
0 0.0784619 0.397696
0.0533761 0.0784466 0.397635
0.106752 0.063447 0.397757
0.166812 0.0533761 0.395209
0.336889 0.0533761 0.387106
0.492729 0.0533761 0.367773
0.653925 0.0533761 0.329458
0.795605 0.0533761 0.299458
0.920104 0.0533761 0.282933
0 0.171496 0.386328
0.0533761 0.171588 0.386358
0.106752 0.160693 0.397513
0.160128 0.1364 0.396674
0.340963 0.113207 0.39057
0.501396 0.109987 0.371664
0.665736 0.108598 0.336843
0.812161 0.109239 0.312093
0.941894 0.112505 0.300282
0 0.266667 0.334585
0.0533761 0.269123 0.335393
0.106752 0.272709 0.367147
0.160128 0.263996 0.399969
0.347021 0.230686 0.398032
0.516091 0.227832 0.37438
0.679362 0.229206 0.343633
0.827726 0.23534 0.325246
0.960037 0.245335 0.31783
0.00350958 0.358358 0.347967
0.0565652 0.365301 0.353323
0.124681 0.375509 0.368078
0.204257 0.385779 0.387976
0.323812 0.386313 0.399741
0.509438 0.37847 0.373358
0.670375 0.381781 0.348714
0.818311 0.388022 0.332815
0.950088 0.398322 0.326177
0.0233463 0.490684 0.400046
0.0824445 0.500175 0.409216
0.14435 0.51574 0.42031
0.203464 0.535378 0.417639
0.344747 0.533242 0.400214
0.51191 0.528878 0.400137
0.664439 0.53434 0.37908
0.806577 0.543816 0.356359
0.935927 0.555444 0.34612
0.00447089 0.647639 0.41355
0.0636301 0.656641 0.425254
0.125277 0.673594 0.426902
0.205097 0.689204 0.41387
0.353719 0.687083 0.401358
0.514473 0.685084 0.401282
0.675074 0.684627 0.401129
0.816892 0.689982 0.396002
0.939361 0.699901 0.387137
0.00381476 0.799374 0.428168
0.0608835 0.808957 0.441062
0.12697 0.826978 0.435691
0.220783 0.83856 0.422385
0.366873 0.835477 0.411215
0.523842 0.831235 0.408621
0.68127 0.827314 0.405402
0.823728 0.826703 0.404974
0.946365 0.830381 0.404547
0.0101778 0.942123 0.459007
0.0727092 0.952529 0.463004
0.140444 0.967529 0.452811
0.239887 0.974121 0.437751
0.382864 0.967712 0.424872
0.536477 0.959747 0.418784
0.690471 0.952117 0.412268
0.829374 0.947951 0.408789
0.950729 0.947677 0.408652
0 0.0438392 0.542062
0.0533761 0.0438239 0.542
0.106752 0.0299535 0.542046
0.160128 0.00654612 0.539635
0.313603 0 0.531624
0.478218 0 0.521981
0.634241 0 0.507057
0.781308 0 0.485725
0.90869 0 0.467552
0 0.0971847 0.541924
0.0533761 0.0971847 0.541924
0.106752 0.0831922 0.541909
0.160128 0.0597086 0.539422
0.314626 0.0533761 0.531487
0.479377 0.0533761 0.522332
0.636851 0.0533761 0.508598
0.786221 0.0533761 0.489632
0.917113 0.0533761 0.475181
0 0.188159 0.53576
0.0533761 0.188418 0.535912
0.106752 0.177157 0.54226
0.160128 0.153582 0.541451
0.313497 0.115389 0.535912
0.488716 0.110124 0.52987
0.65127 0.108034 0.519509
0.805859 0.107866 0.504463
0.942428 0.10901 0.493767
0 0.29427 0.49688
0.0533761 0.297536 0.497597
0.106752 0.295705 0.52575
0.160128 0.282673 0.546151
0.296986 0.241093 0.544945
0.504814 0.228061 0.543343
0.674739 0.226337 0.533608
0.833219 0.229419 0.516686
0.970611 0.238254 0.506249
0 0.395193 0.430014
0.0533761 0.402579 0.433936
0.106752 0.41352 0.455772
0.160128 0.42298 0.499046
0.253407 0.407691 0.548135
0.510735 0.374899 0.548074
0.684123 0.374365 0.528084
0.835859 0.380102 0.507118
0.968688 0.390326 0.498527
0.0287938 0.504891 0.472389
0.0853285 0.51545 0.480247
0.156283 0.527825 0.496468
0.237949 0.538506 0.516777
0.350866 0.540688 0.536843
0.488762 0.537743 0.546044
0.671077 0.533318 0.520943
0.818952 0.540078 0.504829
0.95053 0.550469 0.498039
0.0735637 0.639048 0.537697
0.131106 0.649287 0.545663
0.197696 0.663417 0.560632
0.266545 0.679072 0.574746
0.351553 0.692256 0.569024
0.508598 0.687373 0.548592
0.674144 0.684535 0.547982
0.813275 0.690837 0.535332
0.93579 0.700877 0.520531
0.0794995 0.784573 0.584436
0.138445 0.7944 0.593347
0.196414 0.812619 0.603098
0.261234 0.830243 0.600931
0.360052 0.839139 0.574395
0.5205 0.831144 0.55494
0.679118 0.82594 0.551369
0.821073 0.824796 0.55053
0.942351 0.828534 0.547982
0.0859083 0.92546 0.623941
0.146105 0.935531 0.630686
0.197635 0.953231 0.630121
0.268147 0.966354 0.616754
0.377295 0.968521 0.583917
0.532387 0.958068 0.563989
0.687022 0.949477 0.557122
0.825498 0.944991 0.553429
0.946517 0.944564 0.553063
0 0.0623789 0.685527
0.0533761 0.0623789 0.685527
0.106752 0.0494392 0.685496
0.160128 0.0267491 0.683085
0.260075 0 0.675135
0.468788 0 0.665476
0.622919 0 0.656168
0.762875 0 0.648447
0.889342 0 0.641947
0 0.115709 0.685313
0.0533761 0.115724 0.685389
0.106752 0.102708 0.685359
0.160128 0.0799268 0.682872
0.261707 0.0533761 0.675074
0.470558 0.0533761 0.666178
0.626184 0.0533761 0.658335
0.768887 0.0533761 0.653025
0.899001 0.0533761 0.650019
0 0.204013 0.681575
0.0533761 0.204425 0.681865
0.106752 0.193698 0.68629
0.160128 0.170672 0.685603
0.256809 0.125841 0.680476
0.480659 0.109133 0.674952
0.641733 0.107958 0.671183
0.790082 0.108232 0.670207
0.926101 0.109819 0.671504
0 0.314458 0.654108
0.0533761 0.318471 0.655482
0.106752 0.315053 0.676509
0.160128 0.300862 0.691737
0.233326 0.258946 0.691051
0.493538 0.227741 0.689937
0.664805 0.228138 0.690059
0.818326 0.23125 0.691386
0.958099 0.238254 0.692287
0 0.431952 0.574456
0.0533761 0.440406 0.576257
0.106752 0.449241 0.608392
0.160128 0.451331 0.661982
0.214176 0.427588 0.695003
0.475929 0.381506 0.69543
0.672847 0.375631 0.695811
0.828168 0.378408 0.69398
0.968612 0.386038 0.689815
0 0.541299 0.543999
0.0533761 0.55169 0.550988
0.106752 0.564401 0.569406
0.162249 0.575738 0.596063
0.24921 0.577996 0.642649
0.420539 0.558556 0.694453
0.674006 0.529534 0.695369
0.831708 0.533288 0.684138
0.967193 0.542519 0.673747
0.0598459 0.659785 0.600855
0.11635 0.670451 0.608621
0.187594 0.683238 0.625177
0.270466 0.694133 0.645731
0.385504 0.695964 0.666117
0.515221 0.694026 0.685817
0.661418 0.688609 0.692531
0.816861 0.68954 0.674113
0.944564 0.696941 0.664317
0.11223 0.791348 0.667369
0.168826 0.801816 0.674907
0.238819 0.815396 0.693065
0.32134 0.825208 0.71075
0.42295 0.828138 0.724071
0.521965 0.833143 0.719417
0.675303 0.82504 0.696498
0.818189 0.823011 0.695125
0.937163 0.827482 0.686732
0.139208 0.923506 0.723995
0.201541 0.932021 0.732799
0.264271 0.944366 0.746715
0.341741 0.952102 0.75671
0.428443 0.955917 0.754528
0.528191 0.958511 0.72575
0.682597 0.947112 0.701289
0.821637 0.941878 0.697383
0.942397 0.941238 0.696757
0 0.0779889 0.814801
0.0533761 0.0779736 0.814725
0.106752 0.0657511 0.814755
0.160128 0.0436103 0.812284
0.215946 0.00434882 0.80441
0.446769 0 0.794736
0.619776 0 0.785473
0.756085 0 0.780194
0.878218 0 0.778714
0 0.131334 0.814649
0.0533761 0.131334 0.814649
0.106752 0.11899 0.814618
0.160128 0.0967117 0.812207
0.216068 0.0574044 0.804547
0.4495 0.0533761 0.79585
0.623911 0.0533761 0.788342
0.763226 0.0533761 0.785809
0.889403 0.0533761 0.787808
0 0.217975 0.811841
0.0533761 0.218601 0.812268
0.106752 0.208194 0.816159
0.160128 0.185855 0.815793
0.217899 0.139727 0.811002
0.460136 0.110002 0.805966
0.64123 0.107744 0.80267
0.786099 0.108736 0.804623
0.918166 0.11133 0.810956
0 0.330694 0.790356
0.0533761 0.335378 0.792325
0.106752 0.331731 0.810239
0.160128 0.317235 0.823392
0.213504 0.275761 0.823117
0.465293 0.23389 0.822431
0.66508 0.228077 0.822843
0.814267 0.233783 0.827436
0.949142 0.241566 0.83505
0 0.457725 0.721416
0.0533761 0.467277 0.723339
0.106752 0.474113 0.755932
0.160128 0.471824 0.80293
0.213504 0.445106 0.827848
0.426062 0.396033 0.828061
0.670649 0.375647 0.828473
0.822065 0.38117 0.832883
0.957641 0.389395 0.839948
0 0.576822 0.645777
0.0533761 0.587274 0.651057
0.106752 0.599893 0.675868
0.160128 0.610056 0.720546
0.213504 0.604715 0.78912
0.366949 0.576288 0.827451
0.658518 0.532769 0.828489
0.823392 0.535637 0.832807
0.959548 0.54313 0.837385
0.00276188 0.689784 0.664942
0.0619821 0.700496 0.672816
0.128954 0.713527 0.689998
0.209705 0.724926 0.71252
0.317922 0.727504 0.737911
0.435554 0.72607 0.777356
0.604852 0.706676 0.82652
0.820157 0.686595 0.828321
0.95433 0.691218 0.822248
0.0885176 0.813687 0.726726
0.144854 0.824094 0.734157
0.217411 0.83682 0.752651
0.305226 0.844739 0.771313
0.419532 0.843229 0.788937
0.547463 0.837263 0.805463
0.678721 0.830137 0.820874
0.812329 0.823743 0.825055
0.938369 0.82594 0.810712
0.13695 0.939406 0.786984
0.199893 0.947326 0.795712
0.268681 0.957153 0.811795
0.356542 0.960861 0.826795
0.46537 0.956374 0.840467
0.581369 0.94931 0.851148
0.68632 0.946914 0.845472
0.818067 0.940551 0.827207
0.939559 0.939239 0.826307
0 0.0897688 0.925475
0.0533761 0.0897536 0.925399
0.106752 0.0777295 0.925444
0.160128 0.0558175 0.923033
0.213504 0.0157168 0.915084
0.422156 0 0.905409
0.614908 0 0.896223
0.755703 0 0.891127
0.875608 0 0.8907
0 0.143114 0.925399
0.0533761 0.143114 0.925399
0.106752 0.130983 0.925368
0.160128 0.108965 0.923033
0.213504 0.0686656 0.915511
0.425986 0.0533761 0.907088
0.620157 0.0533761 0.899947
0.76408 0.0533761 0.89778
0.888426 0.0533761 0.901015
0 0.229435 0.923049
0.0533761 0.230243 0.923674
0.106752 0.220035 0.927474
0.160128 0.198154 0.927443
0.213504 0.151858 0.923156
0.437278 0.112779 0.918547
0.639384 0.108125 0.91574
0.788724 0.109346 0.91812
0.918822 0.11281 0.925689
0 0.34403 0.904738
0.0533761 0.349325 0.907179
0.106752 0.345541 0.924224
0.160128 0.330983 0.936614
0.213504 0.289982 0.936736
0.436851 0.243427 0.936324
0.662943 0.230198 0.93695
0.817731 0.235737 0.941649
0.94966 0.244877 0.950317
0 0.476402 0.843915
0.0533761 0.486793 0.846311
0.106752 0.492439 0.878935
0.160128 0.488212 0.920974
0.213504 0.459663 0.941833
0.388083 0.410071 0.942092
0.662501 0.379141 0.942504
0.825177 0.383429 0.947066
0.957534 0.393088 0.955871
0 0.60412 0.755184
0.0533761 0.614755 0.75906
0.106752 0.626688 0.790616
0.160128 0.634058 0.84448
0.213504 0.622858 0.911315
0.329747 0.59118 0.941695
0.630793 0.542596 0.942596
0.825376 0.537621 0.946944
0.957382 0.546609 0.954803
0 0.717296 0.739086
0.0533761 0.727886 0.746273
0.106752 0.741497 0.766506
0.162127 0.753002 0.794263
0.246891 0.755581 0.834012
0.368246 0.749371 0.898772
0.566079 0.721019 0.940185
0.81355 0.688853 0.942077
0.948547 0.693477 0.946654
0.0510872 0.836942 0.787717
0.107454 0.847089 0.795041
0.180285 0.859785 0.813977
0.267094 0.867491 0.832853
0.378836 0.865873 0.851133
0.50193 0.86041 0.870237
0.623453 0.853635 0.899565
0.77142 0.836896 0.938201
0.941344 0.823667 0.938613
0.114183 0.95848 0.84506
0.17789 0.966003 0.853773
0.247639 0.975113 0.869596
0.337209 0.977981 0.884398
0.449638 0.971832 0.898177
0.574456 0.961746 0.911147
0.7037 0.950484 0.923217
0.82211 0.943557 0.934096
0.935576 0.93991 0.936568
