webgpu/resources/luts/taşdemirrr_1.A006_04280540_S.cube
TITLE "Generated by Resolve"
LUT_3D_SIZE 33
0 0 0
0.0133364 0 0
0.026688 0 0
0.0400244 0 0
0.0533761 0 0
0.0667124 0 0
0.0800641 0 0
0.0934005 0 0
0.109667 0 0
0.129351 0 0
0.153399 0 0
0.179522 0 0
0.207614 0 0
0.237659 0 0
0.269673 0 0
0.303487 0 0
0.338445 0 0
0.374243 0 0
0.410239 0 0
0.446326 0 0
0.483253 0 0
0.520348 0 0
0.557809 0 0
0.595071 0 0
0.631632 0 0
0.667369 0 0
0.701839 0 0
0.735149 0 0
0.7673 0 0
0.798321 0 0
0.828336 0 0
0.857694 0 0
0.886442 0 0
0 0.0133364 0
0.0133364 0.0133364 0
0.026688 0.0133364 0
0.0400244 0.0133364 0
0.0533761 0.0133364 0
0.0667124 0.0133364 0
0.0800641 0.0133364 0
0.0934005 0.0133364 0
0.109682 0.0133364 0
0.129397 0.0133364 0
0.153521 0.0133364 0
0.179629 0.0133364 0
0.207675 0.0133364 0
0.23772 0.0133364 0
0.26981 0.0133364 0
0.303548 0.0133364 0
0.338598 0.0133364 0
0.374395 0.0133364 0
0.410239 0.0133364 0
0.446479 0.0133364 0
0.483406 0.0133364 0
0.520729 0.0133364 0
0.558129 0.0133364 0
0.595239 0.0133364 0
0.631785 0.0133364 0
0.667445 0.0133364 0
0.701915 0.0133364 0
0.735241 0.0133364 0
0.767376 0.0133364 0
0.798398 0.0133364 0
0.828428 0.0133364 0
0.857771 0.0133364 0
0.88661 0.0133364 0
0 0.026688 0
0.0133364 0.026688 0
0.026688 0.026688 0
0.0400244 0.026688 0
0.0533761 0.026688 0
0.0667124 0.026688 0
0.0800641 0.026688 0
0.0934005 0.026688 0
0.109712 0.026688 0
0.129458 0.026688 0
0.153567 0.026688 0
0.17969 0.026688 0
0.207797 0.026688 0
0.237842 0.026688 0
0.269749 0.026688 0
0.303624 0.026688 0
0.338735 0.026688 0
0.374533 0.026688 0
0.410544 0.026688 0
0.446708 0.026688 0
0.483558 0.026688 0
0.520821 0.026688 0
0.558206 0.026688 0
0.595315 0.026688 0
0.631876 0.026688 0
0.667536 0.026688 0
0.702007 0.026688 0
0.735317 0.026688 0
0.767468 0.026688 0
0.798566 0.026688 0
0.828763 0.026688 0
0.858106 0.026688 0
0.887114 0.026688 0
0 0.0400244 0
0.0133364 0.0400244 0
0.026688 0.0400244 0
0.0400244 0.0400244 0
0.0533761 0.0400244 0
0.0667124 0.0400244 0
0.0800641 0.0400244 0
0.0934005 0.0400244 0
0.109728 0.0400244 0
0.129503 0.0400244 0
0.153628 0.0400244 0
0.179629 0.0400244 0
0.207858 0.0400244 0
0.23798 0.0400244 0
0.270085 0.0400244 0
0.303899 0.0400244 0
0.338949 0.0400244 0
0.374685 0.0400244 0
0.410605 0.0400244 0
0.446784 0.0400244 0
0.483635 0.0400244 0
0.520897 0.0400244 0
0.558282 0.0400244 0
0.595392 0.0400244 0
0.632029 0.0400244 0
0.667689 0.0400244 0
0.702251 0.0400244 0
0.735653 0.0400244 0
0.76788 0.0400244 0
0.799146 0.0400244 0
0.829343 0.0400244 0
0.858946 0.0400244 0
0.888029 0.0400244 0
0 0.0533761 0
0.0133364 0.0533761 0
0.026688 0.0533761 0
0.0400244 0.0533761 0
0.0533761 0.0533761 0
0.0667124 0.0533761 0
0.0800641 0.0533761 0
0.0934005 0.0533761 0
0.109728 0.0533761 0
0.129564 0.0533761 0
0.15375 0.0533761 0
0.179873 0.0533761 0
0.208042 0.0533761 0
0.238102 0.0533761 0
0.270146 0.0533761 0
0.303975 0.0533761 0
0.339025 0.0533761 0
0.374746 0.0533761 0
0.410681 0.0533761 0
0.44686 0.0533761 0
0.483711 0.0533761 0
0.52105 0.0533761 0
0.558511 0.0533761 0
0.595712 0.0533761 0
0.632349 0.0533761 0
0.668177 0.0533761 0
0.702815 0.0533761 0
0.736309 0.0533761 0
0.76878 0.0533761 0
0.800137 0.0533761 0
0.830594 0.0533761 0
0.860365 0.0533761 0
0.889632 0.0533761 0
0 0.0671702 0
0.0133364 0.0671702 0
0.026688 0.0671702 0
0.0400244 0.0671702 0
0.0533761 0.0671702 0
0.0667124 0.0669566 0
0.0800641 0.0667124 0
0.0934005 0.0667124 0
0.109117 0.0667124 0
0.128496 0.0667124 0
0.15259 0.0667124 0
0.17879 0.0667124 0
0.207095 0.0667124 0
0.23743 0.0667124 0
0.269886 0.0667124 0
0.304051 0.0667124 0
0.339086 0.0667124 0
0.374899 0.0667124 0
0.410834 0.0667124 0
0.447074 0.0667124 0
0.484016 0.0667124 0
0.521431 0.0667124 0
0.558984 0.0667124 0
0.596338 0.0667124 0
0.633143 0.0667124 0
0.669062 0.0667124 0
0.703868 0.0667124 0
0.737621 0.0667124 0
0.770184 0.0667124 0
0.801785 0.0667124 0
0.83241 0.0667124 0
0.862455 0.0667124 0
0.892073 0.0667124 0
0 0.082948 0
0.0133364 0.0828565 0
0.026688 0.0829023 0
0.0400244 0.082948 0
0.0533761 0.082948 0
0.0667124 0.0822919 0
0.0800641 0.0815137 1.5259e-05
0.0934005 0.0812238 0
0.108431 0.0811475 0
0.127199 0.081117 0
0.150835 0.0809796 0
0.176806 0.0806287 0
0.204959 0.0800641 0
0.235264 0.0800641 0
0.267796 0.0800641 0
0.302037 0.0800641 0
0.337591 0.0800641 0
0.373922 0.0801709 0
0.410422 0.080293 0
0.447166 0.0802625 0
0.484672 0.0800793 0
0.522286 0.0800641 0
0.55993 0.0800641 0
0.597436 0.0800641 0
0.634424 0.0800641 0
0.670604 0.0800641 0
0.705592 0.0800641 0
0.73959 0.0800641 0
0.772412 0.0800641 0
0.804273 0.0800641 0
0.835248 0.0800641 0
0.865644 0.0800641 0
0.895537 0.0800641 0
0 0.10544 0
0.0133364 0.105486 0
0.026688 0.105486 0
0.0400244 0.105486 0
0.0533761 0.10544 0
0.0667124 0.10399 0
0.0800641 0.102052 1.5259e-05
0.0934005 0.100267 3.0518e-05
0.109239 0.0999771 1.5259e-05
0.128206 0.100252 0
0.151019 0.100832 0
0.176165 0.101167 0
0.20383 0.101106 0
0.233845 0.100649 0
0.266133 0.0997482 0
0.300359 0.0984665 0
0.335897 0.0969558 0
0.372351 0.0954757 0
0.409033 0.094316 0
0.445869 0.094728 0
0.483604 0.0950332 0
0.521737 0.0951705 0
0.559991 0.0951705 0
0.598001 0.0950942 0
0.635538 0.0949416 0
0.672175 0.0947738 0
0.707652 0.0946517 0
0.741985 0.0946059 0
0.775174 0.0946822 0
0.807355 0.0948653 0
0.838483 0.0952316 0
0.869123 0.0956893 0
0.899214 0.0963302 0
0 0.128649 0
0.0133364 0.128649 0
0.026688 0.128603 0
0.0400244 0.128603 0
0.0533761 0.128603 0
0.0667124 0.126909 0
0.0800641 0.124727 0
0.0934005 0.123079 1.5259e-05
0.10985 0.122698 1.5259e-05
0.129351 0.122835 1.5259e-05
0.152377 0.123232 0
0.17705 0.123629 0
0.203937 0.123796 0
0.233204 0.123598 0
0.265019 0.122972 0
0.298955 0.122042 0
0.334462 0.120867 0
0.370901 0.119783 0
0.407721 0.118791 0
0.444755 0.117815 0
0.482643 0.116854 0
0.521019 0.115892 0
0.559609 0.115084 0
0.598001 0.114382 0
0.635813 0.113878 0
0.672709 0.11371 0
0.708553 0.113725 0
0.743221 0.114122 0
0.776745 0.114778 0
0.809155 0.115694 0
0.840681 0.116869 0
0.871489 0.118212 0
0.901854 0.119768 0
0 0.152255 0
0.0133364 0.152255 0
0.026688 0.152255 0
0.0400244 0.152255 0
0.0533761 0.152255 0
0.0667124 0.150744 0
0.0800641 0.148775 0
0.0934005 0.147692 0
0.110094 0.147372 1.5259e-05
0.130129 0.147341 3.0518e-05
0.153887 0.147448 1.5259e-05
0.17882 0.147707 0
0.205219 0.148104 0
0.233646 0.148302 0
0.264775 0.148104 0
0.298344 0.147509 0
0.3337 0.14667 0
0.370001 0.145724 0
0.406729 0.144839 0
0.443915 0.143954 0
0.481971 0.143114 0
0.520546 0.142275 0
0.559289 0.141527 0
0.597864 0.140948 0
0.636027 0.140551 0
0.673182 0.140627 0
0.709224 0.140856 0
0.744198 0.141512 0
0.778012 0.142458 0
0.810727 0.143694 0
0.842573 0.145235 0
0.873686 0.147005 0
0.904448 0.148913 0
0 0.176455 0
0.0133364 0.176455 0
0.026688 0.176455 0
0.0400244 0.176516 0
0.0533761 0.176623 0
0.0667124 0.175586 0
0.0800641 0.174014 0
0.0934005 0.173419 0
0.109911 0.173297 0
0.130022 0.173312 3.0518e-05
0.154467 0.17319 6.10361e-05
0.180438 0.173144 0
0.207446 0.173358 0
0.235767 0.173648 0
0.266285 0.173953 0
0.299046 0.173907 0
0.333684 0.173526 0
0.369665 0.172946 0
0.406302 0.172366 0
0.443488 0.171862 0
0.481529 0.171328 0
0.520226 0.170748 0
0.559167 0.170275 0
0.597955 0.169955 0
0.636332 0.169879 0
0.673793 0.170092 0
0.710079 0.170672 0
0.745327 0.171618 0
0.779461 0.172869 0
0.812482 0.174426 0
0.844633 0.176303 0
0.876158 0.178424 0
0.907134 0.180728 0
0 0.201801 0
0.0133364 0.201862 0
0.026688 0.201999 0
0.0400244 0.202121 0
0.0533761 0.202304 0
0.0667124 0.201877 0
0.0800641 0.200641 0
0.0934005 0.200443 0
0.109514 0.200458 0
0.129259 0.200687 1.5259e-05
0.153872 0.200732 3.0518e-05
0.18056 0.200565 6.10361e-05
0.208743 0.200504 0
0.237964 0.200565 0
0.26862 0.2009 0
0.300816 0.201205 0
0.334829 0.201465 0
0.370184 0.201465 0
0.40647 0.201373 0
0.443397 0.201328 0
0.481376 0.201129 0
0.520088 0.200916 0
0.559136 0.200778 0
0.598138 0.200778 0
0.636637 0.201022 0
0.674296 0.201617 0
0.710933 0.202518 0
0.74638 0.203784 0
0.780865 0.205341 0
0.814176 0.207233 0
0.846525 0.20943 0
0.878294 0.21181 0
0.909529 0.214405 0
0 0.22829 0
0.0133364 0.22855 0
0.026688 0.228733 0
0.0400244 0.229068 0
0.0533761 0.229389 0
0.0667124 0.229496 0
0.0800641 0.228733 0
0.0934005 0.228717 0
0.108934 0.229007 0
0.128084 0.22945 0
0.152834 0.22977 0
0.179904 0.229816 4.57771e-05
0.20885 0.229648 7.62951e-05
0.239322 0.22945 0
0.270909 0.229541 0
0.303441 0.229877 0
0.337133 0.230426 0
0.371832 0.230961 0
0.407538 0.231525 0
0.444099 0.231952 0
0.481849 0.232319 0
0.520348 0.232578 0
0.559426 0.232853 0
0.598367 0.233326 0
0.637034 0.233936 0
0.674891 0.234806 0
0.71165 0.236042 0
0.747326 0.237644 0
0.781903 0.23949 0
0.815412 0.241627 0
0.84799 0.244022 0
0.879881 0.246677 0
0.911238 0.249454 0
0 0.256168 0
0.0133364 0.256565 0
0.026688 0.256962 0
0.0400244 0.257435 0
0.0533761 0.258045 0
0.0667124 0.25864 0
0.0800641 0.25835 0
0.0934005 0.25861 0
0.108202 0.259174 0
0.12665 0.259892 0
0.151553 0.260426 0
0.178714 0.260761 1.5259e-05
0.20798 0.260807 6.10361e-05
0.239338 0.260548 7.62951e-05
0.272236 0.260288 0
0.305867 0.260441 0
0.340017 0.260945 0
0.374731 0.261723 0
0.41001 0.262745 0
0.446021 0.263752 0
0.483268 0.264698 0
0.521462 0.265492 0
0.56022 0.266331 0
0.599039 0.267201 0
0.637613 0.268177 0
0.675441 0.269459 0
0.712245 0.271 0
0.747936 0.272755 0
0.782559 0.274876 0
0.816144 0.277241 0
0.848829 0.27985 0
0.880766 0.282628 0
0.912291 0.285542 0
0 0.285496 0
0.0133364 0.286107 0
0.026688 0.286793 0
0.0400244 0.287556 0
0.0533761 0.28838 0
0.0667124 0.289265 0
0.0800641 0.289647 0
0.0934005 0.290105 0
0.107286 0.290959 0
0.125551 0.291905 0
0.149966 0.29279 0
0.177188 0.2934 0
0.206668 0.29366 3.0518e-05
0.238346 0.293706 7.62951e-05
0.272206 0.29337 0.000106813
0.307179 0.293233 0
0.342458 0.293477 0
0.377981 0.294209 0
0.413458 0.295384 0
0.44918 0.296742 0
0.485985 0.298116 0
0.523613 0.299413 0
0.561852 0.300755 0
0.600259 0.302022 0
0.638514 0.303471 0
0.676097 0.305013 0
0.712749 0.306844 0
0.748287 0.308858 0
0.782879 0.311162 0
0.816403 0.313756 0
0.849042 0.316426 0
0.881025 0.319356 0
0.91252 0.322332 0
0 0.316365 0
0.0133364 0.317205 0
0.026688 0.318181 0
0.0400244 0.319158 0
0.0533761 0.320272 0
0.0667124 0.321462 0
0.0800641 0.322408 0
0.0934005 0.323232 0
0.106752 0.324331 0
0.124712 0.325628 0
0.148257 0.326802 0
0.17554 0.327626 0
0.205158 0.328252 0
0.23711 0.328588 3.0518e-05
0.271275 0.328481 9.15541e-05
0.307286 0.328283 0.000106813
0.343999 0.328237 0
0.38056 0.328634 0
0.416785 0.32961 0
0.452949 0.330953 0
0.489662 0.332494 0
0.526894 0.334112 0
0.564584 0.335775 0
0.602411 0.337453 0
0.640101 0.339223 0
0.677287 0.341131 0
0.713558 0.343206 0
0.748974 0.345449 0
0.783352 0.347875 0
0.816709 0.350561 0
0.849165 0.353414 0
0.88101 0.356359 0
0.912276 0.359411 0
0 0.348638 0
0.0133364 0.349783 0
0.026688 0.351049 0
0.0400244 0.352316 0
0.0533761 0.353735 0
0.0667124 0.355215 0
0.0800641 0.356649 0
0.0934005 0.357794 0
0.106752 0.359289 0
0.123995 0.360784 0
0.146838 0.36228 0
0.174197 0.363485 0
0.203983 0.364385 0
0.236133 0.36495 0
0.270466 0.365133 4.57771e-05
0.306737 0.365026 0.000106813
0.344259 0.364904 9.15541e-05
0.382025 0.364965 0
0.419318 0.365606 0
0.456245 0.36672 0
0.493492 0.368002 0
0.530922 0.369528 0
0.568429 0.371298 0
0.60592 0.373144 0
0.643122 0.375158 0
0.679728 0.377249 0
0.715526 0.379538 0
0.750408 0.381964 0
0.784405 0.384558 0
0.81738 0.38732 0
0.849485 0.390219 0
0.881025 0.39321 0
0.911986 0.396277 0
0 0.382239 0
0.0133364 0.383658 0
0.026688 0.385168 0
0.0400244 0.386816 0
0.0533761 0.388525 0
0.0667124 0.390311 0
0.0800641 0.392142 0
0.0934005 0.393683 0
0.106752 0.395483 0
0.123476 0.397345 0
0.145846 0.399069 0
0.173312 0.400488 0
0.203235 0.401556 0
0.235492 0.402335 0
0.269993 0.40267 0
0.306386 0.402777 6.10361e-05
0.344244 0.402747 0.000122072
0.382773 0.402686 0.000122072
0.420981 0.402884 0
0.458839 0.403632 0
0.496788 0.404639 0
0.534752 0.405905 0
0.572457 0.40737 0
0.609918 0.409171 0
0.646876 0.411139 0
0.683101 0.413306 0
0.718364 0.415641 0
0.752804 0.418143 0
0.786267 0.420813 0
0.818814 0.423636 0
0.850614 0.426581 0
0.88188 0.429664 0
0.912734 0.432837 0
0 0.416907 0
0.0133364 0.418647 0
0.026688 0.420523 0
0.0400244 0.422461 0
0.0533761 0.424491 0
0.0667124 0.426596 0
0.0800641 0.428779 0
0.0934005 0.430625 0
0.106752 0.43267 0
0.123247 0.434775 0
0.145541 0.436637 0
0.173098 0.4383 0
0.203128 0.439521 0
0.235492 0.440436 0
0.27013 0.440925 0
0.3066 0.441047 1.5259e-05
0.344533 0.441077 7.62951e-05
0.383154 0.441047 0.00015259
0.422065 0.441123 0.00015259
0.460746 0.441413 0
0.499519 0.441962 0
0.538064 0.442847 0
0.576181 0.443976 0
0.61387 0.445441 0
0.650874 0.447166 0
0.686839 0.449149 0
0.721889 0.451438 0
0.755978 0.453986 0
0.789227 0.456703 0
0.821637 0.459693 0
0.853269 0.462791 0
0.884459 0.466056 0
0.915145 0.469398 0
0 0.452735 0
0.0133364 0.454841 0
0.026688 0.456962 0
0.0400244 0.459236 0
0.0533761 0.461494 0
0.0667124 0.463844 0
0.0800641 0.466255 0
0.0934005 0.46833 0
0.106752 0.470619 0
0.123308 0.472816 0
0.145724 0.474861 0
0.173404 0.476616 0
0.20351 0.477989 0
0.235966 0.47892 0
0.27068 0.479484 0
0.307256 0.479683 0
0.345113 0.479652 4.57771e-05
0.383825 0.479622 0.000106813
0.422736 0.479667 0.000183108
0.46186 0.479667 0.000137331
0.501305 0.479866 1.5259e-05
0.540444 0.480262 0
0.57911 0.480964 0
0.617197 0.481987 0
0.654444 0.483467 0
0.690745 0.485328 0
0.725917 0.487541 0
0.760159 0.490105 0
0.793378 0.492882 0
0.825757 0.495964 0
0.857328 0.499168 0
0.888258 0.50248 0
0.918914 0.505943 0
0 0.48986 0
0.0133364 0.492149 0
0.026688 0.494575 0
0.0400244 0.497017 0
0.0533761 0.499443 0
0.0667124 0.502022 0
0.0800641 0.504524 0
0.0934005 0.506874 0
0.106752 0.509209 0
0.123369 0.511589 0
0.145907 0.513726 0
0.173602 0.515496 0
0.203769 0.516884 0
0.236301 0.517815 0
0.270954 0.518318 0
0.30753 0.518502 0
0.345327 0.518471 0
0.383978 0.518364 6.10361e-05
0.422827 0.518257 0.000122072
0.461952 0.518151 0.000198367
0.501717 0.517998 0.000183108
0.541558 0.518151 3.0518e-05
0.581003 0.518608 0
0.619669 0.519387 0
0.657481 0.520653 0
0.694209 0.522347 0
0.729732 0.524453 0
0.764141 0.526925 0
0.797574 0.52961 0
0.829892 0.532616 0
0.861418 0.535836 0
0.892393 0.539147 0
0.922881 0.542626 0
0 0.527855 0
0.0133364 0.530373 0
0.026688 0.532967 0
0.0400244 0.535485 0
0.0533761 0.538155 0
0.0667124 0.540749 0
0.0800641 0.543435 0
0.0934005 0.545846 0
0.106752 0.548302 0
0.12343 0.550622 0
0.14609 0.552758 0
0.173785 0.554528 0
0.203906 0.555932 0
0.236378 0.556802 0
0.27097 0.557214 0
0.307393 0.55726 0
0.34519 0.557168 0
0.383688 0.556985 1.5259e-05
0.422599 0.556954 7.62951e-05
0.461799 0.556909 0.00015259
0.501778 0.556817 0.000213626
0.542214 0.556802 0.000213626
0.5823 0.556985 3.0518e-05
0.621653 0.55761 0
0.66006 0.558602 0
0.69723 0.560128 0
0.733074 0.56202 0
0.767742 0.564279 0
0.801251 0.566903 0
0.833783 0.569757 0
0.865354 0.572869 0
0.896315 0.576028 0
0.926848 0.579461 0
0 0.566537 0
0.0133364 0.569146 0
0.026688 0.571832 0
0.0400244 0.574533 0
0.0533761 0.577142 0
0.0667124 0.579843 0
0.0800641 0.582544 0
0.0934005 0.584985 0
0.106752 0.587381 0
0.123552 0.589715 0
0.146212 0.591806 0
0.173861 0.593515 0
0.203922 0.594781 0
0.236255 0.59559 0
0.270848 0.596002 0
0.307332 0.596124 0
0.34519 0.596017 0
0.383841 0.595987 0
0.422736 0.595956 3.0518e-05
0.462028 0.596002 0.000106813
0.502098 0.595972 0.000167849
0.54258 0.595941 0.000244144
0.583093 0.596017 0.000213626
0.623087 0.596399 6.10361e-05
0.661936 0.597147 0
0.69958 0.598413 0
0.735836 0.600107 0
0.77084 0.602167 0
0.804547 0.604547 0
0.837217 0.607187 0
0.868864 0.610101 0
0.899886 0.613169 0
0.930312 0.616327 0
0 0.605463 0
0.0133364 0.608179 0
0.026688 0.61088 0
0.0400244 0.613519 0
0.0533761 0.61622 0
0.0667124 0.61886 0
0.0800641 0.621485 0
0.0934005 0.623896 0
0.106752 0.626245 0
0.123659 0.62855 0
0.146395 0.630564 0
0.17406 0.632288 0
0.204242 0.633555 0
0.236652 0.634501 0
0.271397 0.635004 0
0.307973 0.635126 0
0.345846 0.635172 0
0.384573 0.635142 0
0.423499 0.635187 0
0.462867 0.635233 6.10361e-05
0.502861 0.635203 0.000122072
0.54345 0.635172 0.000198367
0.584054 0.635203 0.000274662
0.624353 0.635355 0.000259403
0.663706 0.635874 9.15541e-05
0.701732 0.636866 0
0.738323 0.63827 0
0.773526 0.64007 0
0.807446 0.642222 0
0.840208 0.644633 0
0.871946 0.647318 0
0.902953 0.650217 0
0.933425 0.653147 0
0 0.644343 0
0.0133364 0.647059 0
0.026688 0.649699 0
0.0400244 0.652338 0
0.0533761 0.654917 0
0.0667124 0.657481 0
0.0800641 0.66006 0
0.0934005 0.662409 0
0.106752 0.664881 0
0.124025 0.667185 0
0.147219 0.669367 0
0.175021 0.671092 0
0.205325 0.672511 0
0.237842 0.673472 0
0.272618 0.673976 0
0.309316 0.674174 0
0.347219 0.67422 0
0.385977 0.674189 0
0.424933 0.674235 0
0.46424 0.674281 1.5259e-05
0.504341 0.67425 7.62951e-05
0.544793 0.674144 0.00015259
0.585397 0.674113 0.000228885
0.625696 0.674235 0.000289921
0.665354 0.674525 0.000289921
0.703655 0.675166 9.15541e-05
0.740536 0.676341 0
0.775982 0.677821 0
0.81004 0.679774 0
0.842863 0.68191 0
0.874678 0.684321 0
0.905699 0.686961 0
0.93611 0.689632 0
0 0.682887 0
0.0133364 0.685466 0
0.026688 0.688045 0
0.0400244 0.690623 0
0.0533761 0.693217 0
0.0667124 0.695796 0
0.0800641 0.69836 0
0.0934005 0.700969 0
0.106752 0.703471 0
0.124849 0.705882 0
0.148836 0.708064 0
0.176867 0.709957 0
0.207279 0.711315 0
0.239872 0.712276 0
0.274769 0.712856 0
0.311513 0.713069 0
0.349447 0.713039 0
0.388205 0.713008 0
0.427192 0.712963 0
0.466453 0.712932 0
0.506523 0.712825 4.57771e-05
0.546914 0.712642 0.000106813
0.587396 0.712535 0.000183108
0.627634 0.712505 0.000244144
0.667201 0.712627 0.00030518
0.705699 0.713085 0.000289921
0.742779 0.713939 0.000122072
0.778317 0.715206 1.5259e-05
0.812573 0.716793 0
0.845426 0.718654 0
0.877287 0.72079 0
0.908263 0.723033 0
0.938598 0.725383 0
0 0.720714 0
0.0133364 0.723308 0
0.026688 0.725978 0
0.0400244 0.728649 0
0.0533761 0.731411 0
0.0667124 0.734081 0
0.0800641 0.736767 0
0.0934005 0.739269 0
0.106752 0.741863 0
0.126085 0.744381 0
0.151308 0.746578 0
0.179599 0.748409 0
0.210101 0.749844 0
0.242908 0.750729 0
0.277882 0.751247 0
0.314626 0.751369 0
0.352621 0.751339 0
0.391409 0.751156 0
0.430365 0.751125 0
0.469505 0.751019 0
0.509483 0.750744 1.5259e-05
0.549828 0.750484 7.62951e-05
0.590249 0.750149 0.000137331
0.630289 0.750042 0.000213626
0.669718 0.750011 0.000274662
0.708141 0.750286 0.000335698
0.74522 0.75082 0.000320439
0.780896 0.751736 0.000167849
0.815091 0.753048 1.5259e-05
0.84802 0.754574 0
0.879774 0.75639 0
0.910689 0.758312 0
0.940948 0.760342 0
0 0.758434 0
0.0133364 0.761196 0
0.026688 0.763882 0
0.0400244 0.766644 0
0.0533761 0.769406 0
0.0667124 0.772091 0
0.0800641 0.774731 0
0.0934005 0.777371 0
0.108232 0.780011 0
