webgpu/resources/luts/taşdemirrr_1.A006_04280540_S.cube
TITLE "Generated by Resolve"
LUT_3D_SIZE 5
0 0 0
0.109667 0 0
0.338445 0 0
0.631632 0 0
0.886442 0 0
0 0.128649 0
0.10985 0.122698 1.5259e-05
0.334462 0.120867 0
0.635813 0.113878 0
0.901854 0.119768 0
0 0.348638 0
0.106752 0.359289 0
0.344259 0.364904 9.15541e-05
0.643122 0.375158 0
0.911986 0.396277 0
0 0.644343 0
0.106752 0.664881 0
0.347219 0.67422 0
0.665354 0.674525 0.000289921
0.93611 0.689632 0
0 0.943191 0
0.125978 0.961578 0
0.381643 0.963333 0
0.6907 0.951385 0.000106813
0.953597 0.949111 0.000427253
0 0 0.150408
0.10753 0 0.150103
0.345876 0 0.106752
0.635248 0 0.106752
0.888273 0 0.106752
0 0.131746 0.142855
0.106752 0.132265 0.149142
0.342443 0.119371 0.106752
0.643305 0.114321 0.106752
0.912291 0.121263 0.106752
0 0.353597 0.127855
0.107057 0.366125 0.139528
0.350835 0.37145 0.146807
0.650813 0.382681 0.107607
0.923156 0.402243 0.106752
0 0.65182 0.119661
0.107179 0.672511 0.138369
0.354177 0.681605 0.147768
0.672557 0.681453 0.148302
0.941711 0.695903 0.145525
0 0.950118 0.162188
0.128618 0.96759 0.174472
0.385077 0.967208 0.175204
0.692958 0.953735 0.163867
0.954589 0.950378 0.161257
0 0.0251164 0.397833
0.106752 0.010193 0.397833
0.336202 0 0.387243
0.651804 0 0.328344
0.912093 0 0.276799
0 0.171496 0.386328
0.106752 0.160693 0.397513
0.340963 0.113207 0.39057
0.665736 0.108598 0.336843
0.941894 0.112505 0.300282
0.00350958 0.358358 0.347967
0.124681 0.375509 0.368078
0.323812 0.386313 0.399741
0.670375 0.381781 0.348714
0.950088 0.398322 0.326177
0.00447089 0.647639 0.41355
0.125277 0.673594 0.426902
0.353719 0.687083 0.401358
0.675074 0.684627 0.401129
0.939361 0.699901 0.387137
0.0101778 0.942123 0.459007
0.140444 0.967529 0.452811
0.382864 0.967712 0.424872
0.690471 0.952117 0.412268
0.950729 0.947677 0.408652
0 0.0623789 0.685527
0.106752 0.0494392 0.685496
0.260075 0 0.675135
0.622919 0 0.656168
0.889342 0 0.641947
0 0.204013 0.681575
0.106752 0.193698 0.68629
0.256809 0.125841 0.680476
0.641733 0.107958 0.671183
0.926101 0.109819 0.671504
0 0.431952 0.574456
0.106752 0.449241 0.608392
0.214176 0.427588 0.695003
0.672847 0.375631 0.695811
0.968612 0.386038 0.689815
0.0598459 0.659785 0.600855
0.187594 0.683238 0.625177
0.385504 0.695964 0.666117
0.661418 0.688609 0.692531
0.944564 0.696941 0.664317
0.139208 0.923506 0.723995
0.264271 0.944366 0.746715
0.428443 0.955917 0.754528
0.682597 0.947112 0.701289
0.942397 0.941238 0.696757
0 0.0897688 0.925475
0.106752 0.0777295 0.925444
0.213504 0.0157168 0.915084
0.614908 0 0.896223
0.875608 0 0.8907
0 0.229435 0.923049
0.106752 0.220035 0.927474
0.213504 0.151858 0.923156
0.639384 0.108125 0.91574
0.918822 0.11281 0.925689
0 0.476402 0.843915
0.106752 0.492439 0.878935
0.213504 0.459663 0.941833
0.662501 0.379141 0.942504
0.957534 0.393088 0.955871
0 0.717296 0.739086
0.106752 0.741497 0.766506
0.246891 0.755581 0.834012
0.566079 0.721019 0.940185
0.948547 0.693477 0.946654
0.114183 0.95848 0.84506
0.247639 0.975113 0.869596
0.449638 0.971832 0.898177
0.7037 0.950484 0.923217
0.935576 0.93991 0.936568
