webgpu/resources/luts/TURKIEST__42.DJI_0001.cube
TITLE "Generated by Resolve"
LUT_3D_SIZE 9
0 0 0
0 0 0
0.00244144 0.00244144 0.00244144
0.0117647 0.0167239 0.0122835
0.0452888 0.0490883 0.0166323
0.364584 0.00215152 0
0.853498 0 0
1 0 0
1 0 0.0446021
0 0 0
0 0 0
0.00543221 0.00543221 0.00418097
0.0180972 0.0337835 0.0196078
0.265675 0.0276188 0.000518807
0.727993 0 0
0.988968 0 0
1 0 0.0011902
1 0 0.0666667
0.0065919 0.0416571 0.0208591
0.00141909 0.0734569 0.0260471
0.00294499 0.0862745 0.021088
0.103258 0.101946 0.00708019
0.384665 0.0448615 0
0.720928 0 0
0.958984 0 0
1 0 0
1 0 0.055314
0 0.200977 0.00331121
0 0.227985 0
0 0.219028 0
0.195148 0.20206 0
0.433829 0.165667 0
0.66952 0.0975662 0
0.900053 0 0
1 0 0
1 0 0.0250248
0 0.314458 0
0 0.334768 0
0.0179141 0.326696 0
0.235904 0.313603 0
0.429877 0.296315 0
0.629191 0.271519 0
0.837583 0.231662 0
1 0.20441 0
1 0.230457 0
0.0150149 0.437873 0
0.0559701 0.46569 0
0.132219 0.457725 0
0.272328 0.455482 0
0.437888 0.448753 0
0.622614 0.435737 0
0.802304 0.421836 0
0.971511 0.410712 0
1 0.416693 0
0.150973 0.586282 0
0.167224 0.620005 0
0.204761 0.616785 0
0.310246 0.618021 0
0.449317 0.615167 0
0.614267 0.614939 0
0.785992 0.608667 0
0.943069 0.60502 0
1 0.601663 0
0.211673 0.776287 0
0.230579 0.812528 0
0.254505 0.811978 0
0.337942 0.813779 0
0.456825 0.813291 0
0.597864 0.811307 0
0.747234 0.803037 0
0.900099 0.78526 0
1 0.756848 0
0.580392 0.94902 0
0.580392 0.94902 0
0.593103 0.94902 0
0.635538 0.94902 0
0.707103 0.94902 0
0.791852 0.945098 0
0.875853 0.941176 0
0.95491 0.9299 0
1 0.913725 0.0588235
0 0 0
0 0 0
0.00207523 0.00207523 0.00207523
0.0117647 0.0160525 0.0119478
0.0445411 0.0488289 0.0167544
0.407477 0 0
0.874403 0 0
1 0 0
1 0 0.0525978
0 0 0
0 0 0
0.00700389 0.00700389 0.00621042
0.0264744 0.0408484 0.0224002
0.312963 0.012192 0.00289921
0.749828 0 0
0.989319 0 0
1 0 0.00277714
1 0 0.061326
0.0039826 0.0507668 0.0259709
0.000457771 0.0842756 0.0294957
0.0019379 0.0960555 0.0241245
0.122072 0.10721 0.00801099
0.411963 0.0395972 0
0.735103 0 0
0.963516 0 0
1 0 0
1 0 0.0544137
0 0.208576 0.00415045
0 0.234424 0.00181582
0 0.225513 0.000808728
0.207874 0.207691 0
0.441932 0.173541 0
0.675883 0.109316 0
0.904036 0 0
1 0 0
1 0 0.0231327
0 0.319799 0
0 0.340383 0
0.0343786 0.332021 0
0.245731 0.319234 0
0.439048 0.302861 0
0.636118 0.278172 0
0.843885 0.243107 0
0.999313 0.216602 0
1 0.241062 0
0.0246891 0.445228 0
0.06421 0.472801 0
0.141527 0.465324 0
0.280034 0.462623 0
0.446082 0.456794 0
0.629435 0.44538 0
0.809445 0.431693 0
0.977813 0.421302 0
1 0.42681 0
0.155657 0.59469 0
0.170459 0.629511 0
0.209628 0.626444 0
0.317662 0.627817 0
0.457481 0.625177 0
0.62005 0.625498 0
0.791928 0.619959 0
0.949874 0.615442 0
1 0.611048 0
0.216342 0.785626 0
0.236042 0.821485 0
0.26186 0.820935 0
0.346532 0.821942 0
0.464591 0.8224 0
0.60325 0.819989 0
0.748684 0.810697 0
0.902693 0.791669 0
1 0.764141 0
0.580392 0.94902 0
0.580392 0.94902 0
0.594079 0.94902 0
0.639536 0.94902 0
0.711025 0.94902 0
0.796902 0.945098 0
0.88011 0.940841 0
0.958373 0.929412 0
1 0.913725 0.0588235
0 0 0
0 0 0
0.00437934 0.00437934 0.0039826
0.0117647 0.019028 0.0170291
0.0663157 0.0489662 0.0355535
0.474617 0 0.0132143
0.862043 0 0.000274662
1 0 0
1 0 0.0320134
0 0 0
0 0 0
0.0111696 0.0133822 0.0112154
0.0473945 0.0497292 0.0648814
0.364157 0 0.102983
0.743847 0 0.0755322
0.965362 0 0.0467384
1 0 0.0560006
1 0 0.0668193
0.000274662 0.0738079 0.0515297
0 0.107515 0.0753033
0 0.111772 0.0862287
0.128038 0.106706 0.0906539
0.421592 0.034226 0.0673075
0.706722 0 0.0449226
0.927214 0 0.0247349
1 0 0.0334173
1 0 0.0505837
0 0.213657 0.0889601
0 0.23682 0.103502
0 0.227955 0.104158
0.168368 0.215763 0.0962692
0.401709 0.184558 0.0581979
0.643549 0.127779 0.0325017
0.881834 0.00241093 0.0145876
1 0 0.0207675
1 0 0.0414588
0 0.32224 0.0784466
0 0.342824 0.0990158
0.00901808 0.334554 0.0922103
0.210788 0.325841 0.0883955
0.402075 0.311589 0.0668956
0.606683 0.287617 0.0407568
0.825452 0.25713 0.00416571
0.996643 0.226978 0.00326543
1 0.241733 0.0243229
0.00115969 0.447059 0.0525673
0.000747692 0.474998 0.073579
0.106264 0.470542 0.0711986
0.251789 0.46743 0.0650339
0.414618 0.46334 0.0478523
0.60177 0.452567 0.0190738
0.790051 0.439155 0
0.968719 0.427115 0
1 0.429816 0
0.129625 0.596811 0.00241093
0.141527 0.631281 0.0208743
0.184558 0.628824 0.0205539
0.293858 0.63006 0.0122225
0.434165 0.631815 0.00166323
0.597574 0.628916 0.000137331
0.773144 0.624506 0
0.941054 0.618448 0
1 0.606714 0
0.198795 0.784253 0
0.212573 0.820111 0
0.240803 0.820249 0
0.327413 0.821317 0
0.446006 0.822583 0
0.582193 0.819242 0
0.731456 0.81062 0
0.889204 0.788846 0
1 0.758068 0
0.29485 0.934554 0
0.220569 0.933333 0
0.243748 0.93193 0
0.334157 0.929946 0
0.478172 0.929503 0
0.785092 0.943587 0
0.883513 0.940887 0
0.958099 0.929412 0
1 0.913725 0.0588235
0.00726329 0.00726329 0.00392157
0.00700389 0.00700389 0.00392157
0.00755322 0.00755322 0.00755322
0.0131685 0.0259098 0.0273136
0.0830549 0.0540627 0.0910658
0.453864 0 0.143496
0.836744 0 0.133867
0.999939 0 0.0993515
1 0 0.11809
0.00729381 0.00729381 0.00392157
0.00784314 0.00784314 0.00759899
0.0117647 0.026215 0.0263066
0.0677501 0.0575113 0.124163
0.270558 0.0428626 0.187976
0.574884 0 0.225498
0.900938 0 0.220401
1 0 0.199329
1 0 0.203555
0 0.0926986 0.0969711
0 0.122866 0.133639
0 0.124163 0.150317
0.0938735 0.119417 0.184466
0.309758 0.0909133 0.201343
0.608988 0 0.208911
0.886702 0 0.190875
1 0 0.161685
1 0 0.179736
0 0.223255 0.17142
0 0.246418 0.188174
0 0.235126 0.191852
0.0164187 0.237171 0.237446
0.373312 0.188022 0.192798
0.629221 0.131838 0.166812
0.86453 0.013489 0.144747
1 0 0.13994
1 0 0.166522
0 0.321782 0.177844
0 0.342443 0.192782
0.0277714 0.335332 0.192798
0.207401 0.328481 0.201205
0.373968 0.320455 0.18967
0.590356 0.300969 0.153506
0.820706 0.266163 0.132998
0.993622 0.241169 0.124483
1 0.251057 0.141314
0 0.446998 0.182162
0.00154116 0.478431 0.200183
0.0968643 0.474235 0.197742
0.235691 0.471443 0.198459
0.389792 0.471183 0.19382
0.574273 0.462882 0.171862
0.770626 0.447868 0.147341
0.964569 0.446357 0.103273
1 0.449653 0.112047
0.0984665 0.600458 0.164675
0.115831 0.63505 0.186175
0.163745 0.633021 0.185
0.274876 0.635309 0.187747
0.412955 0.636591 0.185702
0.571664 0.637507 0.172717
0.75111 0.634897 0.149676
0.928634 0.622614 0.108675
1 0.611643 0.0838331
0.167987 0.786755 0.138064
0.182345 0.820523 0.16907
0.211963 0.820935 0.168734
0.301671 0.821942 0.171328
0.42179 0.821515 0.170901
0.555245 0.819226 0.160845
0.704494 0.808774 0.131731
0.86836 0.785748 0.0582742
0.993057 0.751141 0
0 0.92549 0
0 0.92549 0.0074464
0 0.922728 0.00415045
0.121996 0.921569 0
0.296666 0.917647 0
0.455222 0.909789 0
0.638361 0.901289 0
0.958373 0.929412 0
1 0.913725 0.0627451
0.0117647 0.0176852 0.0176852
0.0117647 0.0174411 0.0174411
0.0117647 0.0187381 0.0187381
0.0120241 0.0382849 0.0535592
0.112367 0.0588235 0.164569
0.343587 0.0250095 0.23473
0.63653 0 0.279652
0.945357 0 0.277455
1 0 0.269825
0.0117647 0.0187076 0.0187076
0.0117647 0.0262608 0.0291447
0.00788891 0.0471809 0.0793164
0.0753033 0.0631876 0.204074
0.269078 0.0469368 0.291188
0.466041 0.00225834 0.325902
0.696025 0 0.356344
0.979385 0 0.377539
1 0 0.377813
0 0.107561 0.161959
0 0.134783 0.212833
0 0.133303 0.229984
0.0265202 0.131746 0.283757
0.276539 0.104921 0.307408
0.461692 0.076051 0.319081
0.704021 0 0.345739
0.975326 0 0.352972
1 0 0.350912
0 0.236484 0.294514
0 0.26656 0.336324
0 0.25771 0.339834
0 0.259098 0.354589
0.292515 0.213077 0.317143
0.502174 0.183993 0.33341
0.761471 0.0940871 0.346166
0.987579 0 0.337789
1 0 0.330495
0 0.330053 0.276371
0 0.351736 0.295308
0.00233463 0.34847 0.307866
0.0348211 0.365469 0.395224
0.0911421 0.366567 0.404852
0.554528 0.30222 0.327825
0.795789 0.264469 0.308949
0.986374 0.242664 0.281468
1 0.256367 0.279744
0.0331884 0.450156 0.281163
0.0667887 0.481743 0.305898
0.12665 0.474632 0.307118
0.249134 0.474968 0.317357
0.380255 0.474845 0.331258
0.54876 0.471809 0.320317
0.76025 0.464225 0.277165
0.962997 0.44918 0.257191
1 0.450187 0.258549
0.116854 0.603555 0.300572
0.134508 0.638514 0.330373
0.171923 0.636515 0.330343
0.272099 0.638361 0.336568
0.398337 0.641382 0.341375
0.546227 0.645624 0.339818
0.726497 0.641413 0.316976
0.917189 0.629969 0.26978
1 0.616373 0.229282
0.152255 0.788846 0.305425
0.161563 0.819242 0.335088
0.192645 0.81973 0.335653
0.282826 0.820844 0.337713
0.399481 0.819806 0.335668
0.527718 0.817258 0.331701
0.674479 0.806714 0.312306
0.846372 0.781888 0.256489
0.982589 0.739818 0.174014
0 0.918929 0.214588
0 0.917647 0.251438
0 0.917647 0.251621
0 0.913725 0.246418
0.206317 0.909804 0.236271
0.380682 0.901884 0.207782
0.556085 0.889784 0.144488
0.758434 0.873457 0
1 0.909804 0.0705882
0.00633249 0.0461738 0.0742504
0.00654612 0.0457465 0.0731823
0.00665293 0.0418097 0.0640574
0.00784314 0.057435 0.125628
0.120867 0.0638743 0.276249
0.336172 0.0350042 0.367834
0.532677 0 0.393042
0.751049 0 0.423789
0.999222 0 0.460014
0.00363165 0.0512703 0.088014
0 0.0596933 0.122576
0 0.0683146 0.193362
0.057023 0.0715648 0.33698
0.249149 0.0568093 0.443687
0.442695 0.0176089 0.479606
0.618402 0 0.483909
0.83093 0 0.513893
0.988739 0 0.547845
0 0.119417 0.270985
0 0.145983 0.342336
0 0.143389 0.359838
0 0.147021 0.421088
0.235645 0.117998 0.452613
0.428107 0.0951858 0.466835
0.604868 0.0599985 0.470573
0.818235 0 0.500526
0.999985 0 0.537911
0 0.25156 0.435172
0 0.282185 0.480323
0 0.276555 0.478431
0 0.282521 0.488731
0.00390631 0.288075 0.500389
0.441047 0.208255 0.477317
0.624872 0.186252 0.484718
0.849515 0.118166 0.517647
1 0.00712596 0.547341
0 0.379461 0.533837
0 0.410147 0.578393
0 0.406287 0.572717
0 0.408591 0.57528
0 0.417746 0.573816
0.417456 0.343648 0.494835
0.658442 0.317143 0.504311
0.900511 0.267689 0.534386
1 0.241108 0.543786
0 0.464164 0.426139
0 0.494804 0.452567
0.00645457 0.493477 0.461784
0.0681315 0.50341 0.52108
0 0.539193 0.664378
0.160983 0.53254 0.606088
0.708721 0.462669 0.514961
0.936919 0.436118 0.507149
1 0.43679 0.488975
0.129824 0.608454 0.431067
0.142504 0.643107 0.460502
0.18114 0.641596 0.461418
0.279667 0.643839 0.471733
0.403693 0.645792 0.48571
0.53727 0.649744 0.507362
0.696162 0.648417 0.503212
0.911986 0.636835 0.441779
1 0.605951 0.409903
0.175128 0.785901 0.460609
0.178729 0.814969 0.488609
0.204166 0.815534 0.489128
0.280766 0.816785 0.493416
0.386587 0.815229 0.496269
0.507088 0.81207 0.492958
0.645243 0.80119 0.477867
0.821118 0.77554 0.42414
0.974578 0.732799 0.326329
0 0.910033 0.386633
0 0.909804 0.418387
0 0.909804 0.418708
0 0.905882 0.41677
0.102953 0.901961 0.407034
0.327871 0.894118 0.388296
0.506218 0.882185 0.350668
0.70898 0.866148 0.27718
0.926467 0.854902 0.103914
0 0.0728008 0.218143
0 0.0726177 0.216297
0 0.0687877 0.193103
0 0.0742809 0.273182
0.089601 0.0736706 0.456535
0.305165 0.0538796 0.55108
0.503151 0.011902 0.566644
0.684321 0 0.568643
0.905287 0 0.600824
0 0.0745098 0.273136
0 0.0784161 0.346685
0 0.0823529 0.433066
0 0.0823072 0.56939
0.176425 0.074876 0.657603
0.3823 0.0583658 0.687266
0.579721 0.0104677 0.695689
0.77528 0 0.697993
0.910048 0 0.706737
0 0.129183 0.474937
0 0.152316 0.556985
0 0.146502 0.563714
0 0.14139 0.605264
0.156558 0.13315 0.642344
0.36257 0.118486 0.662745
0.56556 0.0874952 0.673609
0.758129 0.025803 0.678065
0.918013 0 0.692744
0 0.239597 0.574792
0 0.263264 0.614984
0 0.257115 0.612329
0 0.272938 0.6374
0.0151064 0.319234 0.672206
0.294499 0.242924 0.670878
0.576455 0.205188 0.688396
0.775097 0.180987 0.694438
0.933928 0.145434 0.707439
0 0.417288 0.688853
0 0.45333 0.732738
0 0.450507 0.726345
0 0.45687 0.723735
0 0.469535 0.72134
0 0.479606 0.722911
0.588281 0.343435 0.703639
0.797253 0.32842 0.713527
0.955123 0.313848 0.731716
0 0.543008 0.761212
0 0.574701 0.790265
0 0.5729 0.78793
0 0.576272 0.784298
0 0.584649 0.77763
0 0.597055 0.767391
0.278904 0.561578 0.738567
0.818814 0.489632 0.730709
0.976837 0.466392 0.748882
0 0.638636 0.683879
0 0.678279 0.735195
0 0.679866 0.743023
0.00750744 0.689387 0.773648
0 0.700908 0.800519
0 0.707591 0.797589
0.256367 0.710109 0.783627
0.826947 0.636179 0.728145
0.995743 0.579934 0.725811
0.126223 0.785794 0.624796
0.102342 0.813962 0.657389
0.14255 0.813458 0.658518
0.24332 0.814145 0.661051
0.36054 0.811017 0.667277
0.486412 0.803952 0.667979
0.623545 0.791318 0.668879
0.779416 0.765606 0.651087
0.9635 0.721035 0.541878
0 0.901961 0.555001
0 0.899931 0.584802
0 0.898863 0.587747
0 0.895186 0.588571
0.0437629 0.890776 0.591424
0.289509 0.882582 0.58616
0.461616 0.870619 0.571908
0.667247 0.858946 0.539025
0.906065 0.858824 0.549447
0 0.0855879 0.554147
0 0.0854963 0.552224
0 0.0836957 0.489876
0 0.0862745 0.597833
0 0.0862745 0.742519
0.179828 0.0838178 0.796582
0.410346 0.0746166 0.807126
0.625696 0.0254215 0.813794
0.861097 0 0.816358
0 0.0823529 0.65098
0 0.0823529 0.658289
0 0.0823529 0.726253
0 0.0862745 0.811429
0 0.0901961 0.852842
0.260655 0.0941176 0.867796
0.479774 0.0843214 0.878553
0.714855 0.0211032 0.889982
0.878431 0 0.894118
0 0.134646 0.796307
0 0.157259 0.813107
0 0.15198 0.819181
0 0.150271 0.839261
0 0.145769 0.851133
0.227497 0.146914 0.864393
0.454124 0.136324 0.87631
0.68336 0.103578 0.890196
0.88574 0 0.894118
0 0.253132 0.831373
0 0.276936 0.831373
0 0.26894 0.835294
0 0.262592 0.839216
0 0.255879 0.847059
0.2439 0.251026 0.862745
0.461982 0.243961 0.878431
0.694926 0.223255 0.89102
0.89929 0.183856 0.898039
0 0.37525 0.837095
0 0.40148 0.839216
0 0.39498 0.840055
0 0.390936 0.845457
0 0.386648 0.854627
0.269123 0.385901 0.864698
0.477165 0.382544 0.879438
0.709804 0.370596 0.894957
0.913725 0.348531 0.901961
0 0.510903 0.846708
0 0.542535 0.847059
0 0.536645 0.84976
0 0.537377 0.85214
0 0.536965 0.858824
0.286854 0.537774 0.868452
0.49099 0.539925 0.879393
0.722148 0.526253 0.892103
0.913725 0.495155 0.898039
0 0.663233 0.856931
0 0.694286 0.858824
0 0.693599 0.858824
0 0.693507 0.861189
0 0.69398 0.86569
0.293492 0.690913 0.869139
0 0.746746 0.881849
0.303777 0.72874 0.880095
0.897765 0.608667 0.878157
0 0.801968 0.852537
0 0.821042 0.844907
0 0.821897 0.844572
0 0.819883 0.843809
0 0.819181 0.855512
0 0.822232 0.873777
0.136751 0.810819 0.865507
0.463737 0.788281 0.850996
0.862104 0.705531 0.830091
0 0.894118 0.784314
0 0.894118 0.784314
0 0.894118 0.784314
0 0.890196 0.780514
0 0.886275 0.776471
0 0.877668 0.771786
0.350958 0.866529 0.764706
0.638743 0.859052 0.776928
0.894118 0.870588 0.823529
0 0.0823529 0.65098
0 0.0823529 0.65098
0 0.0823529 0.660594
0 0.0823529 0.749706
0 0.0862745 0.82916
0.0762493 0.0901961 0.860624
0.355032 0.0932937 0.871412
0.574884 0.0695506 0.882872
0.832029 0 0.894118
0 0.0823529 0.65098
0 0.0823529 0.658244
0 0.0823529 0.723751
0 0.0862745 0.810376
0 0.0901961 0.85214
0.255879 0.0941176 0.867399
0.475731 0.0844587 0.878431
0.710079 0.023682 0.889616
0.878431 0 0.894118
0 0.132815 0.794171
0 0.154894 0.811765
0 0.150118 0.81767
0 0.148531 0.838621
0 0.143694 0.85095
0.222629 0.145464 0.864286
0.449928 0.134844 0.875792
0.678584 0.102937 0.890028
0.885466 0 0.894118
0 0.250874 0.831373
0 0.274784 0.831373
0 0.266682 0.835294
0 0.26096 0.839216
0 0.253956 0.847059
0.238972 0.249363 0.862745
0.457923 0.242039 0.878431
0.690059 0.221729 0.890669
0.899046 0.181643 0.898039
0 0.372793 0.836789
0 0.399237 0.839216
0 0.392767 0.839765
0 0.388602 0.844999
0 0.384558 0.854322
0.264897 0.383948 0.864378
0.473869 0.380941 0.879133
0.705287 0.369162 0.894621
0.913725 0.346731 0.901961
0 0.508705 0.846433
0 0.540063 0.847059
0 0.534676 0.849348
0 0.535546 0.851865
0 0.535164 0.858824
0.283375 0.536126 0.868193
0.488685 0.538399 0.879179
0.719554 0.525109 0.892103
0.913725 0.494087 0.898039
0 0.661158 0.856657
0 0.692363 0.858824
0 0.691661 0.858824
0 0.692287 0.860945
0 0.692851 0.865492
0.291279 0.689952 0.869108
0 0.746197 0.882002
0.297398 0.728679 0.880201
0.897978 0.608026 0.87837
0 0.8009 0.852979
0 0.820279 0.845228
0 0.821118 0.844877
0 0.819272 0.844053
0 0.818265 0.854185
0 0.821958 0.873991
0.130526 0.810651 0.865782
0.461143 0.788296 0.851423
0.862257 0.70515 0.830396
0 0.894118 0.784314
0 0.894118 0.784314
0 0.894118 0.784314
0 0.890196 0.780652
0 0.886275 0.776471
0 0.877821 0.771939
0.348775 0.866682 0.764721
0.636439 0.8589 0.776623
0.894118 0.870588 0.823529
