webgpu/resources/luts/TURKIEST__42.DJI_0001.cube
TITLE "Generated by Resolve"
LUT_3D_SIZE 33
0 0 0
0 0 0
0 0 0
0 0 0
0 0 0
0 0 0
0 0 0
0 0 0
0.00244144 0.00244144 0.00244144
0.00588998 0.00588998 0.00392157
0.00784314 0.00784314 0.00538643
0.00883497 0.00984207 0.00883497
0.0117647 0.0167239 0.0122835
0.011841 0.023682 0.0157626
0.0153658 0.0307317 0.0192874
0.0254215 0.0411078 0.0196078
0.0452888 0.0490883 0.0166323
0.0868238 0.0537423 0.0129244
0.155581 0.0522164 0.00640879
0.248035 0.033341 0.000976577
0.364584 0.00215152 0
0.509224 0 0
0.641672 0 0
0.758953 0 0
0.853498 0 0
0.923751 0 0
0.974533 0 0
1 0 0
1 0 0
1 0 0
1 0 0
1 0 0.0142977
1 0 0.0446021
0 0 0
0 0 0
0 0 0
0 0 0
0 0 0
0 0 0
0 0 0
0 0 0
0.00234989 0.00234989 0.00234989
0.00578317 0.00578317 0.00392157
0.00784314 0.00784314 0.00534066
0.00885023 0.00987259 0.00885023
0.0117647 0.0169985 0.0124208
0.0121004 0.0242008 0.016022
0.0158694 0.0315557 0.0196078
0.0274052 0.0430915 0.0196078
0.054963 0.0512856 0.0153811
0.122179 0.0538949 0.00973526
0.225132 0.0393072 0.00198367
0.347463 0.00675975 0
0.491844 0 0
0.622919 0 0
0.738048 0 0
0.835203 0 0
0.911101 0 0
0.963088 0 0
0.994858 0 0
1 0 0
1 0 0
1 0 0
1 0 0.0074464
1 0 0.028687
1 0 0.0666667
0 0 0
0 0 0
0 0 0
0 0 0
0 0 0
0 0 0
0 0 0
0 0 0
0.00239567 0.00239567 0.00239567
0.00598154 0.00598154 0.00392157
0.00784314 0.00784314 0.00564584
0.00932326 0.0108186 0.00932326
0.0117647 0.0186923 0.0132601
0.0136721 0.0273594 0.0175937
0.023682 0.0393683 0.0196078
0.0488594 0.0502785 0.0160372
0.112383 0.0543832 0.0107271
0.212802 0.0425269 0.00251774
0.329931 0.0114748 0
0.467674 0 0
0.601221 0 0
0.715465 0 0
0.813413 0 0
0.891173 0 0
0.947677 0 0
0.98732 0 0
1 0 0
1 0 0
1 0 0
1 0 0.00146487
1 0 0.0188907
1 0 0.0525978
1 0 0.0666667
0 0 0
0 0 0
0 0 0
0 0 0
0 0 0
0 0 0
0 0 0
0 0 0
0.00291447 0.00291447 0.00291447
0.00701915 0.00701915 0.00392157
0.00784314 0.00784314 0.00755322
0.0117647 0.0166629 0.012253
0.0130922 0.0261997 0.0170138
0.0222171 0.0379034 0.0196078
0.0455634 0.0491798 0.0165866
0.100175 0.0547646 0.011902
0.195193 0.0471199 0.00328069
0.307225 0.0175784 0
0.43827 0 0
0.570016 0 0
0.683207 0 0
0.783093 0 0
0.863142 0 0
0.926268 0 0
0.973419 0 0
0.998596 0 0
1 0 0
1 0 0
1 0 0
1 0 0.00993362
1 0 0.0342718
1 0 0.0666667
1 0 0.0666667
0 0 0
0 0 0
0 0 0
0 0 0
0 0 0
0 0 0
0 0 0
0.000701915 0.000701915 0.000701915
0.00543221 0.00543221 0.00418097
0.00784314 0.00848402 0.00669871
0.0110018 0.014435 0.0110018
0.0117647 0.0234989 0.015671
0.0180972 0.0337835 0.0196078
0.0373236 0.046952 0.0181582
0.0833448 0.0554971 0.0123598
0.163684 0.0518502 0.00552377
0.265675 0.0276188 0.000518807
0.380362 0 0
0.509682 0 0
0.625208 0 0
0.727993 0 0
0.818936 0 0
0.893019 0 0
0.94818 0 0
0.988968 0 0
1 0 0
1 0 0
1 0 0
1 0 0.0011902
1 0 0.0185092
1 0 0.0517739
1 0 0.0666667
1 0 0.0666667
0 0 0
0 0 0
0 0 0
0 0 0
0 0 0
0.002121 0.002121 0.000976577
0.00222782 0.00222782 0.00222782
0.00540169 0.00540169 0.00344854
0.00843824 0.00843824 0.00843824
0.0109865 0.0133364 0.0109865
0.0116579 0.0209049 0.0143282
0.0153201 0.0306401 0.0192416
0.0213016 0.0438087 0.0196078
0.043595 0.0527962 0.0178531
0.0905776 0.0588235 0.0105592
0.16434 0.0552682 0.00610361
0.258701 0.0332189 0.00169375
0.368551 0.0059968 0
0.492531 0 0
0.607233 0 0
0.710002 0 0
0.799573 0 0
0.876463 0 0
0.934188 0 0
0.980133 0 0
1 0 0
1 0 0
1 0 0
1 0 0
1 0 0.00982681
1 0 0.0396429
1 0 0.0646067
1 0 0.0648051
0 0 0
0.00109865 0.00109865 0.00109865
0.00373846 0.00373846 0.00373846
0.00628672 0.00628672 0.00628672
0.00816358 0.0091249 0.00848402
0.00817884 0.0109865 0.00868238
0.0117494 0.0129244 0.0123293
0.0117647 0.0191043 0.0136568
0.0117647 0.0250248 0.0171206
0.0122225 0.0328374 0.0185702
0.015198 0.0418555 0.0196078
0.0207675 0.0502785 0.0196078
0.0350042 0.0581064 0.0188907
0.0662394 0.0656748 0.0142977
0.12343 0.0679789 0.0068513
0.197833 0.0594492 0.00260929
0.289265 0.0337682 0
0.389685 0.00616464 0
0.500359 0 0
0.605554 0 0
0.701381 0 0
0.789059 0 0
0.865019 0 0
0.925917 0 0
0.971054 0 0
0.99675 0 0
1 0 0
1 0 0
1 0 0
1 0 0.00572213
1 0 0.0276646
1 0 0.0627451
1 0 0.0627451
0.00895705 0.012314 0.0100862
0.010193 0.0172122 0.0125277
0.0113832 0.0220035 0.0149233
0.0101167 0.0293126 0.0173342
0.00814832 0.0361791 0.0193027
0.00833143 0.0366979 0.0205997
0.00888075 0.0397498 0.0210422
0.00900282 0.0464637 0.0217136
0.00956741 0.0526589 0.0235294
0.0130159 0.0604868 0.0215915
0.0195926 0.068101 0.0188144
0.0349279 0.0751659 0.01738
0.0649577 0.0800946 0.013962
0.111864 0.0820325 0.00733959
0.178363 0.0770275 0.00267033
0.255604 0.0628367 0
0.339315 0.035172 0
0.436912 0.00254826 0
0.535836 0 0
0.628122 0 0
0.714855 0 0
0.793088 0 0
0.864912 0 0
0.921599 0 0
0.966491 0 0
0.995666 0 0
1 0 0
1 0 0
1 0 0
1 0 0.00285344
1 0 0.0253758
1 0 0.0594797
1 0 0.0596628
0.0065919 0.0416571 0.0208591
0.00434882 0.049485 0.0231022
0.0030518 0.0588388 0.0243992
0.00213626 0.0671092 0.0253147
0.00141909 0.0734569 0.0260471
0.00169375 0.0721294 0.0242466
0.00205997 0.074342 0.0235294
0.002121 0.0806592 0.0230411
0.00294499 0.0862745 0.021088
0.00970474 0.0913558 0.0190127
0.0272831 0.0966049 0.0156558
0.0593118 0.0996719 0.0113527
0.103258 0.101946 0.00708019
0.160601 0.0990311 0.00274662
0.230808 0.0890974 4.57771e-05
0.304784 0.0734417 0
0.384665 0.0448615 0
0.474128 0.00767529 0
0.561502 0 0
0.643412 0 0
0.720928 0 0
0.793484 0 0
0.861006 0 0
0.915251 0 0
0.958984 0 0
0.992294 0 0
0.999969 0 0
1 0 0
1 0 0
1 0 0
1 0 0.0208743
1 0 0.0551614
1 0 0.055314
0.00047303 0.082002 0.026978
0 0.0905623 0.0265965
0 0.0992905 0.0248417
0 0.108034 0.0231022
0 0.115068 0.0217594
0 0.112474 0.0213779
0 0.113436 0.0210727
0 0.118181 0.0187228
0 0.120623 0.0160678
0.00704967 0.124681 0.012604
0.037583 0.127596 0.00932326
0.0834363 0.128206 0.00508125
0.135714 0.125078 0.00230411
0.200015 0.118853 0.000259403
0.268376 0.108568 0
0.337987 0.0929122 0
0.414496 0.0683146 0
0.493294 0.0316014 0
0.570596 0.00621042 0
0.645609 0 0
0.717632 0 0
0.786435 0 0
0.851209 0 0
0.904372 0 0
0.948486 0 0
0.984298 0 0
0.999466 0 0
1 0 0
1 0 0
1 0 0
1 0 0.0132448
1 0 0.0507362
1 0 0.0510109
0 0.124575 0.019791
0 0.132525 0.0180514
0 0.140383 0.0162966
0 0.148241 0.0145571
0 0.154742 0.0132143
0 0.154818 0.0135042
0 0.153597 0.0141909
0 0.154376 0.0125429
0 0.156542 0.00933852
0.00775158 0.157946 0.00613413
0.045594 0.157244 0.00329595
0.103105 0.156069 0.000534066
0.161303 0.150118 0
0.225727 0.141299 0
0.292302 0.132448 0
0.357198 0.119402 0
0.426078 0.101213 0
0.496071 0.0741131 0
0.568109 0.0422065 0
0.639521 0.0104829 0
0.706767 0 0
0.772717 0 0
0.835904 0 0
0.888792 0 0
0.93402 0 0
0.971954 0 0
0.998138 0 0
1 0 0
1 0 0
1 0 0
1 0 0.00875868
1 0 0.0420386
1 0 0.0424048
0 0.163272 0.0112154
0 0.17113 0.00946059
0 0.178851 0.00775158
0 0.186709 0.00601205
0 0.193469 0.004654
0 0.192081 0.00486763
0 0.189212 0.00563058
0 0.188434 0.00508125
0 0.188998 0.00170901
0.00796521 0.18761 0.00103761
0.0518502 0.185275 0.000518807
0.118303 0.183017 0
0.181796 0.176135 0
0.243854 0.167315 0
0.303105 0.158358 0
0.367849 0.14818 0
0.432547 0.13463 0
0.493675 0.117525 0
0.559701 0.0946517 0
0.626413 0.0624552 0
0.689006 0.0314031 0
0.752605 0.00349432 0
0.813367 0 0
0.869169 0 0
0.917159 0 0
0.959381 0 0
0.993378 0 0
1 0 0
1 0 0
1 0 0
1 0 0.00233463
1 0 0.033402
1 0 0.0337377
0 0.200977 0.00331121
0 0.207965 0.00244144
0 0.214954 0.00155642
0 0.222187 0.000656138
0 0.227985 0
0 0.226719 9.15541e-05
0 0.223651 0.00047303
0 0.219242 0.000503548
0 0.219028 0
0.0101167 0.217502 0
0.0602731 0.213397 0
0.130663 0.209232 0
0.195148 0.20206 0
0.254261 0.195727 0
0.313512 0.187518 0
0.375021 0.178485 0
0.433829 0.165667 0
0.490257 0.155398 0
0.548302 0.141283 0
0.610178 0.121111 0
0.66952 0.0975662 0
0.730388 0.0630961 0
0.791074 0.0317845 0
0.847654 0 0
0.900053 0 0
0.945037 0 0
0.981903 0 0
1 0 0
1 0 0
1 0 0
1 0 0
1 0 0.0246891
1 0 0.0250248
0 0.234318 0
0 0.240314 0
0 0.24654 0
0 0.25275 0
0 0.257572 0
0 0.256641 0
0 0.250599 0
0 0.249378 0
0 0.248219 0
0.0154574 0.244053 0
0.0750591 0.239551 0
0.145815 0.235157 0
0.205707 0.230426 0
0.262028 0.223041 0
0.318669 0.217365 0
0.376074 0.209033 0
0.429557 0.199512 0
0.485481 0.190417 0
0.540413 0.179568 0
0.597192 0.165011 0
0.652399 0.14995 0
0.711147 0.1299 0
0.772 0.10248 0
0.828305 0.0674296 0
0.883848 0.0391394 0
0.931334 0.010956 0
0.970626 0.000396735 0
1 0 0
1 0 0
1 0 0
1 0.0125582 0
1 0.039765 0.0159915
1 0.0363928 0.0162966
0 0.262898 0
0 0.268223 0
0 0.273472 0
0 0.278706 0
0 0.283207 0
0 0.282567 0
0 0.280171 0
0 0.278813 0
0.00015259 0.274479 0
0.0235294 0.269978 0
0.0950179 0.265583 0
0.159518 0.261082 0
0.217273 0.256565 0
0.270436 0.252064 0
0.325765 0.244297 0
0.378912 0.239231 0
0.431113 0.230381 0
0.480415 0.222049 0
0.533455 0.215854 0
0.58735 0.20441 0
0.641733 0.192447 0
0.69723 0.179309 0
0.757153 0.163302 0
0.813611 0.141924 0
0.86807 0.118456 0
0.91635 0.0927596 0
0.958236 0.0730144 0
0.994659 0.0621805 0
1 0.057435 0
1 0.060502 0
1 0.0792859 0
1 0.120287 0.00495918
1 0.117983 0.00541695
0 0.288548 0
0 0.293965 0
0 0.299199 0
0 0.304448 0
0 0.308949 0
0 0.308492 0
0 0.306096 0
0 0.304387 0
0.00480659 0.300389 0
0.0457008 0.295979 0
0.1196 0.291707 0
0.174945 0.287572 0
0.226184 0.28304 0
0.277699 0.278599 0
0.329961 0.274235 0
0.378424 0.266331 0
0.430167 0.261494 0
0.479484 0.255772 0
0.532265 0.248035 0
0.583856 0.24155 0
0.633646 0.231952 0
0.687373 0.222324 0
0.743038 0.208499 0
0.799191 0.19704 0
0.851575 0.18114 0
0.902159 0.166598 0
0.944488 0.15404 0
0.986267 0.145632 0
1 0.139925 0
1 0.142504 0
1 0.157122 0
1 0.180941 0
1 0.178958 0
0 0.314458 0
0 0.319707 0
0 0.324941 0
0 0.330175 0
0 0.334768 0
0 0.334493 0
0 0.332204 0
0.000610361 0.328344 0
0.0179141 0.326696 0
0.0816815 0.322927 0
0.139467 0.320058 0
0.188602 0.318013 0
0.235904 0.313603 0
0.283192 0.309361 0
0.333196 0.304799 0
0.381598 0.300984 0
0.429877 0.296315 0
0.481422 0.288624 0
0.530114 0.283574 0
0.579156 0.278233 0
0.629191 0.271519 0
0.679149 0.262364 0
0.733394 0.252293 0
0.785382 0.242222 0
0.837583 0.231662 0
0.888151 0.222995 0
0.933867 0.213382 0
0.973938 0.206439 0
1 0.20441 0
1 0.204715 0
1 0.214206 0
1 0.231968 0
1 0.230457 0
0 0.340291 0
0 0.345525 0
0 0.351171 0
0 0.357275 0
0 0.362631 0
0 0.362631 0
0 0.35996 0
0.00482185 0.358557 0
0.0484016 0.354742 0
0.105882 0.353979 0
0.154162 0.351354 0
0.201022 0.348592 0
0.247242 0.345006 0
0.291722 0.341238 0
0.337087 0.337789 0
0.384634 0.335927 0
0.432792 0.331609 0
0.481132 0.32694 0
0.528939 0.321416 0
0.578653 0.314733 0
0.627558 0.309819 0
0.675425 0.304555 0
0.724819 0.296513 0
0.775555 0.290166 0
0.826902 0.281498 0
0.874403 0.275547 0
0.919905 0.2692 0
0.960662 0.263203 0
0.996506 0.26186 0
1 0.26041 0
1 0.264912 0
1 0.280995 0
1 0.279652 0
0 0.369177 0
0 0.375296 0
0 0.382101 0
0 0.38909 0
0 0.395346 0
0 0.395712 0
0.00308232 0.392523 0
0.0268101 0.389319 0
0.0805982 0.387137 0
0.127428 0.387015 0
0.170657 0.385626 0
0.214237 0.382055 0
0.256809 0.380011 0
0.29929 0.377676 0
0.342458 0.375463 0
0.387945 0.373037 0
0.434165 0.368765 0
0.482429 0.36408 0
0.529046 0.359747 0
0.577295 0.356222 0
0.624903 0.3514 0
0.672374 0.346197 0
0.719554 0.340795 0
0.766903 0.335164 0
0.81706 0.329717 0
0.863035 0.324666 0
0.90695 0.318624 0
0.951141 0.313542 0
0.986999 0.311055 0
1 0.311635 0
1 0.31519 0
1 0.326101 0
1 0.325093 0
0 0.402823 0
0.00103761 0.409934 0
0.00453193 0.416907 0
0.00802625 0.423896 0
0.0113375 0.430518 0
0.0137179 0.431006 0
0.0318456 0.425925 0
0.0689708 0.422477 0
0.108721 0.422309 0
0.147173 0.422187 0
0.186908 0.421088 0
0.224903 0.418265 0
0.26511 0.417578 0
0.305074 0.415259 0
0.347814 0.413169 0
0.391302 0.410697 0
0.435096 0.408606 0
0.480995 0.404334 0
0.527764 0.402152 0
0.575952 0.398871 0
0.623835 0.393912 0
0.66949 0.390219 0
0.71606 0.385626 0
0.762966 0.380118 0
0.808362 0.376745 0
0.853376 0.372366 0
0.897231 0.367971 0
0.939757 0.366201 0
0.979675 0.360937 0
1 0.36083 0
1 0.363973 0
1 0.371572 0
1 0.370581 0
0.0150149 0.437873 0
0.0241398 0.444846 0
0.0348058 0.451957 0
0.0452888 0.458946 0
0.0559701 0.46569 0
0.0607919 0.466423 0
0.0723735 0.460548 0
0.100877 0.457847 0
0.132219 0.457725 0
0.164294 0.457725 0
0.199954 0.457465 0
0.235172 0.456733 0
0.272328 0.455482 0
0.311482 0.453315 0
0.353246 0.45095 0
0.394842 0.448997 0
0.437888 0.448753 0
0.482139 0.444694 0
0.52723 0.444175 0
0.574426 0.439399 0
0.622614 0.435737 0
0.668406 0.432929 0
0.712505 0.430503 0
0.759197 0.425513 0
0.802304 0.421836 0
0.845685 0.419089 0
0.887831 0.415793 0
0.929702 0.414069 0
0.971511 0.410712 0
0.998947 0.408911 0
1 0.411582 0
1 0.417502 0
1 0.416693 0
0.065507 0.473045 0
0.0735027 0.48014 0
0.0813611 0.487129 0
0.0896315 0.494484 0
0.0969558 0.500984 0
0.0989548 0.502083 0
0.107439 0.49868 0
0.124086 0.496864 0
0.149676 0.496727 0
0.179919 0.496498 0
0.211215 0.493629 0
0.244129 0.493751 0
0.281575 0.493538 0
0.318669 0.493217 0
0.358297 0.490791 0
0.397925 0.489296 0
0.440848 0.489296 0
0.481651 0.485451 0
0.526467 0.485023 0
0.57258 0.4813 0
0.62092 0.479149 0
0.667033 0.476463 0
0.710201 0.473198 0
0.753384 0.471244 0
0.798947 0.466545 0
0.840238 0.465934 0
0.881468 0.462303 0
0.921492 0.460166 0
0.964096 0.459037 0
0.994858 0.457496 0
1 0.459983 0
1 0.464103 0
1 0.463416 0
0.102907 0.508461 0
0.108248 0.515557 0
0.113756 0.522911 0
0.119173 0.530144 0
0.123644 0.537057 0
0.124575 0.538567 0
0.132342 0.534981 0
0.146487 0.533333 0
0.166552 0.533333 0
0.192157 0.533333 0
0.222843 0.533608 0
0.255131 0.533883 0
0.291615 0.533883 0
0.325719 0.532311 0
0.362814 0.530282 0
0.40325 0.530236 0
0.44419 0.530373 0
0.484184 0.53051 0
0.528679 0.526726 0
0.573587 0.525734 0
0.617716 0.522606 0
0.66128 0.520088 0
0.707973 0.517952 0
0.751293 0.517494 0
0.794522 0.51281 0
0.836698 0.512505 0
0.875822 0.508995 0
0.91487 0.506889 0
0.955383 0.505974 0
0.99115 0.505058 0
1 0.50695 0
1 0.511208 0
1 0.510597 0
0.128389 0.545602 0
0.13283 0.553597 0
0.137423 0.561868 0
0.142016 0.570138 0
0.146151 0.577585 0
0.147143 0.579385 0
0.153735 0.575936 0
0.168063 0.574136 0
0.184573 0.574273 0
0.208957 0.574548 0
0.238651 0.574838 0
0.269154 0.574975 0
0.300496 0.575113 0
0.33492 0.57525 0
0.370001 0.573816 0
0.407172 0.57203 0
0.446586 0.57174 0
0.487022 0.572152 0
0.530266 0.569207 0
0.57229 0.569207 0
0.615915 0.567727 0
0.659434 0.564981 0
0.70338 0.564675 0
0.748745 0.560647 0
0.791714 0.559838 0
0.830732 0.558145 0
0.870008 0.555428 0
0.9093 0.554574 0
0.948714 0.553735 0
0.985443 0.552895 0
1 0.554437 0
1 0.555245 0
1 0.554467 0
0.150973 0.586282 0
0.155505 0.594415 0
0.160098 0.602686 0
0.163851 0.611582 0
0.167224 0.620005 0
0.1682 0.622461 0
0.173098 0.618479 0
0.186755 0.616632 0
0.204761 0.616785 0
0.225101 0.617243 0
0.250599 0.617548 0
0.279622 0.617716 0
0.310246 0.618021 0
0.34165 0.618326 0
0.37586 0.618631 0
0.411185 0.616739 0
0.449317 0.615167 0
0.488319 0.615625 0
0.528588 0.615778 0
0.571633 0.616083 0
0.614267 0.614939 0
0.656992 0.612009 0
0.70045 0.611704 0
0.743221 0.609293 0
0.785992 0.608667 0
0.824979 0.608499 0
0.864271 0.60766 0
0.90367 0.606989 0
0.943069 0.60502 0
0.981399 0.60441 0
0.999573 0.602914 0
1 0.60209 0
1 0.601663 0
0.171023 0.629511 0
0.174823 0.639002 0
0.178439 0.648035 0
0.182101 0.657237 0
0.185473 0.66566 0
0.186648 0.668559 0
0.190372 0.664576 0
0.200641 0.662745 0
0.216449 0.662898 0
0.23563 0.663508 0
0.258885 0.663813 0
0.287083 0.664271 0
0.315587 0.664576 0
0.346746 0.665049 0
0.379858 0.665354 0
0.413794 0.664988 0
0.450507 0.664668 0
0.488853 0.665339 0
0.526848 0.665507 0
0.567437 0.665843 0
0.609903 0.66508 0
0.651667 0.662089 0
0.694011 0.661921 0
0.736767 0.661753 0
0.779843 0.661585 0
0.818967 0.66125 0
0.858228 0.660731 0
0.897749 0.658228 0
0.937102 0.655482 0
0.973556 0.652811 0
0.99678 0.649851 0
1 0.64622 0
1 0.64538 0
0.189395 0.675456 0
0.192386 0.684886 0
0.193317 0.695155 0
0.194247 0.705272 0
0.195102 0.714702 0
0.195422 0.718242 0
0.199969 0.714031 0
0.21091 0.712016 0
0.224231 0.71252 0
0.243153 0.713191 0
0.26508 0.713695 0
0.291752 0.714199 0
0.318379 0.714702 0
0.349371 0.715206 0
0.38172 0.715892 0
0.415244 0.716396 0
0.451072 0.717235 0
0.488899 0.717739 0
0.525124 0.718074 0
0.56553 0.718334 0
0.606622 0.715328 0
0.647288 0.714992 0
0.687526 0.714992 0
0.72781 0.714824 0
0.770367 0.714656 0
0.809461 0.713802 0
0.84889 0.710903 0
0.888457 0.707408 0
0.9281 0.705913 0
0.962829 0.700755 0
0.992309 0.694179 0
1 0.687694 0
1 0.686519 0
0.196124 0.725658 0
0.198932 0.735943 0
0.201724 0.746212 0
0.204486 0.756329 0
0.207111 0.765927 0
0.208453 0.769848 0
0.21149 0.765927 0
0.221515 0.763912 0
0.234607 0.764584 0
