webgpu/resources/luts/TURKIEST__42.DJI_0001.cube
TITLE "Generated by Resolve"
LUT_3D_SIZE 5
0 0 0
0.00244144 0.00244144 0.00244144
0.0452888 0.0490883 0.0166323
0.853498 0 0
1 0 0.0446021
0.0065919 0.0416571 0.0208591
0.00294499 0.0862745 0.021088
0.384665 0.0448615 0
0.958984 0 0
1 0 0.055314
0 0.314458 0
0.0179141 0.326696 0
0.429877 0.296315 0
0.837583 0.231662 0
1 0.230457 0
0.150973 0.586282 0
0.204761 0.616785 0
0.449317 0.615167 0
0.785992 0.608667 0
1 0.601663 0
0.580392 0.94902 0
0.593103 0.94902 0
0.707103 0.94902 0
0.875853 0.941176 0
1 0.913725 0.0588235
0 0 0
0.00437934 0.00437934 0.0039826
0.0663157 0.0489662 0.0355535
0.862043 0 0.000274662
1 0 0.0320134
0.000274662 0.0738079 0.0515297
0 0.111772 0.0862287
0.421592 0.034226 0.0673075
0.927214 0 0.0247349
1 0 0.0505837
0 0.32224 0.0784466
0.00901808 0.334554 0.0922103
0.402075 0.311589 0.0668956
0.825452 0.25713 0.00416571
1 0.241733 0.0243229
0.129625 0.596811 0.00241093
0.184558 0.628824 0.0205539
0.434165 0.631815 0.00166323
0.773144 0.624506 0
1 0.606714 0
0.29485 0.934554 0
0.243748 0.93193 0
0.478172 0.929503 0
0.883513 0.940887 0
1 0.913725 0.0588235
0.0117647 0.0176852 0.0176852
0.0117647 0.0187381 0.0187381
0.112367 0.0588235 0.164569
0.63653 0 0.279652
1 0 0.269825
0 0.107561 0.161959
0 0.133303 0.229984
0.276539 0.104921 0.307408
0.704021 0 0.345739
1 0 0.350912
0 0.330053 0.276371
0.00233463 0.34847 0.307866
0.0911421 0.366567 0.404852
0.795789 0.264469 0.308949
1 0.256367 0.279744
0.116854 0.603555 0.300572
0.171923 0.636515 0.330343
0.398337 0.641382 0.341375
0.726497 0.641413 0.316976
1 0.616373 0.229282
0 0.918929 0.214588
0 0.917647 0.251621
0.206317 0.909804 0.236271
0.556085 0.889784 0.144488
1 0.909804 0.0705882
0 0.0728008 0.218143
0 0.0687877 0.193103
0.089601 0.0736706 0.456535
0.503151 0.011902 0.566644
0.905287 0 0.600824
0 0.129183 0.474937
0 0.146502 0.563714
0.156558 0.13315 0.642344
0.56556 0.0874952 0.673609
0.918013 0 0.692744
0 0.417288 0.688853
0 0.450507 0.726345
0 0.469535 0.72134
0.588281 0.343435 0.703639
0.955123 0.313848 0.731716
0 0.638636 0.683879
0 0.679866 0.743023
0 0.700908 0.800519
0.256367 0.710109 0.783627
0.995743 0.579934 0.725811
0 0.901961 0.555001
0 0.898863 0.587747
0.0437629 0.890776 0.591424
0.461616 0.870619 0.571908
0.906065 0.858824 0.549447
0 0.0823529 0.65098
0 0.0823529 0.660594
0 0.0862745 0.82916
0.355032 0.0932937 0.871412
0.832029 0 0.894118
0 0.132815 0.794171
0 0.150118 0.81767
0 0.143694 0.85095
0.449928 0.134844 0.875792
0.885466 0 0.894118
0 0.372793 0.836789
0 0.392767 0.839765
0 0.384558 0.854322
0.473869 0.380941 0.879133
0.913725 0.346731 0.901961
0 0.661158 0.856657
0 0.691661 0.858824
0 0.692851 0.865492
0 0.746197 0.882002
0.897978 0.608026 0.87837
0 0.894118 0.784314
0 0.894118 0.784314
0 0.886275 0.776471
0.348775 0.866682 0.764721
0.894118 0.870588 0.823529
