webgpu/resources/luts/Vintage_Warmth_1.C0427.cube
TITLE "Generated by Resolve"
LUT_3D_SIZE 33
0.0187076 0.0187076 0.0187076
0.0189822 0.0189822 0.0189822
0.0192569 0.0192569 0.0192569
0.0195621 0.0195621 0.0195621
0.0198672 0.0198672 0.0198672
0.0207523 0.0207523 0.0207523
0.0227665 0.0227512 0.0227512
0.0294347 0.0292973 0.0293126
0.0386206 0.037583 0.0376287
0.0518959 0.0474708 0.0473487
0.0709544 0.0572366 0.055848
0.0982223 0.0637217 0.0581369
0.137194 0.0577401 0.0360113
0.176089 0.0522469 0.0207218
0.223804 0.0498207 0.0206912
0.298817 0.0510719 0.032578
0.396963 0.0561837 0.0506447
0.471305 0.065507 0.0740215
0.517876 0.0751659 0.0979171
0.563134 0.0919203 0.120134
0.606958 0.119951 0.139452
0.646052 0.150652 0.156146
0.680278 0.181445 0.170413
0.712596 0.211322 0.183658
0.74583 0.243946 0.196902
0.770016 0.28069 0.204944
0.781186 0.31783 0.205432
0.788754 0.342733 0.205005
0.793347 0.348669 0.205585
0.796963 0.348302 0.20647
0.800549 0.347921 0.207416
0.804028 0.347631 0.208453
0.807431 0.347326 0.209491
0.0196078 0.0196078 0.0196078
0.0198825 0.0198825 0.0198825
0.0201419 0.0201419 0.0201419
0.0204013 0.0204013 0.0204013
0.0206607 0.0206607 0.0206607
0.0213931 0.0213931 0.0213931
0.0229648 0.0229648 0.0229648
0.0295872 0.0294499 0.0294499
0.0385443 0.0375677 0.0375677
0.0513161 0.0472419 0.0470283
0.0699016 0.0572061 0.0557717
0.0971237 0.0639963 0.0583352
0.136217 0.0585184 0.0367437
0.17586 0.0530251 0.0203098
0.22359 0.0506294 0.0200504
0.299702 0.052079 0.0319829
0.397147 0.0576944 0.0504463
0.471962 0.0674296 0.0744945
0.521324 0.0784161 0.0994278
0.567376 0.0947433 0.122667
0.612772 0.125887 0.142184
0.651759 0.15729 0.158877
0.686473 0.190295 0.173358
0.72018 0.220752 0.187381
0.754971 0.256168 0.201205
0.773938 0.294453 0.206348
0.784298 0.330755 0.206134
0.790829 0.349889 0.205844
0.794842 0.351888 0.206546
0.798444 0.351507 0.207553
0.801984 0.351125 0.208484
0.805325 0.350744 0.209384
0.80882 0.350408 0.210346
0.0204623 0.0204623 0.0204623
0.0206912 0.0206912 0.0206912
0.0209354 0.0209354 0.0209354
0.0211795 0.0211795 0.0211795
0.0214542 0.0214542 0.0214542
0.0220645 0.0220645 0.0220645
0.0234989 0.0234989 0.0234989
0.0300603 0.0299229 0.0299077
0.0389563 0.037995 0.0379492
0.0519112 0.0477913 0.0474708
0.0711986 0.0578012 0.0559701
0.0992599 0.0642557 0.0574502
0.139055 0.0589151 0.0356146
0.179263 0.0534218 0.018555
0.229099 0.0515145 0.0204929
0.314443 0.0539559 0.0337224
0.409171 0.0610513 0.0540169
0.479927 0.0715038 0.0789807
0.53048 0.0838941 0.104448
0.577661 0.104433 0.127779
0.623575 0.137194 0.147738
0.662669 0.170443 0.16437
0.697353 0.203235 0.17882
0.731456 0.234714 0.192844
0.761624 0.271412 0.204074
0.778225 0.308949 0.20766
0.786816 0.340032 0.207034
0.792737 0.355276 0.206775
0.796384 0.35491 0.207721
0.799969 0.354589 0.208698
0.803449 0.354177 0.209659
0.806867 0.353857 0.21062
0.810391 0.353506 0.211597
0.0212863 0.0212863 0.0212863
0.0215152 0.0215152 0.0215152
0.0217746 0.0217746 0.0217746
0.022034 0.022034 0.022034
0.0223087 0.0223087 0.0223087
0.0229191 0.0229191 0.0229191
0.0243687 0.0243534 0.0243534
0.0309606 0.0308232 0.0307927
0.0399939 0.0389868 0.0388952
0.0534981 0.0490425 0.0485847
0.0742809 0.0589914 0.0564889
0.105135 0.0640726 0.0544442
0.146166 0.0590982 0.0329137
0.187778 0.0533761 0.0140841
0.239872 0.0527199 0.0217441
0.338109 0.0566262 0.0367895
0.431891 0.0659953 0.0605936
0.49546 0.0780957 0.0872969
0.544335 0.0903334 0.113024
0.59295 0.117784 0.135439
0.636667 0.150423 0.154391
0.674098 0.184833 0.170153
0.708385 0.215381 0.18436
0.74255 0.24889 0.198108
0.768658 0.287098 0.206928
0.78143 0.322347 0.208423
0.789578 0.351415 0.207492
0.794263 0.358267 0.207889
0.797909 0.357977 0.208881
0.801526 0.35761 0.209888
0.80499 0.357336 0.210895
0.808545 0.357031 0.211902
0.812085 0.356725 0.212894
0.0221256 0.0221256 0.0221256
0.0224002 0.0224002 0.0224002
0.0227054 0.0227054 0.0227054
0.0230411 0.0230411 0.0230411
0.0233616 0.0233616 0.0233616
0.0238956 0.0238956 0.0238956
0.0252689 0.0252537 0.0252537
0.032105 0.0319524 0.0319066
0.0416266 0.0405432 0.0403754
0.0561074 0.051133 0.0504005
0.0788434 0.0608988 0.0573739
0.112779 0.0640879 0.0507668
0.155337 0.0592966 0.0291142
0.201297 0.0547951 0.0151827
0.264332 0.0555276 0.0248112
0.363409 0.0611429 0.0421454
0.451621 0.0719158 0.0674907
0.509621 0.0847639 0.094789
0.556039 0.0980087 0.119982
0.605051 0.129015 0.141375
0.647059 0.162005 0.159487
0.683803 0.19678 0.174884
0.717189 0.226001 0.188586
0.75053 0.261326 0.201678
0.774868 0.300069 0.209339
0.78407 0.333654 0.208789
0.791943 0.360998 0.207782
0.795712 0.361685 0.208804
0.799329 0.361303 0.209796
0.80296 0.360952 0.210727
0.806332 0.360723 0.211734
0.809873 0.360296 0.212634
0.813352 0.359945 0.213535
0.0232242 0.0232242 0.0232242
0.0235294 0.0235294 0.0235142
0.0238804 0.0238804 0.0238651
0.0242924 0.0242924 0.0242924
0.0247349 0.0247349 0.0247349
0.0253147 0.0253147 0.0253147
0.0264439 0.0264286 0.0264134
0.0332647 0.0330968 0.0330205
0.0429847 0.0419013 0.0416114
0.0582437 0.0530404 0.0519265
0.082948 0.0631266 0.0583963
0.119997 0.0648814 0.0477302
0.163088 0.0600137 0.0245518
0.210437 0.0568093 0.0155184
0.280781 0.0586709 0.0260777
0.374792 0.0653086 0.0446784
0.457527 0.0768444 0.0702525
0.514183 0.0888991 0.0975509
0.561761 0.105608 0.122316
0.609964 0.13611 0.143542
0.651545 0.169497 0.161349
0.687663 0.202213 0.176349
0.721569 0.233646 0.190249
0.753933 0.269459 0.202747
0.776242 0.306859 0.209201
0.785641 0.341756 0.208423
0.792721 0.36405 0.207767
0.796521 0.365301 0.20853
0.800107 0.364797 0.209369
0.803754 0.364446 0.210391
0.807263 0.364157 0.21146
0.810788 0.363867 0.212543
0.814313 0.363561 0.213535
0.0247807 0.0247959 0.0247807
0.0251774 0.0251926 0.0251774
0.0255894 0.0256046 0.0255894
0.0260319 0.0260471 0.0260319
0.0265507 0.026566 0.0265507
0.0271763 0.0271916 0.0271611
0.0280308 0.0280308 0.027985
0.0346075 0.0345006 0.0343328
0.0441291 0.0431678 0.0426184
0.0589303 0.0541238 0.052491
0.0831769 0.0643931 0.0587015
0.120348 0.0665446 0.047715
0.163272 0.0618448 0.0229801
0.209796 0.059144 0.0137331
0.277363 0.0611582 0.0233158
0.368856 0.0678111 0.0415656
0.452293 0.0795605 0.0670939
0.510201 0.0917372 0.0946212
0.558846 0.108644 0.11986
0.607172 0.13753 0.141527
0.649134 0.170611 0.159411
0.685603 0.203098 0.174609
0.719524 0.23505 0.188495
0.753033 0.27071 0.20148
0.77615 0.308476 0.208286
0.785687 0.344228 0.207263
0.792676 0.366323 0.206439
0.796719 0.369146 0.207095
0.800397 0.36875 0.208087
0.804074 0.36846 0.20914
0.807584 0.3682 0.210132
0.811078 0.367926 0.211154
0.814618 0.367636 0.212192
0.0297093 0.0298772 0.0297551
0.0307469 0.0309453 0.0307927
0.0320287 0.0322423 0.0320592
0.0335088 0.033753 0.0335393
0.0347448 0.0349889 0.0347448
0.0357824 0.0360266 0.0357366
0.0363622 0.0365759 0.0362554
0.0390173 0.0391089 0.0386206
0.0468605 0.0462501 0.0451057
0.0604868 0.0564889 0.0537423
0.082887 0.0659953 0.0590219
0.118334 0.0681773 0.0485695
0.160754 0.0635996 0.0226139
0.2065 0.0616007 0.0114137
0.269596 0.0637827 0.0195315
0.358785 0.0702068 0.0372473
0.444129 0.0817731 0.0626535
0.504204 0.0935836 0.0904707
0.553597 0.10985 0.11603
0.60209 0.137621 0.138231
0.644862 0.170382 0.156481
0.681895 0.203342 0.171801
0.716197 0.235813 0.185763
0.750668 0.270604 0.199268
0.774807 0.308141 0.206561
0.78529 0.344717 0.205875
0.792416 0.368338 0.204807
0.796796 0.373297 0.205264
0.800519 0.372976 0.206394
0.804181 0.372656 0.207462
0.807675 0.372351 0.208484
0.811154 0.371984 0.209476
0.814679 0.371649 0.210468
0.0386664 0.0395361 0.0389258
0.0402686 0.0413214 0.0405432
0.0419013 0.043122 0.0421759
0.0435798 0.0449531 0.0438239
0.0450904 0.0465553 0.0452735
0.0462348 0.0476844 0.0462806
0.0466468 0.0479438 0.0464637
0.0481117 0.0491798 0.0474861
0.05243 0.0528573 0.0503853
0.0633249 0.0607004 0.0559854
0.0854658 0.0707713 0.0594492
0.120958 0.0738231 0.0472877
0.161807 0.0687572 0.0211795
0.204578 0.0651865 0.00917067
0.262959 0.0660258 0.0162051
0.349233 0.0715953 0.0332647
0.43653 0.0821241 0.0586557
0.498024 0.0933394 0.0863966
0.548074 0.110979 0.112108
0.596613 0.139086 0.134585
0.640681 0.170733 0.153475
0.678569 0.203464 0.169238
0.712917 0.236164 0.183093
0.74728 0.270604 0.196506
0.772686 0.307729 0.204486
0.784817 0.344549 0.204547
0.792172 0.370138 0.20325
0.796872 0.377478 0.203525
0.800488 0.377096 0.204501
0.804196 0.37673 0.205539
0.807721 0.376394 0.206653
0.811231 0.376104 0.207706
0.814786 0.37583 0.208743
0.0493172 0.0526589 0.050309
0.0509804 0.055024 0.052079
0.0526589 0.0573281 0.0538033
0.0544594 0.0597238 0.0556039
0.0559701 0.0616007 0.0570077
0.0571756 0.0628061 0.0578775
0.0577859 0.0629892 0.0578927
0.0588235 0.0633707 0.0580301
0.062501 0.0664225 0.0597391
0.0697032 0.0705425 0.0612802
0.0875105 0.0767071 0.060502
0.121813 0.0796521 0.0454566
0.163653 0.0777752 0.0185092
0.207279 0.0773785 0.00408942
0.263279 0.0766308 0.0100557
0.345068 0.0787671 0.0285649
0.430823 0.0877699 0.0547799
0.494209 0.0982528 0.0831006
0.544671 0.112963 0.109239
0.593133 0.137926 0.132097
0.637888 0.169345 0.151293
0.675837 0.201816 0.167071
0.710079 0.235492 0.180697
0.744427 0.271351 0.193957
0.770825 0.30808 0.202457
0.78436 0.344915 0.203159
0.791943 0.372793 0.201526
0.796796 0.381613 0.201587
0.800427 0.381247 0.202564
0.80415 0.38088 0.203616
0.807797 0.380591 0.20473
0.811368 0.380346 0.20589
0.814893 0.380087 0.206928
0.0595102 0.0697948 0.0626078
0.0605936 0.0725567 0.0639353
0.0617685 0.0754559 0.0653544
0.0630198 0.078233 0.0666972
0.0642863 0.0805219 0.0677653
0.0654765 0.0818036 0.0682383
0.0665293 0.0819715 0.0680247
0.0679484 0.0821546 0.067689
0.0711223 0.0834516 0.0677501
0.0774548 0.0876326 0.0676127
0.0911727 0.0894331 0.0621805
0.122042 0.0884108 0.0440223
0.164034 0.0872053 0.0161746
0.209415 0.090486 0.0015259
0.264027 0.0945449 0.00378424
0.341085 0.100542 0.020798
0.426368 0.108995 0.0497597
0.493202 0.116716 0.0798657
0.544991 0.126909 0.107301
0.593484 0.142565 0.131121
0.637125 0.16492 0.150393
0.674418 0.194537 0.166079
0.708263 0.229023 0.179416
0.742168 0.266606 0.192325
0.769329 0.30544 0.200961
0.783612 0.343633 0.201907
0.791547 0.374441 0.199863
0.796628 0.385199 0.199588
0.800397 0.385229 0.200626
0.80415 0.385046 0.201694
0.807813 0.384802 0.202792
0.811353 0.384512 0.203922
0.814862 0.384283 0.20499
0.0649119 0.090837 0.0727855
0.0650034 0.094316 0.0735332
0.0652018 0.0974289 0.0742046
0.065507 0.100816 0.0749218
0.0661479 0.103639 0.0753796
0.0672923 0.10518 0.075288
0.068925 0.105455 0.0746319
0.0709392 0.104952 0.073579
0.0747692 0.104936 0.0723278
0.0809949 0.107713 0.0707256
0.0940261 0.112062 0.0652323
0.121431 0.107362 0.0450141
0.162493 0.101152 0.0157931
0.208682 0.103578 0.00132753
0.263249 0.111208 0.000808728
0.339467 0.122744 0.0156252
0.42501 0.136385 0.0450141
0.495552 0.14757 0.0766308
0.54934 0.156542 0.105592
0.59794 0.166415 0.130343
0.641032 0.179812 0.150195
0.676844 0.199771 0.165972
0.709438 0.226017 0.179507
0.742794 0.259388 0.192584
0.768551 0.298711 0.200397
0.782345 0.338964 0.200885
0.790661 0.372335 0.198581
0.795956 0.384741 0.198077
0.799863 0.38526 0.199069
0.803662 0.385428 0.200153
0.80734 0.385473 0.201175
0.810895 0.385489 0.202289
0.814389 0.385397 0.203326
0.0607614 0.117144 0.0790265
0.0609751 0.120119 0.0794537
0.0605936 0.123857 0.0800031
0.0603494 0.12755 0.0805219
0.0606241 0.13077 0.0807355
0.0618753 0.132403 0.0803082
0.0642863 0.132174 0.0790112
0.0669871 0.131411 0.0774701
0.072221 0.130632 0.0751507
0.0792554 0.130922 0.0721447
0.0914473 0.136721 0.0679789
0.117296 0.138933 0.0547646
0.157 0.128542 0.0257572
0.204639 0.121813 0.00450141
0.259464 0.127306 9.15541e-05
0.337469 0.141253 0.0132448
0.428382 0.160098 0.0423743
0.500359 0.177203 0.0740978
0.555489 0.191211 0.103609
0.604822 0.203632 0.128893
0.648249 0.21622 0.149233
0.683619 0.229999 0.165347
0.715694 0.248737 0.179309
0.747646 0.27396 0.192386
0.770397 0.305226 0.199481
0.781796 0.338842 0.199481
0.789349 0.366812 0.19765
0.794385 0.376989 0.197467
0.798367 0.377905 0.198413
0.802243 0.378653 0.199405
0.806027 0.379355 0.200427
0.809613 0.37995 0.201404
0.813153 0.380407 0.202335
0.0501106 0.146014 0.0842908
0.050248 0.149401 0.0846876
0.0504005 0.153231 0.0856336
0.0506447 0.157046 0.0865797
0.0513924 0.160113 0.0870375
0.0531777 0.161654 0.0866102
0.0563058 0.161212 0.0850385
0.0595712 0.160449 0.083299
0.065568 0.159503 0.0804303
0.0735943 0.158877 0.0767987
0.0847944 0.161959 0.0729229
0.10692 0.170001 0.0672313
0.14638 0.171359 0.050782
0.195575 0.157214 0.0218509
0.251759 0.149203 0.00283818
0.334279 0.161425 0.011368
0.430838 0.181155 0.0397345
0.507027 0.202182 0.0729381
0.563104 0.221897 0.102388
0.613214 0.240604 0.127337
0.657023 0.257786 0.14757
0.692561 0.274128 0.1635
0.724514 0.293584 0.177035
0.756008 0.316121 0.189807
0.77586 0.339223 0.19588
0.78436 0.363394 0.195209
0.790402 0.381598 0.19408
0.79472 0.385901 0.194629
0.798459 0.384604 0.195941
0.802182 0.38381 0.197131
0.805859 0.383169 0.198306
0.809384 0.382574 0.199435
0.812848 0.382361 0.200565
0.0397192 0.176181 0.0922866
0.040177 0.179751 0.093019
0.041062 0.183764 0.0944381
0.0421912 0.187213 0.0957656
0.0437171 0.19028 0.0967269
0.0461738 0.191608 0.0965286
0.0497139 0.191028 0.0949416
0.0535134 0.190143 0.0930953
0.0594034 0.189334 0.0903792
0.0677043 0.188571 0.086656
0.0782788 0.189319 0.0826123
0.0956436 0.196735 0.0792401
0.130312 0.209873 0.0740215
0.183673 0.210788 0.0510414
0.243015 0.193088 0.0180362
0.325536 0.187533 0.0101472
0.428443 0.20383 0.0354314
0.511452 0.226184 0.0706645
0.571069 0.249226 0.101427
0.622782 0.272862 0.126375
0.665537 0.294774 0.145296
0.700496 0.316121 0.159991
0.732097 0.338582 0.17258
0.763836 0.362844 0.184771
0.781994 0.386679 0.189166
0.788632 0.411078 0.186847
0.793561 0.425345 0.18555
0.797421 0.425467 0.186694
0.801038 0.421042 0.188617
0.8047 0.417441 0.190372
0.808286 0.414527 0.191974
0.811872 0.412131 0.193591
0.815198 0.410025 0.195041
0.0328222 0.207309 0.103883
0.0341192 0.210773 0.105074
0.035462 0.214664 0.106828
0.0368811 0.218662 0.108736
0.0386969 0.222126 0.110124
0.0413672 0.223835 0.110231
0.0451362 0.223346 0.108827
0.0491951 0.222324 0.106981
0.0545357 0.2215 0.104677
0.0625315 0.220447 0.101015
0.0725414 0.22002 0.0966506
0.0865034 0.22591 0.0930953
0.112978 0.240513 0.0883192
0.164355 0.259358 0.0780041
0.232288 0.258335 0.0506294
0.31284 0.237598 0.0225071
0.41738 0.233402 0.0308232
0.51194 0.252354 0.0660716
0.577096 0.276967 0.09897
0.63035 0.302251 0.124269
0.672908 0.326604 0.142428
0.707225 0.351202 0.155886
0.738338 0.376303 0.167514
0.768963 0.403098 0.178256
0.785183 0.430045 0.180682
0.790433 0.456306 0.177066
0.794675 0.47042 0.175463
0.798627 0.472511 0.176318
0.802579 0.469932 0.178027
0.806546 0.467002 0.179858
0.810376 0.463706 0.18172
0.814145 0.461097 0.183322
0.817761 0.45864 0.184894
0.0276799 0.242069 0.119005
0.0292363 0.245686 0.120577
0.0308385 0.250172 0.122713
0.0328374 0.254841 0.124971
0.03505 0.258762 0.126589
0.0379339 0.260792 0.126879
0.0417182 0.260151 0.125444
0.0457771 0.258671 0.123445
0.0504005 0.257465 0.121355
0.0577859 0.256336 0.117754
0.0671397 0.256229 0.113481
0.0793011 0.26006 0.108721
0.0996414 0.273945 0.103197
0.14345 0.296712 0.098497
0.215366 0.318868 0.0881208
0.301885 0.313726 0.0567636
0.404044 0.289036 0.0366522
0.505745 0.286671 0.0588388
0.578988 0.306249 0.0934615
0.634104 0.3308 0.119707
0.677943 0.355871 0.138277
0.712642 0.38175 0.151629
0.74377 0.408759 0.162646
0.771817 0.436851 0.17142
0.78558 0.464759 0.17232
0.789837 0.492012 0.168521
0.793667 0.50663 0.166979
0.797696 0.511025 0.167437
0.801846 0.512047 0.168551
0.805951 0.510307 0.16997
0.810056 0.507912 0.171557
0.814099 0.505531 0.173083
0.81799 0.503426 0.174624
0.026154 0.280522 0.13637
0.0282292 0.284977 0.138415
0.0302586 0.289952 0.140764
0.0328985 0.295338 0.143191
0.0357061 0.300053 0.145159
0.0387732 0.302037 0.145418
0.0424353 0.301366 0.143984
0.0463569 0.29987 0.142092
0.05037 0.298451 0.140047
0.0570077 0.297688 0.136736
0.0656748 0.297734 0.132555
0.0768902 0.299489 0.127138
0.0945296 0.311177 0.121691
0.130541 0.334722 0.117723
0.19556 0.36466 0.115328
0.287144 0.387304 0.10135
0.391623 0.373739 0.0667887
0.493736 0.343648 0.0561379
0.574899 0.342687 0.084596
0.633967 0.361303 0.112825
0.679942 0.385382 0.13225
0.715663 0.411551 0.145968
0.746777 0.438407 0.156771
0.773068 0.466087 0.164721
0.784848 0.493721 0.165194
0.788159 0.521981 0.16173
0.791714 0.537102 0.160571
0.795743 0.541238 0.16112
0.799939 0.541756 0.162219
0.80415 0.540383 0.163439
0.808392 0.538384 0.164813
0.812589 0.53666 0.166201
0.816617 0.535271 0.167544
0.0299382 0.324865 0.156069
0.032639 0.329961 0.158328
0.0352026 0.335164 0.160739
0.0380102 0.341451 0.163485
0.0407874 0.346288 0.165316
0.0437934 0.348272 0.165484
0.0475319 0.347707 0.164202
0.0513466 0.346212 0.162448
0.0552224 0.344732 0.160479
0.0610971 0.343969 0.157504
0.0690776 0.343557 0.153246
0.0795605 0.345327 0.148257
0.0952621 0.353689 0.142565
0.124086 0.376181 0.137453
0.180301 0.409354 0.135576
0.267338 0.443015 0.134325
0.374243 0.457877 0.115312
0.480583 0.430198 0.0809491
0.565087 0.398367 0.0773327
0.628992 0.399939 0.103517
0.679072 0.417884 0.124788
0.715877 0.441276 0.139147
0.747478 0.467582 0.150393
0.772595 0.494209 0.15819
0.783062 0.52134 0.15877
0.785931 0.549981 0.156146
0.78938 0.564935 0.155535
0.793454 0.568444 0.156252
0.797772 0.568933 0.157336
0.802029 0.567926 0.158373
0.806317 0.566155 0.159564
0.810651 0.564523 0.160815
0.814786 0.562951 0.162066
0.035584 0.373251 0.17641
0.0383001 0.379202 0.178866
0.0409552 0.38497 0.181338
0.0437018 0.39089 0.183719
0.0465095 0.395468 0.185382
0.0496223 0.397894 0.185779
0.0534524 0.397696 0.184726
0.0572976 0.396521 0.183062
0.0610666 0.394354 0.180941
0.0663157 0.393301 0.178332
0.0738231 0.393286 0.174563
0.0837262 0.394705 0.16968
0.0979629 0.400641 0.163485
0.121935 0.42153 0.157336
0.17055 0.45481 0.154818
0.25034 0.49041 0.154589
0.356359 0.523674 0.152529
0.466804 0.52694 0.13051
0.553338 0.486061 0.0970169
0.620264 0.454078 0.0960555
0.673518 0.457893 0.116075
0.713268 0.473701 0.131884
0.746456 0.496834 0.144198
0.771099 0.523201 0.152178
0.780682 0.549996 0.153246
0.783383 0.576761 0.151934
0.786847 0.590509 0.151949
0.790951 0.59324 0.152682
0.795285 0.594095 0.153582
0.79968 0.593011 0.154528
0.803998 0.591546 0.15555
0.808362 0.589899 0.156634
0.812589 0.588434 0.157748
0.0415198 0.424216 0.196658
0.0442512 0.429465 0.198749
0.0469368 0.435416 0.201205
0.0496529 0.44181 0.203662
0.052491 0.446815 0.205417
0.0556954 0.449317 0.205798
0.0594339 0.449119 0.204715
0.0633097 0.447715 0.202991
0.0671092 0.445991 0.201099
0.0717937 0.44448 0.198718
0.0788281 0.444587 0.195438
0.0884718 0.447089 0.191257
0.101823 0.451942 0.184909
0.122652 0.468757 0.177554
0.165042 0.500099 0.173495
0.23743 0.536522 0.173037
0.338094 0.572488 0.171984
0.45272 0.601038 0.168093
0.5449 0.59028 0.142565
0.609552 0.540459 0.110536
0.662989 0.510231 0.109789
0.706767 0.514549 0.124712
0.742626 0.529854 0.138079
0.76846 0.552422 0.147005
0.777981 0.577661 0.14905
0.780621 0.60351 0.148836
0.784024 0.616953 0.149264
0.788174 0.619425 0.149966
0.792554 0.619959 0.150774
0.797024 0.619028 0.151644
0.801419 0.617243 0.152499
0.805768 0.615595 0.153384
0.809995 0.614206 0.154314
0.0475013 0.47541 0.216052
0.0502937 0.480964 0.218143
0.052903 0.486976 0.220493
0.0557107 0.493278 0.222721
0.0587472 0.498665 0.224506
0.062089 0.501411 0.224887
0.0656901 0.500847 0.223651
0.0695354 0.499168 0.221988
0.0733196 0.497368 0.220066
0.0775311 0.495811 0.217975
0.0840314 0.496315 0.215427
0.0931411 0.498695 0.211505
0.105898 0.503502 0.205402
0.125048 0.51635 0.197116
0.162387 0.544244 0.191028
0.228489 0.580728 0.189746
0.322072 0.616785 0.189288
0.433738 0.648844 0.18793
0.534905 0.667079 0.180728
0.599603 0.644373 0.147662
0.649271 0.591028 0.117449
0.696452 0.565927 0.12108
0.736095 0.572412 0.133455
0.764309 0.586175 0.142992
0.775082 0.605249 0.146166
0.777829 0.629297 0.14699
0.781277 0.642786 0.147875
0.785458 0.645792 0.148623
0.789837 0.646021 0.149294
0.794263 0.644862 0.14992
0.798718 0.642969 0.150561
0.803067 0.641352 0.151202
0.807294 0.64007 0.151873
0.0540475 0.526452 0.233921
0.0569467 0.532372 0.23595
0.0597086 0.538338 0.238148
0.0627604 0.5449 0.240299
0.0658427 0.550103 0.241779
0.0691539 0.552697 0.241932
0.0728771 0.552148 0.240696
0.0766766 0.550652 0.2392
0.0804608 0.549142 0.237476
0.0844282 0.54786 0.235676
0.0897231 0.547692 0.233753
0.0978714 0.549783 0.23064
0.110307 0.554955 0.224979
0.128496 0.565164 0.215991
0.162127 0.589319 0.207904
0.222919 0.62417 0.205493
0.309285 0.657969 0.205066
0.414267 0.689281 0.203738
0.520256 0.714427 0.20322
0.594949 0.721996 0.190417
0.641459 0.69247 0.156008
0.684428 0.644465 0.131502
0.726436 0.624033 0.132876
0.758877 0.627466 0.141283
0.771908 0.637812 0.145068
0.775128 0.65539 0.146502
0.778698 0.667979 0.147768
0.782879 0.671016 0.148455
0.787274 0.671763 0.14902
0.791699 0.670573 0.149355
0.796109 0.668879 0.149722
0.800488 0.667308 0.150195
0.804761 0.666041 0.150744
0.061799 0.578164 0.250141
0.0648966 0.58407 0.251987
0.0679789 0.590784 0.254124
0.0708476 0.596582 0.255879
0.0738842 0.601419 0.257191
0.0772106 0.604074 0.25742
0.0808118 0.603311 0.256123
0.0847028 0.602304 0.254826
0.0885786 0.601053 0.2533
0.0923171 0.599298 0.251469
0.0965438 0.598077 0.250065
0.103319 0.600076 0.248417
0.11487 0.605585 0.243732
0.132662 0.615091 0.23447
0.162844 0.635004 0.224552
0.218235 0.665599 0.220279
0.298955 0.696971 0.219821
0.396246 0.726146 0.21854
0.501381 0.751614 0.218387
0.58793 0.769818 0.219837
0.641398 0.770001 0.207904
0.676585 0.739528 0.170153
0.713207 0.695369 0.143008
0.751186 0.676081 0.143389
0.768475 0.677272 0.146517
0.772335 0.686641 0.147738
0.776196 0.693721 0.148669
0.780392 0.69601 0.149233
0.784802 0.696712 0.14963
0.789181 0.696071 0.149859
0.793561 0.694804 0.150088
0.797925 0.693202 0.150362
0.802213 0.691936 0.150713
0.06981 0.629236 0.265232
0.0728618 0.635019 0.267018
0.0758373 0.64123 0.268986
0.0788128 0.647211 0.270893
0.0818952 0.652277 0.272312
0.0851148 0.654566 0.272419
0.0888533 0.654154 0.271351
0.0928359 0.653574 0.270146
0.0965744 0.651698 0.26833
0.100313 0.650095 0.26656
0.104295 0.648753 0.265278
0.109697 0.650217 0.264851
0.120119 0.655802 0.261433
0.137407 0.664973 0.252262
0.164828 0.680568 0.240589
0.215641 0.705638 0.234287
0.29192 0.734173 0.233799
0.383444 0.760891 0.232853
0.483543 0.784314 0.232822
0.572992 0.803525 0.235309
0.637339 0.815213 0.238758
0.677516 0.811933 0.2262
0.705318 0.782635 0.183963
0.739605 0.743191 0.155001
0.762966 0.724132 0.151232
0.769482 0.723796 0.151385
0.773739 0.724712 0.151507
0.778119 0.721843 0.15108
0.782513 0.721187 0.15111
0.786877 0.721325 0.151354
0.79115 0.720104 0.151354
0.795499 0.718486 0.1514
0.799771 0.717296 0.151598
0.0776074 0.67892 0.280079
0.0805371 0.684565 0.281758
0.0834821 0.690547 0.283726
0.0865034 0.696284 0.285756
0.0896162 0.700999 0.28719
0.0929885 0.703777 0.287556
0.0967117 0.703365 0.286503
0.10045 0.701976 0.284901
0.104295 0.700694 0.283223
0.107988 0.699031 0.281422
0.112047 0.69839 0.280262
0.116808 0.699428 0.280324
0.12607 0.704952 0.278141
0.142763 0.713664 0.269444
0.168063 0.725368 0.256382
0.215015 0.744442 0.248112
0.287709 0.770062 0.2477
0.373449 0.79353 0.247181
0.467384 0.814374 0.247456
0.555779 0.832593 0.250172
0.62562 0.847333 0.255787
0.675654 0.85568 0.261494
0.709133 0.851759 0.248569
0.733669 0.824231 0.203174
0.755871 0.78648 0.167361
0.76704 0.767269 0.158251
0.771435 0.761669 0.156878
0.775967 0.753811 0.155245
0.780453 0.747402 0.153903
0.784772 0.745708 0.153582
0.789029 0.744747 0.153445
0.793286 0.743389 0.153262
0.797528 0.742077 0.153216
0.0852827 0.726345 0.295247
0.0882429 0.731792 0.297032
0.0912032 0.73753 0.299229
0.0941634 0.74258 0.301396
0.0973373 0.747387 0.303227
0.100542 0.749615 0.303517
0.10428 0.749203 0.302419
0.107942 0.74789 0.300694
0.111711 0.74638 0.298802
