webgpu/resources/luts/Vintage_Warmth_1.C0427.cube
TITLE "Generated by Resolve"
LUT_3D_SIZE 5
0.0187076 0.0187076 0.0187076
0.0386206 0.037583 0.0376287
0.396963 0.0561837 0.0506447
0.74583 0.243946 0.196902
0.807431 0.347326 0.209491
0.0386664 0.0395361 0.0389258
0.05243 0.0528573 0.0503853
0.43653 0.0821241 0.0586557
0.772686 0.307729 0.204486
0.814786 0.37583 0.208743
0.0276799 0.242069 0.119005
0.0504005 0.257465 0.121355
0.404044 0.289036 0.0366522
0.78558 0.464759 0.17232
0.81799 0.503426 0.174624
0.06981 0.629236 0.265232
0.0965744 0.651698 0.26833
0.29192 0.734173 0.233799
0.762966 0.724132 0.151232
0.799771 0.717296 0.151598
0.132189 0.898924 0.359731
0.155261 0.902129 0.356725
0.284489 0.937011 0.331044
0.719707 0.968917 0.317968
0.830365 0.974716 0.315206
0.0408942 0.0420233 0.042359
0.0407568 0.0403754 0.0408942
0.378347 0.0529183 0.0639811
0.746105 0.246326 0.218128
0.807355 0.348089 0.23209
0.0436713 0.0450904 0.0451514
0.0543679 0.0547036 0.0544747
0.438254 0.0954147 0.0789349
0.773663 0.31342 0.226841
0.815122 0.376593 0.231998
0.0317998 0.244343 0.14287
0.0539254 0.260609 0.145663
0.421729 0.291585 0.0596017
0.788022 0.471595 0.195926
0.820523 0.506706 0.199084
0.0753338 0.634485 0.289113
0.101946 0.657069 0.292256
0.306645 0.742718 0.257649
0.767254 0.727703 0.17377
0.803433 0.719936 0.174258
0.136599 0.898253 0.381765
0.159426 0.901549 0.378592
0.294621 0.93669 0.352117
0.727901 0.968856 0.340261
0.834501 0.974243 0.3364
0.0161898 0.26836 0.356085
0.0271763 0.237949 0.308354
0.180743 0.179583 0.196506
0.736706 0.321111 0.283467
0.808621 0.362753 0.27068
0.0193332 0.243549 0.324926
0.0408484 0.254398 0.331411
0.213581 0.229465 0.218097
0.773922 0.393881 0.324849
0.82472 0.416709 0.299351
0.0303502 0.242664 0.282673
0.0592203 0.264927 0.304753
0.285649 0.30515 0.245624
0.764187 0.399619 0.236851
0.818021 0.437858 0.251225
0.119783 0.674952 0.484886
0.151461 0.698207 0.514672
0.228626 0.688426 0.32369
0.758679 0.730694 0.208392
0.807752 0.724544 0.211627
0.141299 0.899489 0.516258
0.167575 0.901442 0.531945
0.258854 0.9299 0.408438
0.694041 0.96318 0.376638
0.839658 0.971832 0.37026
0.132036 0.599847 0.765301
0.138949 0.577462 0.735531
0.164248 0.509392 0.631434
0.6598 0.476265 0.463203
0.864897 0.554818 0.687572
0.128145 0.594446 0.755703
0.155352 0.60708 0.763821
0.186847 0.563485 0.687877
0.719982 0.548592 0.582467
0.880659 0.58584 0.702327
0.105806 0.554253 0.706004
0.13312 0.56878 0.717296
0.156298 0.561578 0.707424
0.699748 0.547036 0.549004
0.890532 0.629984 0.734722
0.121172 0.596506 0.715541
0.150057 0.615183 0.73254
0.203357 0.66038 0.74197
0.771344 0.76492 0.665385
0.919371 0.754391 0.619043
0.200824 0.886259 0.917647
0.225299 0.888853 0.926085
0.256794 0.887968 0.850629
0.652079 0.956008 0.608972
0.872114 0.968734 0.497215
0.166094 0.699657 0.882567
0.184451 0.698314 0.876554
0.213596 0.691402 0.860807
0.521874 0.698894 0.79881
0.897719 0.649409 0.895766
0.172992 0.717296 0.894804
0.196017 0.720516 0.893599
0.225437 0.711833 0.87834
0.665156 0.712642 0.866453
0.909773 0.676936 0.903838
0.165011 0.727626 0.906157
0.18735 0.729274 0.904036
0.212787 0.716854 0.889708
0.567422 0.740185 0.813336
0.913619 0.701595 0.906828
0.160876 0.742687 0.913634
0.184192 0.745007 0.912352
0.221698 0.748959 0.908232
0.569284 0.789166 0.86244
0.930968 0.778851 0.929274
0.167437 0.784649 0.931426
0.191501 0.787137 0.930632
0.233967 0.802915 0.929427
0.453269 0.857542 0.939422
0.956939 0.971786 0.874617
