webgpu/resources/luts/Vintage_Warmth_1.C0427.cube
TITLE "Generated by Resolve"
LUT_3D_SIZE 9
0.0187076 0.0187076 0.0187076
0.0198672 0.0198672 0.0198672
0.0386206 0.037583 0.0376287
0.137194 0.0577401 0.0360113
0.396963 0.0561837 0.0506447
0.606958 0.119951 0.139452
0.74583 0.243946 0.196902
0.793347 0.348669 0.205585
0.807431 0.347326 0.209491
0.0221256 0.0221256 0.0221256
0.0233616 0.0233616 0.0233616
0.0416266 0.0405432 0.0403754
0.155337 0.0592966 0.0291142
0.451621 0.0719158 0.0674907
0.647059 0.162005 0.159487
0.774868 0.300069 0.209339
0.799329 0.361303 0.209796
0.813352 0.359945 0.213535
0.0386664 0.0395361 0.0389258
0.0450904 0.0465553 0.0452735
0.05243 0.0528573 0.0503853
0.161807 0.0687572 0.0211795
0.43653 0.0821241 0.0586557
0.640681 0.170733 0.153475
0.772686 0.307729 0.204486
0.800488 0.377096 0.204501
0.814786 0.37583 0.208743
0.0607614 0.117144 0.0790265
0.0606241 0.13077 0.0807355
0.072221 0.130632 0.0751507
0.157 0.128542 0.0257572
0.428382 0.160098 0.0423743
0.648249 0.21622 0.149233
0.770397 0.305226 0.199481
0.798367 0.377905 0.198413
0.813153 0.380407 0.202335
0.0276799 0.242069 0.119005
0.03505 0.258762 0.126589
0.0504005 0.257465 0.121355
0.0996414 0.273945 0.103197
0.404044 0.289036 0.0366522
0.677943 0.355871 0.138277
0.78558 0.464759 0.17232
0.801846 0.512047 0.168551
0.81799 0.503426 0.174624
0.0415198 0.424216 0.196658
0.052491 0.446815 0.205417
0.0671092 0.445991 0.201099
0.101823 0.451942 0.184909
0.338094 0.572488 0.171984
0.662989 0.510231 0.109789
0.777981 0.577661 0.14905
0.792554 0.619959 0.150774
0.809995 0.614206 0.154314
0.06981 0.629236 0.265232
0.0818952 0.652277 0.272312
0.0965744 0.651698 0.26833
0.120119 0.655802 0.261433
0.29192 0.734173 0.233799
0.637339 0.815213 0.238758
0.762966 0.724132 0.151232
0.782513 0.721187 0.15111
0.799771 0.717296 0.151598
0.102312 0.810605 0.329931
0.117922 0.830289 0.337667
0.132906 0.830625 0.333577
0.157778 0.836133 0.324742
0.291951 0.871214 0.295842
0.577478 0.934768 0.306249
0.76611 0.954971 0.324208
0.776349 0.868681 0.1794
0.792264 0.841169 0.169512
0.132189 0.898924 0.359731
0.140291 0.901274 0.360113
0.155261 0.902129 0.356725
0.178653 0.911055 0.353094
0.284489 0.937011 0.331044
0.526757 0.954116 0.312322
0.719707 0.968917 0.317968
0.813458 0.975204 0.320302
0.830365 0.974716 0.315206
0.0190127 0.0190127 0.0190127
0.0201877 0.0201877 0.0201877
0.0384985 0.0375219 0.0376593
0.135988 0.0583963 0.0397192
0.395834 0.0563363 0.0557107
0.608423 0.12163 0.145861
0.748547 0.24773 0.204349
0.793774 0.34931 0.212558
0.807843 0.348043 0.216403
0.022446 0.022446 0.022446
0.0238041 0.0238041 0.0238041
0.042649 0.0415045 0.0415045
0.16141 0.0590829 0.0294652
0.458 0.0744488 0.0766461
0.651011 0.167071 0.167422
0.77583 0.304784 0.215946
0.799786 0.361975 0.2168
0.813748 0.360571 0.220584
0.0408026 0.0419165 0.0412909
0.0470436 0.0486152 0.0474861
0.0543984 0.0547951 0.0524605
0.16875 0.0679789 0.0201419
0.445121 0.0840162 0.0683452
0.645624 0.17586 0.161959
0.774441 0.313481 0.211475
0.801022 0.377691 0.211734
0.815305 0.376516 0.215854
0.0601816 0.121355 0.0837873
0.0601205 0.134936 0.0861219
0.0725872 0.135286 0.0805676
0.16379 0.129931 0.0278019
0.442023 0.166049 0.0542153
0.655299 0.225238 0.158526
0.773053 0.313298 0.206653
0.798718 0.376425 0.206043
0.813504 0.379309 0.209705
0.0287785 0.246769 0.128054
0.0367437 0.263813 0.135683
0.0515755 0.262699 0.130556
0.102602 0.282155 0.111955
0.421393 0.295323 0.0454719
0.684977 0.36434 0.147692
0.786892 0.473411 0.178454
0.80293 0.516182 0.175433
0.819165 0.508202 0.181491
0.0442206 0.430732 0.206149
0.0552682 0.454047 0.214984
0.0698253 0.453056 0.210681
0.106081 0.460914 0.194034
0.354772 0.585336 0.181369
0.670466 0.518151 0.119005
0.778988 0.585534 0.155917
0.793866 0.623758 0.157992
0.811292 0.617746 0.161486
0.0728771 0.636423 0.274235
0.0848707 0.659342 0.281254
0.0995193 0.658854 0.277256
0.124483 0.664683 0.27013
0.306004 0.744381 0.242618
0.645594 0.821836 0.248966
0.764874 0.729915 0.158816
0.783871 0.725032 0.15845
0.801144 0.721035 0.158816
0.105501 0.816342 0.33962
0.12256 0.836393 0.346395
0.137346 0.836591 0.342367
0.163699 0.843702 0.333455
0.304799 0.879545 0.305882
0.585702 0.939178 0.315694
0.771954 0.955932 0.331502
0.777752 0.87303 0.186633
0.793744 0.847242 0.1776
0.133944 0.89926 0.366415
0.142031 0.901579 0.366949
0.157046 0.902419 0.363485
0.181506 0.912856 0.360052
0.292607 0.937789 0.337209
0.536233 0.955077 0.31873
0.726207 0.969726 0.325322
0.81503 0.975494 0.326711
0.83209 0.975097 0.321599
0.0408942 0.0420233 0.042359
0.0409857 0.0419623 0.0422217
0.0407568 0.0403754 0.0408942
0.122026 0.0601358 0.0532998
0.378347 0.0529183 0.0639811
0.602518 0.118914 0.156863
0.746105 0.246326 0.218128
0.793408 0.349386 0.228351
0.807355 0.348089 0.23209
0.0408331 0.0418555 0.0422065
0.0421912 0.0431678 0.0434577
0.0454108 0.0449378 0.0455024
0.156847 0.0603189 0.0421759
0.451087 0.0722515 0.0877699
0.648249 0.170489 0.180148
0.775006 0.304006 0.231067
0.799451 0.362051 0.2327
0.813428 0.360693 0.236423
0.0436713 0.0450904 0.0451514
0.0479286 0.049485 0.0496223
0.0543679 0.0547036 0.0544747
0.169406 0.0722972 0.0318608
0.438254 0.0954147 0.0789349
0.642786 0.171771 0.175174
0.773663 0.31342 0.226841
0.800885 0.377646 0.227985
0.815122 0.376593 0.231998
0.0607462 0.121355 0.0949569
0.0603037 0.135393 0.101564
0.0727855 0.135119 0.0952468
0.161822 0.127138 0.0429999
0.437964 0.164355 0.0684215
0.6533 0.223316 0.172961
0.772107 0.311437 0.222049
0.798749 0.377081 0.222293
0.813489 0.379782 0.225971
0.0317998 0.244343 0.14287
0.0394141 0.261845 0.151171
0.0539254 0.260609 0.145663
0.103563 0.279667 0.127306
0.421729 0.291585 0.0596017
0.685008 0.36289 0.164599
0.788022 0.471595 0.195926
0.804547 0.514595 0.19295
0.820523 0.506706 0.199084
0.0467384 0.428565 0.220844
0.0579843 0.452033 0.229953
0.0723888 0.451484 0.225788
0.108049 0.458167 0.20914
0.355001 0.583124 0.196048
0.672282 0.515221 0.134752
0.781262 0.584131 0.172519
0.796094 0.622339 0.174441
0.813519 0.616327 0.178042
0.0753338 0.634485 0.289113
0.0874495 0.657298 0.296269
0.101946 0.657069 0.292256
0.126436 0.662379 0.28513
0.306645 0.742718 0.257649
0.647547 0.820859 0.263355
0.767254 0.727703 0.17377
0.786007 0.723964 0.173632
0.803433 0.719936 0.174258
0.10811 0.814862 0.354711
0.125063 0.834943 0.361334
0.139452 0.834974 0.357382
0.165805 0.842222 0.348592
0.306462 0.878065 0.320684
0.587518 0.939254 0.331075
0.773922 0.955261 0.346563
0.780011 0.871061 0.201068
0.795941 0.845655 0.192172
0.136599 0.898253 0.381765
0.144533 0.900618 0.382025
0.159426 0.901549 0.378592
0.183948 0.911772 0.375174
0.294621 0.93669 0.352117
0.537926 0.954055 0.333639
0.727901 0.968856 0.340261
0.817426 0.974655 0.341405
0.834501 0.974243 0.3364
0.0419623 0.125765 0.154467
0.0455177 0.123919 0.150057
0.0615244 0.104952 0.117983
0.102083 0.0902724 0.103746
0.31017 0.0985275 0.0999924
0.59733 0.139788 0.169741
0.745159 0.247761 0.234531
0.792676 0.349264 0.246342
0.806439 0.347829 0.249836
0.0454108 0.12282 0.15024
0.0466926 0.125902 0.153567
0.0598306 0.115846 0.134493
0.121965 0.108675 0.123461
0.371084 0.145586 0.137713
0.647272 0.19884 0.195163
0.77435 0.305776 0.248325
0.79881 0.361929 0.250904
0.812772 0.360678 0.254505
0.0555734 0.111543 0.131228
0.0542 0.123156 0.147646
0.0627451 0.120821 0.142092
0.124651 0.115358 0.125429
0.370947 0.150591 0.124331
0.642924 0.203281 0.190341
0.773007 0.313344 0.244434
0.800458 0.377478 0.246555
0.814649 0.376516 0.250523
0.0555123 0.118776 0.127382
0.0534981 0.134676 0.145205
0.063798 0.134463 0.141421
0.12958 0.139528 0.127443
0.404486 0.155352 0.078645
0.632242 0.196933 0.181765
0.764431 0.288991 0.238422
0.799558 0.385275 0.240116
0.813993 0.385916 0.244144
0.0277714 0.258259 0.20351
0.0416114 0.284367 0.224369
0.0551003 0.280735 0.21735
0.0951247 0.261036 0.165805
0.379019 0.279118 0.0762646
0.666758 0.354223 0.175189
0.785794 0.452171 0.218173
0.805722 0.499641 0.215732
0.821149 0.490608 0.222171
0.0507057 0.432486 0.258122
0.0653239 0.462119 0.276097
0.0791333 0.460166 0.270695
0.105776 0.451606 0.236774
0.309453 0.547143 0.207675
0.661021 0.511559 0.148928
0.783475 0.576532 0.192279
0.798459 0.623087 0.193439
0.815747 0.6168 0.19733
0.0802777 0.636393 0.314977
0.0937057 0.661814 0.327688
0.108003 0.661173 0.323018
0.12636 0.656321 0.307485
0.27805 0.716655 0.270619
0.634501 0.809812 0.274846
0.76875 0.722606 0.190616
0.788495 0.723918 0.191699
0.805753 0.719295 0.192294
0.111498 0.813581 0.376486
0.127993 0.833997 0.387304
0.142199 0.83389 0.383017
0.164385 0.835325 0.368795
0.290501 0.864317 0.335164
0.577188 0.934432 0.345281
0.76875 0.953384 0.362264
0.782055 0.866804 0.217182
0.798276 0.841764 0.208835
0.140703 0.898924 0.401266
0.149325 0.902296 0.40444
0.164294 0.90312 0.400824
0.185412 0.908797 0.394583
0.29102 0.934783 0.370077
0.533242 0.952148 0.350652
0.725872 0.967315 0.356313
0.819959 0.97351 0.358038
0.836851 0.973144 0.35317
0.0161898 0.26836 0.356085
0.0197299 0.264378 0.348486
0.0271763 0.237949 0.308354
0.0499886 0.198901 0.251102
0.180743 0.179583 0.196506
0.526848 0.246769 0.247715
0.736706 0.321111 0.283467
0.79675 0.371267 0.273381
0.808621 0.362753 0.27068
0.0169375 0.262211 0.348837
0.0240787 0.267597 0.353216
0.0377813 0.254444 0.330129
0.0682994 0.229664 0.288396
0.220951 0.223728 0.221424
0.578698 0.30547 0.281056
0.775448 0.388235 0.335744
0.813535 0.416419 0.322988
0.824887 0.407462 0.311238
0.0193332 0.243549 0.324926
0.0302892 0.258793 0.341756
0.0408484 0.254398 0.331411
0.0699321 0.231098 0.288411
0.213581 0.229465 0.218097
0.575006 0.312779 0.274372
0.773922 0.393881 0.324849
0.813001 0.42594 0.306554
0.82472 0.416709 0.299351
0.0229343 0.225528 0.294667
0.0337835 0.240284 0.311345
0.0491951 0.239628 0.305715
0.0639658 0.239811 0.302693
0.24065 0.234638 0.217044
0.585214 0.319219 0.274296
0.768429 0.382925 0.291966
0.805005 0.419089 0.263081
0.817792 0.413352 0.262562
0.0303502 0.242664 0.282673
0.0444648 0.267323 0.310216
0.0592203 0.264927 0.304753
0.0820325 0.284871 0.303441
0.285649 0.30515 0.245624
0.632425 0.352865 0.235538
0.764187 0.399619 0.236851
0.803784 0.445609 0.245579
0.818021 0.437858 0.251225
0.100023 0.519936 0.464485
0.115862 0.544366 0.495552
0.130709 0.543954 0.49163
0.128573 0.507683 0.402716
0.219318 0.502998 0.287449
0.616693 0.526253 0.173465
0.778775 0.583276 0.208972
0.800305 0.631251 0.21294
0.817533 0.623224 0.216892
0.119783 0.674952 0.484886
0.137285 0.698863 0.51957
0.151461 0.698207 0.514672
0.150698 0.680079 0.437613
0.228626 0.688426 0.32369
0.571893 0.777768 0.300099
0.758679 0.730694 0.208392
0.79057 0.730922 0.211231
0.807752 0.724544 0.211627
0.136248 0.821347 0.506584
0.153414 0.839582 0.541848
0.167407 0.839292 0.536477
0.172717 0.832944 0.482124
0.250446 0.848936 0.376074
0.523781 0.898985 0.361227
0.737621 0.948074 0.38117
0.784329 0.859571 0.233112
0.800534 0.835279 0.225284
0.141299 0.899489 0.516258
0.15349 0.900786 0.537621
0.167575 0.901442 0.531945
0.179385 0.902876 0.500923
0.258854 0.9299 0.408438
0.491966 0.947799 0.384543
0.694041 0.96318 0.376638
0.822843 0.972366 0.375525
0.839658 0.971832 0.37026
0.0661326 0.444022 0.58114
0.0694896 0.439933 0.574105
0.0734569 0.415427 0.537896
0.0955215 0.370077 0.470161
0.123217 0.32726 0.390936
0.414008 0.319875 0.226932
0.693614 0.385336 0.34107
0.834058 0.498665 0.51603
0.847456 0.490135 0.496529
0.0661021 0.440131 0.576196
0.0750134 0.447181 0.582452
0.0889143 0.439292 0.566674
0.119997 0.407889 0.509392
0.148302 0.375372 0.424872
0.50956 0.369619 0.240177
0.741329 0.447623 0.406302
0.857176 0.557885 0.654276
0.87126 0.54905 0.638392
0.0637827 0.426261 0.557794
0.0766766 0.44239 0.575204
0.0889906 0.439994 0.567773
0.119509 0.409323 0.50898
0.142367 0.37879 0.419974
0.494743 0.376791 0.236072
0.73753 0.453239 0.39379
0.859083 0.562753 0.625086
0.873869 0.556756 0.614923
0.0609903 0.403662 0.525963
0.0736248 0.420874 0.545007
0.0876478 0.41976 0.539254
0.0955825 0.412299 0.527535
0.132586 0.374334 0.436851
0.486397 0.375769 0.250111
0.731106 0.460563 0.390646
0.857084 0.559213 0.56994
0.870726 0.549706 0.551049
0.0573892 0.379614 0.488029
0.0702831 0.398337 0.508995
0.0844587 0.396872 0.503853
0.106508 0.405631 0.506996
0.12932 0.422797 0.525399
0.528542 0.418952 0.361944
0.746502 0.500359 0.437613
0.84387 0.528237 0.441672
0.85745 0.520882 0.432563
0.0747234 0.421118 0.505211
0.0898909 0.447379 0.533913
0.104799 0.445792 0.52961
0.130159 0.465644 0.527581
0.163424 0.513954 0.550408
0.569604 0.570459 0.458686
0.785626 0.610544 0.448814
0.844343 0.616693 0.383581
0.85568 0.605219 0.363516
0.158419 0.70898 0.731899
0.169192 0.718242 0.746532
0.184588 0.718212 0.743923
0.202365 0.724239 0.713069
0.206928 0.705837 0.622232
0.484703 0.739208 0.458885
0.748394 0.745464 0.324208
0.805341 0.75584 0.273655
0.815366 0.745846 0.249256
0.184039 0.834485 0.762417
0.197986 0.852216 0.786618
0.213046 0.851591 0.783505
0.223835 0.843336 0.741543
0.223423 0.833631 0.642832
0.463783 0.867658 0.465339
0.703639 0.919081 0.446693
0.786923 0.855711 0.251301
0.802762 0.83125 0.242817
0.185504 0.887907 0.751888
0.196155 0.889632 0.770367
0.211429 0.890211 0.767895
0.224521 0.890959 0.738903
0.225162 0.895186 0.643595
0.448753 0.943648 0.479561
0.663233 0.960403 0.452689
0.833463 0.972244 0.419318
0.848997 0.969665 0.4094
0.132036 0.599847 0.765301
0.135897 0.596689 0.760479
0.138949 0.577462 0.735531
0.148836 0.549401 0.69427
0.164248 0.509392 0.631434
0.265812 0.482444 0.559091
0.6598 0.476265 0.463203
0.842054 0.546639 0.661097
0.864897 0.554818 0.687572
0.132464 0.600824 0.765148
0.142535 0.608408 0.77145
0.155764 0.605035 0.763546
0.172045 0.589273 0.735286
0.185214 0.561273 0.691691
0.350286 0.550423 0.622126
0.726574 0.543297 0.607065
0.860044 0.574975 0.701579
0.875563 0.571283 0.701915
0.128145 0.594446 0.755703
0.141405 0.608225 0.768444
0.155352 0.60708 0.763821
0.172747 0.592065 0.734844
0.186847 0.563485 0.687877
0.348089 0.550195 0.623453
0.719982 0.548592 0.582467
0.864469 0.588617 0.701045
0.880659 0.58584 0.702327
0.11667 0.576242 0.73463
0.129839 0.59057 0.748455
0.143069 0.58851 0.743145
0.152392 0.579812 0.732387
0.172671 0.55079 0.679835
0.331548 0.539117 0.61149
0.702617 0.540948 0.532021
0.867216 0.60351 0.704158
0.884565 0.603159 0.709056
0.105806 0.554253 0.706004
0.119051 0.56994 0.721904
0.13312 0.56878 0.717296
0.147478 0.565835 0.711452
0.156298 0.561578 0.707424
0.329381 0.548012 0.627573
0.699748 0.547036 0.549004
0.87306 0.631876 0.732982
0.890532 0.629984 0.734722
0.0982834 0.535607 0.677058
0.11162 0.552728 0.694957
0.126116 0.551781 0.690944
0.146151 0.555856 0.689097
0.175326 0.579995 0.706508
0.38088 0.623117 0.710353
0.739773 0.636255 0.674296
0.890944 0.683955 0.74902
0.904707 0.668635 0.728176
0.121172 0.596506 0.715541
0.135164 0.616861 0.736446
0.150057 0.615183 0.73254
0.173693 0.62884 0.731929
0.203357 0.66038 0.74197
0.30779 0.712657 0.761608
0.771344 0.76492 0.665385
0.906935 0.769985 0.65565
0.919371 0.754391 0.619043
0.184314 0.807584 0.87866
0.195636 0.819394 0.892363
0.211063 0.819089 0.890059
0.232761 0.833036 0.885893
0.255451 0.851789 0.859678
0.291386 0.842344 0.78439
0.690364 0.883314 0.618662
0.837629 0.86128 0.418601
0.850889 0.846723 0.395651
0.200824 0.886259 0.917647
0.209491 0.888487 0.925124
0.225299 0.888853 0.926085
0.242451 0.888579 0.909911
0.256794 0.887968 0.850629
0.314992 0.902266 0.771511
0.652079 0.956008 0.608972
0.83209 0.971771 0.523232
0.872114 0.968734 0.497215
0.172213 0.698085 0.872969
0.177584 0.697551 0.871153
0.189166 0.69337 0.863706
0.203418 0.687022 0.851804
0.212116 0.66923 0.82884
0.215991 0.647654 0.803357
0.589929 0.646601 0.774197
0.854536 0.621836 0.815015
0.883818 0.617807 0.815824
0.174578 0.70396 0.877089
0.181949 0.705455 0.877302
0.196902 0.705913 0.874327
0.214298 0.70518 0.868391
0.22475 0.695445 0.857847
0.251591 0.683253 0.838666
0.711803 0.678386 0.86302
0.88716 0.656474 0.867399
0.901884 0.652155 0.864668
0.17731 0.715358 0.883574
0.184588 0.716411 0.88394
0.200397 0.717937 0.882109
0.21796 0.717128 0.8757
0.229541 0.706889 0.865034
0.249104 0.694835 0.851514
0.696925 0.694713 0.849409
0.889815 0.669841 0.865507
0.90486 0.665156 0.862226
0.168978 0.709911 0.878386
0.178851 0.717754 0.886168
0.194186 0.719722 0.885664
0.209171 0.717342 0.882689
0.222507 0.703929 0.862654
0.234974 0.687846 0.841672
0.660319 0.693965 0.816983
0.884398 0.673838 0.846357
0.902602 0.669459 0.845396
0.158389 0.697658 0.86479
0.169757 0.708888 0.875929
0.184588 0.708354 0.872404
0.194949 0.69926 0.865278
0.204364 0.688594 0.855238
0.219348 0.673396 0.830335
0.630488 0.687221 0.793591
0.879011 0.67393 0.830259
0.899535 0.670344 0.830045
0.147921 0.682597 0.845106
0.159991 0.69543 0.857206
0.175189 0.695415 0.854337
0.189487 0.690913 0.849104
0.208423 0.694057 0.848966
0.223133 0.691508 0.847318
0.632532 0.712993 0.789883
0.873091 0.698634 0.827558
0.908492 0.699046 0.832303
0.139574 0.67187 0.827176
0.152422 0.68658 0.841031
0.167575 0.68632 0.838056
0.185657 0.687526 0.83505
0.208789 0.697673 0.837522
0.236774 0.719478 0.850538
0.677058 0.773281 0.805371
0.899016 0.776822 0.848859
0.934096 0.778012 0.862119
0.159548 0.735637 0.86949
0.171084 0.748135 0.882856
0.186526 0.748089 0.880339
0.206378 0.752728 0.877333
0.231296 0.770123 0.879713
0.257389 0.792248 0.883406
0.597787 0.855924 0.867369
0.90695 0.874708 0.784497
0.949157 0.873259 0.778744
0.182742 0.824033 0.928908
0.189303 0.820172 0.928313
0.204883 0.820356 0.926421
0.225086 0.828153 0.926024
0.254353 0.863676 0.933211
0.280034 0.887587 0.936156
0.553368 0.927764 0.857389
0.820478 0.969528 0.746639
0.912474 0.972335 0.691173
0.166094 0.699657 0.882567
0.171649 0.699504 0.881071
0.184451 0.698314 0.876554
0.201053 0.697719 0.870771
0.213596 0.691402 0.860807
0.218784 0.681025 0.849073
0.521874 0.698894 0.79881
0.861936 0.650721 0.893019
0.897719 0.649409 0.895766
0.16907 0.705486 0.886931
0.176638 0.707164 0.887236
0.191455 0.707652 0.884276
0.208957 0.707225 0.878462
0.219181 0.699077 0.868681
0.239322 0.690196 0.853986
0.676631 0.695491 0.876387
0.890318 0.662745 0.900938
0.906264 0.661616 0.90277
0.172992 0.717296 0.894804
0.180575 0.719005 0.89543
0.196017 0.720516 0.893599
0.213977 0.720394 0.887861
0.225437 0.711833 0.87834
0.234226 0.700374 0.866728
0.665156 0.712642 0.866453
0.893553 0.677836 0.901671
0.909773 0.676936 0.903838
0.169192 0.722881 0.900969
0.176394 0.723873 0.90161
0.191119 0.724208 0.899275
0.207279 0.725948 0.899763
0.222477 0.718761 0.887053
0.234226 0.709789 0.875761
0.608057 0.731899 0.829313
0.892103 0.691905 0.901091
0.912154 0.691386 0.903868
0.165011 0.727626 0.906157
0.172305 0.728695 0.906416
0.18735 0.729274 0.904036
0.199512 0.722866 0.897597
0.212787 0.716854 0.889708
0.226764 0.711849 0.881666
0.567422 0.740185 0.813336
0.885573 0.701961 0.904173
0.913619 0.701595 0.906828
0.162402 0.734112 0.910002
0.17026 0.735698 0.910491
0.185458 0.736248 0.908202
0.200214 0.732387 0.903044
0.217792 0.732357 0.899535
0.233158 0.728405 0.893141
0.530587 0.755306 0.820096
0.866163 0.728008 0.915007
0.918013 0.726497 0.917784
0.160876 0.742687 0.913634
0.168902 0.744686 0.914702
0.184192 0.745007 0.912352
0.201328 0.744884 0.909361
0.221698 0.748959 0.908232
0.246937 0.761746 0.911467
0.569284 0.789166 0.86244
0.871031 0.783398 0.925475
0.930968 0.778851 0.929274
0.16257 0.758709 0.920455
0.171679 0.762371 0.922255
0.18706 0.762661 0.92015
0.205798 0.765209 0.918273
0.227817 0.773373 0.918883
0.251774 0.785382 0.920897
0.525139 0.819059 0.915862
0.883223 0.871153 0.916426
0.955886 0.867628 0.940398
0.167437 0.784649 0.931426
0.176043 0.78703 0.932586
0.191501 0.787137 0.930632
0.210147 0.789853 0.928542
0.233967 0.802915 0.929427
0.258732 0.819486 0.932052
0.453269 0.857542 0.939422
0.848615 0.930922 0.91397
0.956939 0.971786 0.874617
